;FLAVOR:Marlin
;TIME:14410
;Filament used: 6.71014m
;Layer height: 0.16
;MINX:0
;MINY:0
;MINZ:0.2
;MAXX:196.7
;MAXY:139.45
;MAXZ:5.92
;TARGET_MACHINE.NAME:Creality Ender-3
;Generated with Cura_SteamEngine 5.11.0
M140 S80
M105
M190 S80
M104 S245
M105
M109 S245
; Ender 3 Custom Start G-code
G92 E0 ; Reset Extruder
G28 ; Home all axes
G1 Z2.0 F3000 ; Move Z Axis up little to prevent scratching of Heat Bed
G1 X0.1 Y20 Z0.3 F5000.0 ; Move to start position
G1 X0.1 Y200.0 Z0.3 F1500.0 E15 ; Draw the first line
G1 X0.4 Y200.0 Z0.3 F5000.0 ; Move to side a little
G1 X0.4 Y20 Z0.3 F1500.0 E30 ; Draw the second line
G92 E0 ; Reset Extruder
G1 Z2.0 F3000 ; Move Z Axis up little to prevent scratching of Heat Bed
G1 X5 Y20 Z0.3 F5000.0 ; Move over to prevent blob squish
M82 ;absolute extrusion mode
G92 E0
G92 E0
G1 F3000 E-6
;LAYER_COUNT:37
;LAYER:0
M107
G1 F300 Z1.2
G0 F6000 X0.00 Y0.00 Z1.2
G0 X40.781 Y95.924
;TYPE:SKIRT
G1 F300 Z0.2
G1 F3000 E0
G1 F420 X40.211 Y96.251 E0.02229
G1 X39.572 Y96.765 E0.05011
G1 X39.014 Y97.405 E0.07892
G1 X38.679 Y98.054 E0.1037
G1 X38.388 Y98.891 E0.13376
G1 X38.32 Y99.507 E0.15479
G1 X38.3 Y100.353 E0.18349
G1 X38.3 Y134.962 E1.35762
G1 X38.313 Y135.395 E1.37231
G1 X38.393 Y136.044 E1.3945
G1 X38.643 Y136.916 E1.42527
G1 X39.002 Y137.54 E1.44969
G1 X39.55 Y138.236 E1.47975
G1 X40.11 Y138.68 E1.50399
G1 X40.881 Y139.126 E1.53421
G1 X41.565 Y139.328 E1.55841
G1 X42.231 Y139.426 E1.58124
G1 X43.138 Y139.45 E1.61202
G1 X52.236 Y139.45 E1.92068
G1 X52.846 Y139.429 E1.94138
G1 X55.028 Y139.027 E2.01665
G1 X57.633 Y138.58 E2.10632
G1 X60.388 Y138.188 E2.20073
G1 X63.025 Y137.887 E2.29077
G1 X65.758 Y137.66 E2.38381
G1 X68.451 Y137.508 E2.47531
G1 X71.187 Y137.432 E2.56817
G1 X73.854 Y137.433 E2.65865
G1 X76.626 Y137.511 E2.75273
G1 X79.253 Y137.658 E2.84199
G1 X82.005 Y137.898 E2.9357
G1 X84.652 Y138.198 E3.02608
G1 X87.397 Y138.59 E3.12015
G1 X90.026 Y139.042 E3.21065
G1 X91.757 Y139.373 E3.27044
G1 X92.268 Y139.43 E3.28788
G1 X93.138 Y139.45 E3.3174
G1 X142.236 Y139.45 E4.98307
G1 X142.846 Y139.429 E5.00378
G1 X145.028 Y139.027 E5.07905
G1 X147.633 Y138.58 E5.16871
G1 X150.388 Y138.188 E5.26312
G1 X153.027 Y137.887 E5.35323
G1 X155.76 Y137.655 E5.44628
G1 X158.451 Y137.508 E5.53771
G1 X161.187 Y137.432 E5.63056
G1 X163.854 Y137.433 E5.72104
G1 X166.626 Y137.511 E5.81512
G1 X169.253 Y137.658 E5.90438
G1 X172.005 Y137.898 E5.9981
G1 X174.652 Y138.198 E6.08848
G1 X177.397 Y138.59 E6.18254
G1 X180.026 Y139.042 E6.27304
G1 X181.757 Y139.373 E6.33283
G1 X182.268 Y139.43 E6.35028
G1 X183.138 Y139.45 E6.3798
G1 X192.22 Y139.45 E6.68791
G1 X192.602 Y139.44 E6.70087
G1 X193.343 Y139.346 E6.72621
G1 X194.156 Y139.109 E6.75494
G1 X194.711 Y138.801 E6.77648
G1 X195.484 Y138.206 E6.80957
G1 X195.966 Y137.588 E6.83616
G1 X196.379 Y136.862 E6.86449
G1 X196.578 Y136.184 E6.88846
G1 X196.679 Y135.471 E6.9129
G1 X196.7 Y134.578 E6.9432
G1 X196.7 Y100.026 E8.11539
G1 X196.687 Y99.603 E8.12974
G1 X196.607 Y98.956 E8.15186
G1 X196.357 Y98.084 E8.18264
G1 X195.998 Y97.46 E8.20706
G1 X195.45 Y96.764 E8.23711
G1 X194.89 Y96.32 E8.26136
G1 X194.119 Y95.874 E8.29157
G1 X193.435 Y95.672 E8.31577
G1 X192.769 Y95.574 E8.33861
G1 X191.862 Y95.55 E8.36939
G1 X42.78 Y95.55 E13.42705
G1 X42.398 Y95.56 E13.44001
G1 X41.576 Y95.652 E13.46807
G1 X40.781 Y95.924 E13.49658
G0 F6000 X40.945 Y96.291
G1 F420 X40.41 Y96.598 E13.5175
G1 X39.874 Y97.028 E13.54081
G1 X39.346 Y97.634 E13.56808
G1 X39.034 Y98.238 E13.59114
G1 X38.781 Y98.977 E13.61764
G1 X38.718 Y99.551 E13.63723
G1 X38.7 Y100.362 E13.66475
G1 X38.7 Y134.95 E14.83816
G1 X38.713 Y135.383 E14.85286
G1 X38.79 Y135.994 E14.87375
G1 X39.015 Y136.76 E14.90084
G1 X39.349 Y137.341 E14.92357
G1 X39.837 Y137.954 E14.95015
G1 X40.358 Y138.367 E14.97271
G1 X41.037 Y138.755 E14.99924
G1 X41.678 Y138.944 E15.02191
G1 X42.287 Y139.03 E15.04278
G1 X43.147 Y139.05 E15.07196
G1 X52.222 Y139.05 E15.37983
G1 X52.832 Y139.029 E15.40054
G1 X54.96 Y138.633 E15.47397
G1 X57.577 Y138.184 E15.56405
G1 X60.332 Y137.792 E15.65846
G1 X62.992 Y137.489 E15.74928
G1 X65.725 Y137.261 E15.84232
G1 X68.44 Y137.108 E15.93458
G1 X71.176 Y137.032 E16.02743
G1 X73.865 Y137.033 E16.11866
G1 X76.637 Y137.111 E16.21274
G1 X79.279 Y137.259 E16.30251
G1 X82.045 Y137.5 E16.3967
G1 X84.709 Y137.802 E16.48766
G1 X87.454 Y138.194 E16.58173
G1 X90.101 Y138.649 E16.67284
G1 X91.801 Y138.975 E16.73157
G1 X92.312 Y139.032 E16.74901
G1 X93.147 Y139.05 E16.77734
G1 X142.222 Y139.05 E18.44223
G1 X142.832 Y139.029 E18.46294
G1 X144.96 Y138.633 E18.53637
G1 X147.577 Y138.184 E18.62645
G1 X150.332 Y137.792 E18.72086
G1 X152.993 Y137.489 E18.81171
G1 X155.726 Y137.257 E18.90477
G1 X158.44 Y137.108 E18.99698
G1 X161.176 Y137.032 E19.08983
G1 X163.865 Y137.033 E19.18106
G1 X166.637 Y137.111 E19.27514
G1 X169.279 Y137.259 E19.36491
G1 X172.045 Y137.5 E19.4591
G1 X174.709 Y137.802 E19.55006
G1 X177.454 Y138.194 E19.64413
G1 X180.101 Y138.649 E19.73524
G1 X181.801 Y138.975 E19.79397
G1 X182.312 Y139.032 E19.81141
G1 X183.147 Y139.05 E19.83975
G1 X192.21 Y139.05 E20.14721
G1 X192.592 Y139.04 E20.16017
G1 X193.231 Y138.962 E20.18201
G1 X194 Y138.738 E20.20919
G1 X194.517 Y138.451 E20.22925
G1 X195.201 Y137.919 E20.25864
G1 X195.618 Y137.39 E20.2815
G1 X196.008 Y136.704 E20.30827
G1 X196.194 Y136.071 E20.33065
G1 X196.283 Y135.417 E20.35304
G1 X196.3 Y134.57 E20.38178
G1 X196.3 Y100.038 E21.55329
G1 X196.287 Y99.615 E21.56765
G1 X196.21 Y99.006 E21.58847
G1 X195.985 Y98.24 E21.61556
G1 X195.651 Y97.659 E21.63829
G1 X195.163 Y97.046 E21.66488
G1 X194.642 Y96.633 E21.68743
G1 X193.963 Y96.245 E21.71396
G1 X193.322 Y96.056 E21.73663
G1 X192.713 Y95.97 E21.7575
G1 X191.853 Y95.95 E21.78668
G1 X42.79 Y95.95 E26.8437
G1 X42.408 Y95.96 E26.85666
G1 X41.668 Y96.044 E26.88193
G1 X40.945 Y96.291 E26.90784
G0 F6000 X41.109 Y96.658
G1 F420 X40.609 Y96.945 E26.9274
G1 X40.176 Y97.291 E26.94621
G1 X39.678 Y97.863 E26.97194
G1 X39.389 Y98.422 E26.99329
G1 X39.174 Y99.062 E27.01619
G1 X39.116 Y99.594 E27.03434
G1 X39.1 Y100.37 E27.06068
G1 X39.1 Y134.938 E28.23341
G1 X39.113 Y135.371 E28.2481
G1 X39.187 Y135.943 E28.26767
G1 X39.386 Y136.602 E28.29102
G1 X39.696 Y137.142 E28.31215
G1 X40.12 Y137.668 E28.33507
G1 X40.606 Y138.053 E28.3561
G1 X41.195 Y138.384 E28.37902
G1 X41.791 Y138.56 E28.40011
G1 X42.34 Y138.633 E28.4189
G1 X43.155 Y138.65 E28.44655
G1 X52.208 Y138.65 E28.75368
G1 X52.818 Y138.629 E28.77438
G1 X54.886 Y138.24 E28.84577
G1 X57.521 Y137.788 E28.93647
G1 X60.276 Y137.396 E29.03088
G1 X62.959 Y137.091 E29.12248
G1 X65.692 Y136.862 E29.21553
G1 X68.429 Y136.708 E29.30853
G1 X71.165 Y136.632 E29.40138
G1 X73.876 Y136.633 E29.49336
G1 X76.648 Y136.711 E29.58743
G1 X79.314 Y136.861 E29.67802
G1 X82.08 Y137.101 E29.77221
G1 X84.766 Y137.406 E29.86392
G1 X87.511 Y137.798 E29.95799
G1 X90.176 Y138.256 E30.04973
G1 X91.876 Y138.582 E30.10845
G1 X92.355 Y138.634 E30.1248
G1 X93.155 Y138.65 E30.15194
G1 X142.208 Y138.65 E31.81608
G1 X142.818 Y138.629 E31.83679
G1 X144.886 Y138.24 E31.90818
G1 X147.521 Y137.788 E31.99888
G1 X150.276 Y137.396 E32.09328
G1 X152.959 Y137.091 E32.18489
G1 X155.692 Y136.859 E32.27794
G1 X158.429 Y136.708 E32.37094
G1 X161.165 Y136.632 E32.46379
G1 X163.876 Y136.633 E32.55576
G1 X166.648 Y136.711 E32.64984
G1 X169.314 Y136.861 E32.74043
G1 X172.08 Y137.101 E32.83462
G1 X174.766 Y137.406 E32.92633
G1 X177.511 Y137.798 E33.0204
G1 X180.176 Y138.256 E33.11213
G1 X181.876 Y138.582 E33.17086
G1 X182.355 Y138.634 E33.1872
G1 X183.155 Y138.65 E33.21435
G1 X192.2 Y138.65 E33.5212
G1 X192.582 Y138.64 E33.53417
G1 X193.119 Y138.578 E33.55251
G1 X193.844 Y138.367 E33.57812
G1 X194.323 Y138.101 E33.59671
G1 X194.917 Y137.633 E33.62237
G1 X195.304 Y137.142 E33.64358
G1 X195.636 Y136.549 E33.66663
G1 X195.81 Y135.958 E33.68753
G1 X195.886 Y135.366 E33.70778
G1 X195.9 Y134.563 E33.73503
G1 X195.9 Y100.05 E34.90589
G1 X195.887 Y99.627 E34.92025
G1 X195.813 Y99.057 E34.93975
G1 X195.614 Y98.398 E34.9631
G1 X195.304 Y97.858 E34.98423
G1 X194.88 Y97.332 E35.00715
G1 X194.394 Y96.947 E35.02818
G1 X193.805 Y96.616 E35.0511
G1 X193.209 Y96.44 E35.07219
G1 X192.66 Y96.367 E35.09097
G1 X191.845 Y96.35 E35.11863
G1 X42.8 Y96.35 E40.17503
G1 X42.418 Y96.36 E40.188
G1 X41.759 Y96.436 E40.2105
G1 X41.109 Y96.658 E40.2338
G0 F6000 X41.273 Y97.025
G1 F420 X40.808 Y97.292 E40.25199
G1 X40.429 Y97.601 E40.26858
G1 X40.011 Y98.09 E40.29041
G1 X39.744 Y98.606 E40.31012
G1 X39.568 Y99.145 E40.32935
G1 X39.514 Y99.638 E40.34618
G1 X39.5 Y100.378 E40.37129
G1 X39.5 Y134.928 E41.54341
G1 X39.51 Y135.32 E41.55671
G1 X39.584 Y135.892 E41.57628
G1 X39.756 Y136.443 E41.59586
G1 X40.043 Y136.943 E41.61542
G1 X40.403 Y137.382 E41.63468
G1 X40.854 Y137.739 E41.65419
G1 X41.349 Y138.012 E41.67337
G1 X41.904 Y138.176 E41.693
G1 X42.389 Y138.236 E41.70958
G1 X43.162 Y138.25 E41.73581
G1 X52.194 Y138.25 E42.04223
G1 X52.804 Y138.229 E42.06293
G1 X54.811 Y137.847 E42.13224
G1 X57.465 Y137.392 E42.22359
G1 X60.22 Y137 E42.318
G1 X62.925 Y136.693 E42.41036
G1 X65.658 Y136.463 E42.5034
G1 X68.418 Y136.308 E42.59718
G1 X71.154 Y136.232 E42.69004
G1 X73.887 Y136.233 E42.78276
G1 X76.659 Y136.311 E42.87684
G1 X79.348 Y136.463 E42.96821
G1 X82.114 Y136.702 E43.06239
G1 X84.823 Y137.01 E43.15489
G1 X87.568 Y137.402 E43.24896
G1 X90.251 Y137.863 E43.34132
G1 X91.951 Y138.189 E43.40004
G1 X92.397 Y138.236 E43.41525
G1 X93.162 Y138.25 E43.44121
G1 X142.194 Y138.25 E45.10464
G1 X142.804 Y138.229 E45.12534
G1 X144.811 Y137.847 E45.19466
G1 X147.465 Y137.392 E45.28601
G1 X150.22 Y137 E45.38041
G1 X152.925 Y136.693 E45.47277
G1 X155.658 Y136.461 E45.56582
G1 X158.418 Y136.308 E45.6596
G1 X161.154 Y136.232 E45.75245
G1 X163.887 Y136.233 E45.84517
G1 X166.659 Y136.311 E45.93925
G1 X169.348 Y136.463 E46.03062
G1 X172.114 Y136.702 E46.12481
G1 X174.823 Y137.01 E46.2173
G1 X177.568 Y137.402 E46.31137
G1 X180.251 Y137.863 E46.40373
G1 X181.951 Y138.189 E46.46245
G1 X182.397 Y138.236 E46.47767
G1 X183.162 Y138.25 E46.50363
G1 X192.19 Y138.25 E46.8099
G1 X192.572 Y138.24 E46.82287
G1 X193.072 Y138.181 E46.83995
G1 X193.686 Y137.997 E46.86169
G1 X194.128 Y137.751 E46.87885
G1 X194.631 Y137.349 E46.9007
G1 X194.99 Y136.894 E46.92036
G1 X195.264 Y136.394 E46.9397
G1 X195.426 Y135.845 E46.95912
G1 X195.486 Y135.359 E46.97574
G1 X195.5 Y134.556 E47.00298
G1 X195.5 Y100.06 E48.17327
G1 X195.49 Y99.678 E48.18623
G1 X195.416 Y99.108 E48.20573
G1 X195.244 Y98.557 E48.22532
G1 X194.957 Y98.057 E48.24487
G1 X194.597 Y97.618 E48.26414
G1 X194.146 Y97.261 E48.28365
G1 X193.651 Y96.988 E48.30283
G1 X193.096 Y96.824 E48.32246
G1 X192.611 Y96.764 E48.33904
G1 X191.838 Y96.75 E48.36527
G1 X42.81 Y96.75 E53.42109
G1 X42.428 Y96.76 E53.43406
G1 X41.85 Y96.828 E53.4538
G1 X41.273 Y97.025 E53.47449
G0 F6000 X41.437 Y97.392
G1 F420 X41.007 Y97.639 E53.49131
G1 X40.686 Y97.908 E53.50552
G1 X40.344 Y98.317 E53.5236
G1 X40.099 Y98.79 E53.54168
G1 X39.962 Y99.228 E53.55724
G1 X39.912 Y99.682 E53.57274
G1 X39.9 Y100.385 E53.59659
G1 X39.9 Y134.918 E54.76814
G1 X39.91 Y135.31 E54.78144
G1 X39.966 Y135.773 E54.79726
G1 X40.125 Y136.282 E54.81535
G1 X40.39 Y136.744 E54.83342
G1 X40.683 Y137.093 E54.84888
G1 X41.102 Y137.425 E54.86702
G1 X41.505 Y137.641 E54.88253
G1 X42.017 Y137.792 E54.90064
G1 X42.433 Y137.838 E54.91484
G1 X43.169 Y137.85 E54.93981
G1 X52.18 Y137.85 E55.24551
G1 X52.79 Y137.829 E55.26622
G1 X54.735 Y137.454 E55.33342
G1 X57.409 Y136.996 E55.42545
G1 X60.164 Y136.604 E55.51986
G1 X62.891 Y136.295 E55.61297
G1 X65.624 Y136.064 E55.70602
G1 X68.407 Y135.908 E55.80058
G1 X71.143 Y135.832 E55.89343
G1 X73.898 Y135.833 E55.9869
G1 X76.67 Y135.911 E56.08098
G1 X79.382 Y136.065 E56.17313
G1 X82.148 Y136.303 E56.26731
G1 X84.88 Y136.614 E56.3606
G1 X87.625 Y137.006 E56.45467
G1 X90.326 Y137.47 E56.54764
G1 X92.026 Y137.796 E56.60636
G1 X92.438 Y137.838 E56.62041
G1 X93.169 Y137.85 E56.64522
G1 X142.18 Y137.85 E58.30793
G1 X142.79 Y137.829 E58.32864
G1 X144.735 Y137.454 E58.39584
G1 X147.409 Y136.996 E58.48788
G1 X150.164 Y136.604 E58.58228
G1 X152.891 Y136.295 E58.67539
G1 X155.624 Y136.063 E58.76844
G1 X158.407 Y135.908 E58.863
G1 X161.143 Y135.832 E58.95586
G1 X163.898 Y135.833 E59.04932
G1 X166.67 Y135.911 E59.1434
G1 X169.382 Y136.065 E59.23555
G1 X172.148 Y136.303 E59.32974
G1 X174.88 Y136.614 E59.42302
G1 X177.625 Y137.006 E59.51709
G1 X180.326 Y137.47 E59.61006
G1 X182.026 Y137.796 E59.66879
G1 X182.438 Y137.838 E59.68284
G1 X183.169 Y137.85 E59.70764
G1 X192.18 Y137.85 E60.01334
G1 X192.562 Y137.84 E60.0263
G1 X193.024 Y137.784 E60.04209
G1 X193.531 Y137.626 E60.06011
G1 X193.933 Y137.402 E60.07572
G1 X194.345 Y137.065 E60.09378
G1 X194.676 Y136.646 E60.11189
G1 X194.892 Y136.241 E60.12747
G1 X195.042 Y135.732 E60.14547
G1 X195.088 Y135.315 E60.1597
G1 X195.1 Y134.55 E60.18566
G1 X195.1 Y100.07 E61.3554
G1 X195.09 Y99.688 E61.36837
G1 X195.034 Y99.227 E61.38412
G1 X194.875 Y98.718 E61.40221
G1 X194.61 Y98.256 E61.42028
G1 X194.317 Y97.907 E61.43574
G1 X193.898 Y97.575 E61.45388
G1 X193.495 Y97.359 E61.46939
G1 X192.983 Y97.208 E61.4875
G1 X192.567 Y97.162 E61.5017
G1 X191.831 Y97.15 E61.52667
G1 X42.82 Y97.15 E66.58192
G1 X42.438 Y97.16 E66.59488
G1 X41.941 Y97.22 E66.61186
G1 X41.437 Y97.392 E66.62993
G0 F6000 X41.631 Y97.742
G1 F420 X41.264 Y97.946 E66.64418
G1 X40.943 Y98.215 E66.65838
G1 X40.679 Y98.54 E66.67259
G1 X40.481 Y98.909 E66.6868
G1 X40.356 Y99.309 E66.70101
G1 X40.31 Y99.726 E66.71525
G1 X40.3 Y100.391 E66.73781
G1 X40.3 Y134.908 E67.90881
G1 X40.31 Y135.3 E67.92211
G1 X40.363 Y135.723 E67.93658
G1 X40.493 Y136.121 E67.95078
G1 X40.697 Y136.487 E67.96499
G1 X40.966 Y136.808 E67.9792
G1 X41.291 Y137.072 E67.99341
G1 X41.661 Y137.27 E68.00764
G1 X42.061 Y137.394 E68.02185
G1 X42.477 Y137.44 E68.03605
G1 X43.175 Y137.45 E68.05973
G1 X52.17 Y137.45 E68.36489
G1 X52.714 Y137.436 E68.38335
G1 X54.659 Y137.061 E68.45055
G1 X57.353 Y136.6 E68.54328
G1 X60.108 Y136.208 E68.63768
G1 X62.857 Y135.897 E68.73154
G1 X65.59 Y135.665 E68.82459
G1 X68.396 Y135.508 E68.91993
G1 X71.132 Y135.432 E69.01279
G1 X73.909 Y135.433 E69.107
G1 X76.681 Y135.511 E69.20108
G1 X79.416 Y135.667 E69.29401
G1 X82.182 Y135.904 E69.38819
G1 X84.937 Y136.218 E69.48226
G1 X87.682 Y136.61 E69.57633
G1 X90.401 Y137.077 E69.66993
G1 X92.101 Y137.403 E69.72865
G1 X92.477 Y137.44 E69.74147
G1 X93.175 Y137.45 E69.76515
G1 X142.17 Y137.45 E71.42732
G1 X142.714 Y137.436 E71.44578
G1 X144.659 Y137.061 E71.51298
G1 X147.353 Y136.6 E71.60571
G1 X150.108 Y136.208 E71.70011
G1 X152.857 Y135.897 E71.79397
G1 X155.59 Y135.665 E71.88702
G1 X158.396 Y135.508 E71.98236
G1 X161.132 Y135.432 E72.07522
G1 X163.909 Y135.433 E72.16943
G1 X166.681 Y135.511 E72.26351
G1 X169.416 Y135.667 E72.35645
G1 X172.182 Y135.904 E72.45063
G1 X174.937 Y136.218 E72.5447
G1 X177.682 Y136.61 E72.63877
G1 X180.401 Y137.077 E72.73236
G1 X182.101 Y137.403 E72.79108
G1 X182.477 Y137.44 E72.8039
G1 X183.175 Y137.45 E72.82758
G1 X192.17 Y137.45 E73.13274
G1 X192.552 Y137.44 E73.14571
G1 X192.974 Y137.387 E73.16013
G1 X193.372 Y137.257 E73.17434
G1 X193.738 Y137.053 E73.18855
G1 X194.059 Y136.783 E73.20278
G1 X194.323 Y136.458 E73.21699
G1 X194.52 Y136.088 E73.23121
G1 X194.644 Y135.688 E73.24542
G1 X194.69 Y135.271 E73.25965
G1 X194.7 Y134.544 E73.28432
G1 X194.7 Y100.08 E74.45352
G1 X194.69 Y99.698 E74.46648
G1 X194.637 Y99.277 E74.48088
G1 X194.507 Y98.879 E74.49508
G1 X194.303 Y98.513 E74.5093
G1 X194.034 Y98.192 E74.52351
G1 X193.709 Y97.928 E74.53771
G1 X193.339 Y97.73 E74.55195
G1 X192.939 Y97.606 E74.56615
G1 X192.523 Y97.56 E74.58035
G1 X191.825 Y97.55 E74.60404
G1 X42.83 Y97.55 E79.65874
G1 X42.448 Y97.56 E79.67171
G1 X42.029 Y97.612 E79.68603
G1 X41.631 Y97.742 E79.70023
G1 F3000 E73.70023
;MESH:Front-Panel.stl
G0 F6000 X42.924 Y99.085
G0 X47.978 Y107.037
;TYPE:WALL-OUTER
G1 F3000 E79.70023
G1 F420 X47.501 Y107.103 E79.71657
G1 X47.049 Y107.043 E79.73204
G1 X46.595 Y106.861 E79.74863
G1 X46.189 Y106.559 E79.7658
G1 X45.887 Y106.153 E79.78297
G1 X45.705 Y105.699 E79.79956
G1 X45.645 Y105.248 E79.81499
G1 X45.705 Y104.797 E79.83043
