;FLAVOR:Marlin
;TIME:8165
;Filament used: 2.74507m
;Layer height: 0.12
;MINX:0
;MINY:0
;MINZ:0.12
;MAXX:137.05
;MAXY:130.3
;MAXZ:8.04
;TARGET_MACHINE.NAME:Creality Ender-3
;Generated with Cura_SteamEngine 5.11.0
M140 S80
M105
M190 S80
M104 S245
M105
M109 S245
; Ender 3 Custom Start G-code
G92 E0 ; Reset Extruder
G28 ; Home all axes
G1 Z2.0 F3000 ; Move Z Axis up little to prevent scratching of Heat Bed
G1 X0.1 Y20 Z0.3 F5000.0 ; Move to start position
G1 X0.1 Y200.0 Z0.3 F1500.0 E15 ; Draw the first line
G1 X0.4 Y200.0 Z0.3 F5000.0 ; Move to side a little
G1 X0.4 Y20 Z0.3 F1500.0 E30 ; Draw the second line
G92 E0 ; Reset Extruder
G1 Z2.0 F3000 ; Move Z Axis up little to prevent scratching of Heat Bed
G1 X5 Y20 Z0.3 F5000.0 ; Move over to prevent blob squish
M82 ;absolute extrusion mode
G92 E0
G92 E0
G1 F3000 E-6
;LAYER_COUNT:67
;LAYER:0
M107
G1 F300 Z1.12
G0 F6000 X0.00 Y0.00 Z1.12
G0 X87.31 Y79.408
;TYPE:SKIRT
G1 F300 Z0.12
G1 F3000 E0
G1 F450 X87.065 Y79.881 E0.01084
G1 X86.95 Y80.352 E0.02071
G1 X86.95 Y86.5 E0.14586
G1 X87.052 Y87.111 E0.15846
G1 X87.345 Y87.602 E0.1701
G1 X87.658 Y87.94 E0.17948
G1 X88.131 Y88.185 E0.19032
G1 X88.602 Y88.3 E0.20019
G1 X97.7 Y88.3 E0.38538
G1 X97.7 Y89.015 E0.39994
G1 X94.5 Y89.015 E0.46507
G1 X93.889 Y89.117 E0.47768
G1 X93.398 Y89.41 E0.48932
G1 X93.06 Y89.723 E0.4987
G1 X92.815 Y90.196 E0.50954
G1 X92.7 Y90.667 E0.51941
G1 X92.7 Y94.7 E0.6015
G1 X88.75 Y94.7 E0.68191
G1 X88.139 Y94.802 E0.69452
G1 X87.648 Y95.095 E0.70615
G1 X87.31 Y95.408 E0.71553
G1 X87.065 Y95.881 E0.72637
G1 X86.95 Y96.352 E0.73624
G1 X86.95 Y102.5 E0.86139
G1 X87.052 Y103.111 E0.874
G1 X87.345 Y103.602 E0.88563
G1 X87.658 Y103.94 E0.89501
G1 X88.131 Y104.185 E0.90585
G1 X88.602 Y104.3 E0.91572
G1 X118.25 Y104.3 E1.51921
G1 X118.861 Y104.198 E1.53182
G1 X119.352 Y103.905 E1.54346
G1 X119.69 Y103.592 E1.55284
G1 X119.935 Y103.119 E1.56368
G1 X120.05 Y102.648 E1.57355
G1 X120.05 Y96.5 E1.6987
G1 X119.948 Y95.889 E1.7113
G1 X119.655 Y95.398 E1.72294
G1 X119.342 Y95.06 E1.73232
G1 X118.869 Y94.815 E1.74316
G1 X118.398 Y94.7 E1.75303
G1 X114.3 Y94.7 E1.83645
G1 X114.3 Y90.815 E1.91553
G1 X114.198 Y90.204 E1.92814
G1 X113.905 Y89.713 E1.93978
G1 X113.592 Y89.375 E1.94915
G1 X113.119 Y89.13 E1.95999
G1 X112.648 Y89.015 E1.96986
G1 X109.3 Y89.015 E2.03801
G1 X109.3 Y88.3 E2.05257
G1 X118.25 Y88.3 E2.23475
G1 X118.861 Y88.198 E2.24736
G1 X119.352 Y87.905 E2.25899
G1 X119.69 Y87.592 E2.26837
G1 X119.935 Y87.119 E2.27921
G1 X120.05 Y86.648 E2.28908
G1 X120.05 Y80.5 E2.41423
G1 X119.948 Y79.889 E2.42684
G1 X119.655 Y79.398 E2.43847
G1 X119.342 Y79.06 E2.44785
G1 X118.869 Y78.815 E2.45869
G1 X118.398 Y78.7 E2.46856
G1 X88.75 Y78.7 E3.07205
G1 X88.139 Y78.802 E3.08466
G1 X87.648 Y79.095 E3.0963
G1 X87.31 Y79.408 E3.10568
G0 F6000 X87.633 Y79.654
G1 F450 X87.89 Y79.416 E3.11281
G1 X88.277 Y79.185 E3.12198
G1 X88.75 Y79.1 E3.13177
G1 X118.348 Y79.1 E3.73424
G1 X118.73 Y79.193 E3.74224
G1 X119.096 Y79.383 E3.75064
G1 X119.334 Y79.64 E3.75777
G1 X119.565 Y80.027 E3.76694
G1 X119.65 Y80.5 E3.77672
G1 X119.65 Y86.598 E3.90085
G1 X119.557 Y86.98 E3.90885
G1 X119.367 Y87.346 E3.91724
G1 X119.11 Y87.584 E3.92437
G1 X118.723 Y87.815 E3.93355
G1 X118.25 Y87.9 E3.94333
G1 X108.9 Y87.9 E4.13365
G1 X108.9 Y89.415 E4.16449
G1 X112.598 Y89.415 E4.23976
G1 X112.98 Y89.508 E4.24777
G1 X113.346 Y89.698 E4.25616
G1 X113.584 Y89.955 E4.26329
G1 X113.815 Y90.342 E4.27246
G1 X113.9 Y90.815 E4.28225
G1 X113.9 Y95.1 E4.36947
G1 X118.348 Y95.1 E4.46001
G1 X118.73 Y95.193 E4.46801
G1 X119.096 Y95.383 E4.47641
G1 X119.334 Y95.64 E4.48354
G1 X119.565 Y96.027 E4.49271
G1 X119.65 Y96.5 E4.50249
G1 X119.65 Y102.598 E4.62662
G1 X119.557 Y102.98 E4.63462
G1 X119.367 Y103.346 E4.64301
G1 X119.11 Y103.584 E4.65014
G1 X118.723 Y103.815 E4.65932
G1 X118.25 Y103.9 E4.6691
G1 X88.652 Y103.9 E5.27157
G1 X88.27 Y103.807 E5.27958
G1 X87.904 Y103.617 E5.28797
G1 X87.666 Y103.36 E5.2951
G1 X87.435 Y102.973 E5.30427
G1 X87.35 Y102.5 E5.31406
G1 X87.35 Y96.402 E5.43818
G1 X87.443 Y96.02 E5.44619
G1 X87.633 Y95.654 E5.45458
G1 X87.89 Y95.416 E5.46171
G1 X88.277 Y95.185 E5.47088
G1 X88.75 Y95.1 E5.48067
G1 X93.1 Y95.1 E5.56921
G1 X93.1 Y90.717 E5.65843
G1 X93.193 Y90.335 E5.66643
G1 X93.383 Y89.969 E5.67483
G1 X93.64 Y89.731 E5.68196
G1 X94.027 Y89.5 E5.69113
G1 X94.5 Y89.415 E5.70091
G1 X98.1 Y89.415 E5.77419
G1 X98.1 Y87.9 E5.80503
G1 X88.652 Y87.9 E5.99734
G1 X88.27 Y87.807 E6.00535
G1 X87.904 Y87.617 E6.01374
G1 X87.666 Y87.36 E6.02087
G1 X87.435 Y86.973 E6.03005
G1 X87.35 Y86.5 E6.03983
G1 X87.35 Y80.402 E6.16395
G1 X87.443 Y80.02 E6.17196
G1 X87.633 Y79.654 E6.18035
G0 F6000 X87.957 Y79.899
G1 F450 X88.095 Y79.76 E6.18434
G1 X88.422 Y79.565 E6.19209
G1 X88.75 Y79.5 E6.19889
G1 X118.299 Y79.5 E6.80037
G1 X118.588 Y79.57 E6.80642
G1 X118.851 Y79.707 E6.81246
G1 X118.99 Y79.845 E6.81645
G1 X119.185 Y80.172 E6.82419
G1 X119.25 Y80.5 E6.831
G1 X119.25 Y86.549 E6.95413
G1 X119.18 Y86.838 E6.96018
G1 X119.043 Y87.101 E6.96622
G1 X118.905 Y87.24 E6.97021
G1 X118.578 Y87.435 E6.97796
G1 X118.25 Y87.5 E6.98476
G1 X108.5 Y87.5 E7.18323
G1 X108.5 Y89.815 E7.23035
G1 X112.549 Y89.815 E7.31277
G1 X112.838 Y89.885 E7.31882
G1 X113.101 Y90.022 E7.32485
G1 X113.24 Y90.16 E7.32884
G1 X113.435 Y90.487 E7.33659
G1 X113.5 Y90.815 E7.3434
G1 X113.5 Y95.5 E7.43876
G1 X118.299 Y95.5 E7.53645
G1 X118.588 Y95.57 E7.5425
G1 X118.851 Y95.707 E7.54854
G1 X118.99 Y95.845 E7.55252
G1 X119.185 Y96.172 E7.56027
G1 X119.25 Y96.5 E7.56708
G1 X119.25 Y102.549 E7.69021
G1 X119.18 Y102.838 E7.69626
G1 X119.043 Y103.101 E7.7023
G1 X118.905 Y103.24 E7.70628
G1 X118.578 Y103.435 E7.71403
G1 X118.25 Y103.5 E7.72084
G1 X88.701 Y103.5 E8.32232
G1 X88.412 Y103.43 E8.32837
G1 X88.149 Y103.293 E8.3344
G1 X88.01 Y103.155 E8.33839
G1 X87.815 Y102.828 E8.34614
G1 X87.75 Y102.5 E8.35295
G1 X87.75 Y96.451 E8.47608
G1 X87.82 Y96.162 E8.48213
G1 X87.957 Y95.899 E8.48816
G1 X88.095 Y95.76 E8.49215
G1 X88.422 Y95.565 E8.4999
G1 X88.75 Y95.5 E8.50671
G1 X93.5 Y95.5 E8.6034
G1 X93.5 Y90.766 E8.69976
G1 X93.57 Y90.477 E8.70581
G1 X93.707 Y90.214 E8.71185
G1 X93.845 Y90.075 E8.71583
G1 X94.172 Y89.88 E8.72358
G1 X94.5 Y89.815 E8.73039
G1 X98.5 Y89.815 E8.81181
G1 X98.5 Y87.5 E8.85893
G1 X88.701 Y87.5 E9.05839
G1 X88.412 Y87.43 E9.06445
G1 X88.149 Y87.293 E9.07048
G1 X88.01 Y87.155 E9.07447
G1 X87.815 Y86.828 E9.08222
G1 X87.75 Y86.5 E9.08902
G1 X87.75 Y80.451 E9.21215
G1 X87.82 Y80.162 E9.21821
G1 X87.957 Y79.899 E9.22424
G1 F3000 E3.22424
G1 F300 Z1.12
G0 F6000 X87.957 Y79.899 Z1.12
G0 X100.8 Y93.985
G1 F300 Z0.12
G1 F3000 E9.22424
G1 F450 X100.8 Y94.7 E9.2388
G1 X106.2 Y94.7 E9.34871
G1 X106.2 Y93.985 E9.36327
G1 X100.8 Y93.985 E9.47319
G0 F6000 X100.4 Y93.585
G1 F450 X106.6 Y93.585 E9.59939
G1 X106.6 Y95.1 E9.63023
G1 X100.4 Y95.1 E9.75643
G1 X100.4 Y93.585 E9.78727
G0 F6000 X100 Y93.185
G1 F450 X100 Y95.5 E9.83439
G1 X107 Y95.5 E9.97688
G1 X107 Y93.185 E10.024
G1 X100 Y93.185 E10.16648
G0 F6000 X99.5 Y92.385
G1 F450 X99.381 Y92.346 E10.16903
G1 X99.3 Y92.185 E10.1727
G1 X99.3 Y86.7 E10.28435
G1 X88.75 Y86.7 E10.4991
G1 X88.631 Y86.661 E10.50165
G1 X88.55 Y86.5 E10.50532
G1 X88.55 Y80.5 E10.62745
G1 X88.589 Y80.381 E10.63
G1 X88.75 Y80.3 E10.63366
G1 X118.25 Y80.3 E11.23414
G1 X118.369 Y80.339 E11.23669
G1 X118.45 Y80.5 E11.24036
G1 X118.45 Y86.5 E11.36249
G1 X118.411 Y86.619 E11.36504
G1 X118.25 Y86.7 E11.36871
G1 X107.7 Y86.7 E11.58346
G1 X107.7 Y92.185 E11.6951
G1 X107.661 Y92.304 E11.69765
G1 X107.5 Y92.385 E11.70132
G1 X99.5 Y92.385 E11.86416
G1 F3000 E5.86416
G0 F6000 X99.2 Y90.815
G1 F3000 E11.86416
G1 F450 X99.119 Y90.654 E11.86783
G1 X99 Y90.615 E11.87038
G1 X94.5 Y90.615 E11.96198
G1 X94.339 Y90.696 E11.96565
G1 X94.3 Y90.815 E11.9682
G1 X94.3 Y96.3 E12.07985
G1 X88.75 Y96.3 E12.19282
G1 X88.589 Y96.381 E12.19649
G1 X88.55 Y96.5 E12.19903
G1 X88.55 Y102.5 E12.32117
G1 X88.631 Y102.661 E12.32483
G1 X88.75 Y102.7 E12.32738
G1 X118.25 Y102.7 E12.92786
G1 X118.411 Y102.619 E12.93153
G1 X118.45 Y102.5 E12.93408
G1 X118.45 Y96.5 E13.05621
G1 X118.369 Y96.339 E13.05988
G1 X118.25 Y96.3 E13.06243
G1 X112.7 Y96.3 E13.1754
G1 X112.7 Y90.815 E13.28705
G1 X112.619 Y90.654 E13.29072
G1 X112.5 Y90.615 E13.29327
G1 X108 Y90.615 E13.38486
G1 X107.839 Y90.696 E13.38853
G1 X107.8 Y90.815 E13.39108
G1 X107.8 Y96.3 E13.50273
G1 X99.2 Y96.3 E13.67778
G1 X99.2 Y90.815 E13.78943
G0 F6000 X98.9 Y90.215
G1 F450 X98.9 Y87.1 E13.85284
G1 X88.75 Y87.1 E14.05944
G1 X88.506 Y87.041 E14.06455
G1 X88.354 Y86.95 E14.06816
G1 X88.193 Y86.68 E14.07456
G1 X88.15 Y86.5 E14.07833
G1 X88.15 Y80.5 E14.20046
G1 X88.209 Y80.256 E14.20557
G1 X88.3 Y80.104 E14.20917
G1 X88.57 Y79.943 E14.21557
G1 X88.75 Y79.9 E14.21934
G1 X118.25 Y79.9 E14.81982
G1 X118.494 Y79.959 E14.82493
G1 X118.646 Y80.05 E14.82853
G1 X118.807 Y80.32 E14.83493
G1 X118.85 Y80.5 E14.8387
G1 X118.85 Y86.5 E14.96083
G1 X118.791 Y86.744 E14.96594
G1 X118.7 Y86.896 E14.96955
G1 X118.43 Y87.057 E14.97595
G1 X118.25 Y87.1 E14.97971
G1 X108.1 Y87.1 E15.18632
G1 X108.1 Y90.215 E15.24972
G1 X112.5 Y90.215 E15.33929
G1 X112.744 Y90.274 E15.3444
G1 X112.896 Y90.365 E15.348
G1 X113.057 Y90.635 E15.3544
G1 X113.1 Y90.815 E15.35817
G1 X113.1 Y95.9 E15.46168
G1 X118.25 Y95.9 E15.5665
G1 X118.494 Y95.959 E15.57161
G1 X118.646 Y96.05 E15.57522
G1 X118.807 Y96.32 E15.58162
G1 X118.85 Y96.5 E15.58539
G1 X118.85 Y102.5 E15.70752
G1 X118.791 Y102.744 E15.71263
G1 X118.7 Y102.896 E15.71623
G1 X118.43 Y103.057 E15.72263
G1 X118.25 Y103.1 E15.7264
G1 X88.75 Y103.1 E16.32688
G1 X88.506 Y103.041 E16.33199
G1 X88.354 Y102.95 E16.33559
G1 X88.193 Y102.68 E16.34199
G1 X88.15 Y102.5 E16.34576
G1 X88.15 Y96.5 E16.46789
G1 X88.209 Y96.256 E16.473
G1 X88.3 Y96.104 E16.47661
G1 X88.57 Y95.943 E16.48301
G1 X88.75 Y95.9 E16.48677
G1 X93.9 Y95.9 E16.5916
G1 X93.9 Y90.815 E16.69511
G1 X93.959 Y90.571 E16.70022
G1 X94.05 Y90.419 E16.70382
G1 X94.32 Y90.258 E16.71022
G1 X94.5 Y90.215 E16.71399
G1 X98.9 Y90.215 E16.80355
G1 F3000 E10.80355
G1 F300 Z1.12
G0 F6000 X98.9 Y90.215 Z1.12
G0 X99.6 Y92.785
G1 F300 Z0.12
G1 F3000 E16.80355
G1 F450 X99.6 Y95.9 E16.86696
G1 X107.4 Y95.9 E17.02573
G1 X107.4 Y92.785 E17.08914
G1 X99.6 Y92.785 E17.24791
G1 F3000 E11.24791
G1 F300 Z1.12
G0 F6000 X99.6 Y92.785 Z1.12
G0 X102.398 Y104.7
G1 F300 Z0.12
G1 F3000 E17.24791
G1 F450 X102.869 Y104.815 E17.25778
G1 X103.342 Y105.06 E17.26862
G1 X103.655 Y105.398 E17.278
G1 X103.908 Y105.822 E17.28805
G1 X103.996 Y106.163 E17.29521
G1 X104.088 Y105.836 E17.30213
G1 X104.31 Y105.408 E17.31194
G1 X104.648 Y105.095 E17.32132
G1 X105.139 Y104.802 E17.33296
G1 X105.75 Y104.7 E17.34557
G1 X135.398 Y104.7 E17.94906
G1 X135.869 Y104.815 E17.95893
G1 X136.342 Y105.06 E17.96977
G1 X136.655 Y105.398 E17.97915
G1 X136.948 Y105.889 E17.99079
G1 X137.05 Y106.5 E18.0034
G1 X137.05 Y112.648 E18.12854
G1 X136.935 Y113.119 E18.13841
G1 X136.69 Y113.592 E18.14925
G1 X136.352 Y113.905 E18.15863
G1 X135.861 Y114.198 E18.17027
G1 X135.25 Y114.3 E18.18288
G1 X126.3 Y114.3 E18.36506
G1 X126.3 Y115.015 E18.37961
G1 X129.648 Y115.015 E18.44776
G1 X130.119 Y115.13 E18.45763
G1 X130.592 Y115.375 E18.46847
G1 X130.905 Y115.713 E18.47785
G1 X131.198 Y116.204 E18.48949
G1 X131.3 Y116.815 E18.50209
G1 X131.3 Y120.7 E18.58117
G1 X135.398 Y120.7 E18.66459
G1 X135.869 Y120.815 E18.67446
G1 X136.342 Y121.06 E18.6853
G1 X136.655 Y121.398 E18.69468
G1 X136.948 Y121.889 E18.70632
G1 X137.05 Y122.5 E18.71893
G1 X137.05 Y128.648 E18.84407
G1 X136.935 Y129.119 E18.85394
G1 X136.69 Y129.592 E18.86478
G1 X136.352 Y129.905 E18.87416
G1 X135.861 Y130.198 E18.8858
G1 X135.25 Y130.3 E18.89841
G1 X105.602 Y130.3 E19.5019
G1 X105.131 Y130.185 E19.51177
G1 X104.658 Y129.94 E19.52261
G1 X104.345 Y129.602 E19.53199
G1 X104.092 Y129.178 E19.54204
G1 X104.004 Y128.837 E19.54921
G1 X103.912 Y129.164 E19.55612
G1 X103.69 Y129.592 E19.56594
G1 X103.352 Y129.905 E19.57531
G1 X102.861 Y130.198 E19.58695
G1 X102.25 Y130.3 E19.59956
G1 X72.602 Y130.3 E20.20305
G1 X72.131 Y130.185 E20.21292
G1 X71.658 Y129.94 E20.22376
G1 X71.345 Y129.602 E20.23314
G1 X71.052 Y129.111 E20.24478
G1 X70.95 Y128.5 E20.25739
G1 X70.95 Y122.352 E20.38253
G1 X71.065 Y121.881 E20.3924
G1 X71.31 Y121.408 E20.40324
G1 X71.648 Y121.095 E20.41262
G1 X72.139 Y120.802 E20.42426
G1 X72.75 Y120.7 E20.43687
G1 X76.7 Y120.7 E20.51727
G1 X76.7 Y116.667 E20.59936
G1 X76.815 Y116.196 E20.60923
G1 X77.06 Y115.723 E20.62008
G1 X77.398 Y115.41 E20.62945
G1 X77.889 Y115.117 E20.64109
G1 X78.5 Y115.015 E20.6537
G1 X81.7 Y115.015 E20.71884
G1 X81.7 Y114.3 E20.73339
G1 X72.602 Y114.3 E20.91858
G1 X72.131 Y114.185 E20.92845
G1 X71.658 Y113.94 E20.93929
G1 X71.345 Y113.602 E20.94867
G1 X71.052 Y113.111 E20.96031
G1 X70.95 Y112.5 E20.97292
G1 X70.95 Y106.352 E21.09806
G1 X71.065 Y105.881 E21.10793
G1 X71.31 Y105.408 E21.11877
G1 X71.648 Y105.095 E21.12815
G1 X72.139 Y104.802 E21.13979
G1 X72.75 Y104.7 E21.1524
G1 X102.398 Y104.7 E21.75589
G1 F3000 E15.75589
G0 F6000 X102.903 Y105.847
G0 X104.004 Y112.837
G1 F3000 E21.75589
G1 F450 X103.912 Y113.164 E21.7628
G1 X103.69 Y113.592 E21.77262
G1 X103.352 Y113.905 E21.782
G1 X102.861 Y114.198 E21.79363
G1 X102.25 Y114.3 E21.80624
G1 X93.3 Y114.3 E21.98842
G1 X93.3 Y115.015 E22.00298
G1 X96.648 Y115.015 E22.07113
G1 X97.119 Y115.13 E22.081
G1 X97.592 Y115.375 E22.09184
G1 X97.905 Y115.713 E22.10121
G1 X98.198 Y116.204 E22.11285
G1 X98.3 Y116.815 E22.12546
G1 X98.3 Y120.7 E22.20454
G1 X102.398 Y120.7 E22.28796
G1 X102.869 Y120.815 E22.29783
G1 X103.342 Y121.06 E22.30867
G1 X103.655 Y121.398 E22.31805
G1 X103.908 Y121.822 E22.3281
G1 X103.996 Y122.163 E22.33527
G1 X104.088 Y121.836 E22.34218
G1 X104.31 Y121.408 E22.35199
G1 X104.648 Y121.095 E22.36137
G1 X105.139 Y120.802 E22.37301
G1 X105.75 Y120.7 E22.38562
G1 X109.7 Y120.7 E22.46602
G1 X109.7 Y116.667 E22.54812
G1 X109.815 Y116.196 E22.55798
G1 X110.06 Y115.723 E22.56883
G1 X110.398 Y115.41 E22.5782
G1 X110.889 Y115.117 E22.58984
G1 X111.5 Y115.015 E22.60245
G1 X114.7 Y115.015 E22.66759
G1 X114.7 Y114.3 E22.68214
G1 X105.602 Y114.3 E22.86733
G1 X105.131 Y114.185 E22.8772
G1 X104.658 Y113.94 E22.88805
G1 X104.345 Y113.602 E22.89742
G1 X104.092 Y113.178 E22.90747
G1 X104.004 Y112.837 E22.91464
G0 F6000 X103.65 Y112.598
G1 F450 X103.557 Y112.98 E22.92264
G1 X103.367 Y113.346 E22.93104
G1 X103.11 Y113.584 E22.93817
G1 X102.723 Y113.815 E22.94734
G1 X102.25 Y113.9 E22.95712
G1 X92.9 Y113.9 E23.14745
G1 X92.9 Y115.415 E23.17828
G1 X96.598 Y115.415 E23.25356
G1 X96.98 Y115.508 E23.26156
G1 X97.346 Y115.698 E23.26995
G1 X97.584 Y115.955 E23.27708
G1 X97.815 Y116.342 E23.28626
G1 X97.9 Y116.815 E23.29604
G1 X97.9 Y121.1 E23.38326
G1 X102.348 Y121.1 E23.4738
G1 X102.73 Y121.193 E23.48181
G1 X103.096 Y121.383 E23.4902
G1 X103.334 Y121.64 E23.49733
G1 X103.565 Y122.027 E23.5065
G1 X103.65 Y122.5 E23.51629
G1 X103.65 Y128.598 E23.64041
G1 X103.557 Y128.98 E23.64841
G1 X103.367 Y129.346 E23.65681
G1 X103.11 Y129.584 E23.66394
G1 X102.723 Y129.815 E23.67311
G1 X102.25 Y129.9 E23.68289
G1 X72.652 Y129.9 E24.28537
G1 X72.27 Y129.807 E24.29337
G1 X71.904 Y129.617 E24.30176
G1 X71.666 Y129.36 E24.30889
G1 X71.435 Y128.973 E24.31807
G1 X71.35 Y128.5 E24.32785
G1 X71.35 Y122.402 E24.45198
G1 X71.443 Y122.02 E24.45998
G1 X71.633 Y121.654 E24.46837
G1 X71.89 Y121.416 E24.4755
G1 X72.277 Y121.185 E24.48468
G1 X72.75 Y121.1 E24.49446
G1 X77.1 Y121.1 E24.58301
G1 X77.1 Y116.717 E24.67222
G1 X77.193 Y116.335 E24.68023
G1 X77.383 Y115.969 E24.68862
G1 X77.64 Y115.731 E24.69575
G1 X78.027 Y115.5 E24.70492
G1 X78.5 Y115.415 E24.71471
G1 X82.1 Y115.415 E24.78798
G1 X82.1 Y113.9 E24.81882
G1 X72.652 Y113.9 E25.01114
G1 X72.27 Y113.807 E25.01914
G1 X71.904 Y113.617 E25.02754
G1 X71.666 Y113.36 E25.03466
G1 X71.435 Y112.973 E25.04384
G1 X71.35 Y112.5 E25.05362
G1 X71.35 Y106.402 E25.17775
G1 X71.443 Y106.02 E25.18575
G1 X71.633 Y105.654 E25.19414
G1 X71.89 Y105.416 E25.20127
G1 X72.277 Y105.185 E25.21045
G1 X72.75 Y105.1 E25.22023
G1 X102.348 Y105.1 E25.8227
G1 X102.73 Y105.193 E25.83071
G1 X103.096 Y105.383 E25.8391
G1 X103.334 Y105.64 E25.84623
