;FLAVOR:Marlin
;TIME:8437
;Filament used: 2.6462m
;Layer height: 0.12
;MINX:68.1
;MINY:106.1
;MINZ:0.12
;MAXX:166.9
;MAXY:149.9
;MAXZ:6
;TARGET_MACHINE.NAME:Creality Ender-3
;Generated with Cura_SteamEngine 5.11.0
M140 S80
M105
M190 S80
M104 S245
M105
M109 S245
; Ender 3 Custom Start G-code
G92 E0 ; Reset Extruder
G28 ; Home all axes
G1 Z2.0 F3000 ; Move Z Axis up little to prevent scratching of Heat Bed
G1 X0.1 Y20 Z0.3 F5000.0 ; Move to start position
G1 X0.1 Y200.0 Z0.3 F1500.0 E15 ; Draw the first line
G1 X0.4 Y200.0 Z0.3 F5000.0 ; Move to side a little
G1 X0.4 Y20 Z0.3 F1500.0 E30 ; Draw the second line
G92 E0 ; Reset Extruder
G1 Z2.0 F3000 ; Move Z Axis up little to prevent scratching of Heat Bed
G1 X5 Y20 Z0.3 F5000.0 ; Move over to prevent blob squish
M82 ;absolute extrusion mode
G92 E0
G92 E0
G1 F3000 E-6
;LAYER_COUNT:50
;LAYER:0
M107
G0 F6000 X68.64 Y106.416 Z0.12
;TYPE:SKIRT
G1 F3000 E0
G1 F420 X68.383 Y106.654 E0.00713
G1 X68.193 Y107.02 E0.01552
G1 X68.1 Y107.402 E0.02353
G1 X68.1 Y113.5 E0.14765
G1 X68.185 Y113.973 E0.15744
G1 X68.416 Y114.36 E0.16661
G1 X68.654 Y114.617 E0.17374
G1 X69.02 Y114.807 E0.18213
G1 X69.402 Y114.9 E0.19014
G1 X79.1 Y114.9 E0.38754
G1 X79.1 Y115.508 E0.39992
G1 X75.5 Y115.508 E0.4732
G1 X75.027 Y115.593 E0.48298
G1 X74.64 Y115.824 E0.49215
G1 X74.383 Y116.062 E0.49928
G1 X74.193 Y116.428 E0.50768
G1 X74.1 Y116.81 E0.51568
G1 X74.1 Y120.1 E0.58265
G1 X69.5 Y120.1 E0.67628
G1 X69.027 Y120.185 E0.68606
G1 X68.64 Y120.416 E0.69524
G1 X68.383 Y120.654 E0.70237
G1 X68.193 Y121.02 E0.71076
G1 X68.1 Y121.402 E0.71876
G1 X68.1 Y127.5 E0.84289
G1 X68.185 Y127.973 E0.85267
G1 X68.416 Y128.36 E0.86185
G1 X68.654 Y128.617 E0.86898
G1 X69.02 Y128.807 E0.87737
G1 X69.402 Y128.9 E0.88537
G1 X99.5 Y128.9 E1.49802
G1 X99.973 Y128.815 E1.50781
G1 X100.36 Y128.584 E1.51698
G1 X100.617 Y128.346 E1.52411
G1 X100.807 Y127.98 E1.5325
G1 X100.9 Y127.598 E1.54051
G1 X100.9 Y121.5 E1.66463
G1 X100.815 Y121.027 E1.67442
G1 X100.584 Y120.64 E1.68359
G1 X100.346 Y120.383 E1.69072
G1 X99.98 Y120.193 E1.69911
G1 X99.598 Y120.1 E1.70712
G1 X94.9 Y120.1 E1.80275
G1 X94.9 Y116.908 E1.86772
G1 X94.815 Y116.435 E1.8775
G1 X94.584 Y116.048 E1.88668
G1 X94.346 Y115.791 E1.89381
G1 X93.98 Y115.601 E1.9022
G1 X93.598 Y115.508 E1.9102
G1 X89.9 Y115.508 E1.98548
G1 X89.9 Y114.9 E1.99785
G1 X99.5 Y114.9 E2.19326
G1 X99.973 Y114.815 E2.20304
G1 X100.36 Y114.584 E2.21222
G1 X100.617 Y114.346 E2.21935
G1 X100.807 Y113.98 E2.22774
G1 X100.9 Y113.598 E2.23574
G1 X100.9 Y107.5 E2.35987
G1 X100.815 Y107.027 E2.36965
G1 X100.584 Y106.64 E2.37883
G1 X100.346 Y106.383 E2.38596
G1 X99.98 Y106.193 E2.39435
G1 X99.598 Y106.1 E2.40235
G1 X69.5 Y106.1 E3.015
G1 X69.027 Y106.185 E3.02479
G1 X68.64 Y106.416 E3.03396
G1 F3000 E-2.96604
G0 F6000 X81.4 Y119.492
G1 F3000 E3.03396
G1 F420 X81.4 Y120.1 E3.04634
G1 X87.6 Y120.1 E3.17254
G1 X87.6 Y119.492 E3.18492
G1 X81.4 Y119.492 E3.31112
G0 F6000 X81 Y119.092
G1 F420 X81 Y120.5 E3.33978
G1 X88 Y120.5 E3.48226
G1 X88 Y119.092 E3.51092
G1 X81 Y119.092 E3.65341
G1 F3000 E-2.34659
G0 F6000 X101.1 Y121.402
G1 F3000 E3.65341
G1 F420 X101.193 Y121.02 E3.66141
G1 X101.383 Y120.654 E3.66981
G1 X101.64 Y120.416 E3.67694
G1 X102.027 Y120.185 E3.68611
G1 X102.5 Y120.1 E3.69589
G1 X107.1 Y120.1 E3.78953
G1 X107.1 Y116.81 E3.8565
G1 X107.193 Y116.428 E3.8645
G1 X107.383 Y116.062 E3.87289
G1 X107.64 Y115.824 E3.88002
G1 X108.027 Y115.593 E3.8892
G1 X108.5 Y115.508 E3.89898
G1 X112.1 Y115.508 E3.97226
G1 X112.1 Y114.9 E3.98463
G1 X102.402 Y114.9 E4.18204
G1 X102.02 Y114.807 E4.19004
G1 X101.654 Y114.617 E4.19844
G1 X101.416 Y114.36 E4.20557
G1 X101.185 Y113.973 E4.21474
G1 X101.1 Y113.5 E4.22452
G1 X101.1 Y107.402 E4.34865
G1 X101.193 Y107.02 E4.35665
G1 X101.383 Y106.654 E4.36504
G1 X101.64 Y106.416 E4.37217
G1 X102.027 Y106.185 E4.38135
G1 X102.5 Y106.1 E4.39113
G1 X132.598 Y106.1 E5.00378
G1 X132.98 Y106.193 E5.01178
G1 X133.346 Y106.383 E5.02018
G1 X133.584 Y106.64 E5.02731
G1 X133.815 Y107.027 E5.03648
G1 X133.9 Y107.5 E5.04626
G1 X133.9 Y113.598 E5.17039
G1 X133.807 Y113.98 E5.17839
G1 X133.617 Y114.346 E5.18679
G1 X133.36 Y114.584 E5.19392
G1 X132.973 Y114.815 E5.20309
G1 X132.5 Y114.9 E5.21287
G1 X122.9 Y114.9 E5.40828
G1 X122.9 Y115.508 E5.42066
G1 X126.598 Y115.508 E5.49593
G1 X126.98 Y115.601 E5.50394
G1 X127.346 Y115.791 E5.51233
G1 X127.584 Y116.048 E5.51946
G1 X127.815 Y116.435 E5.52863
G1 X127.9 Y116.908 E5.53842
G1 X127.9 Y120.1 E5.60339
G1 X132.598 Y120.1 E5.69902
G1 X132.98 Y120.193 E5.70702
G1 X133.346 Y120.383 E5.71542
G1 X133.584 Y120.64 E5.72255
G1 X133.815 Y121.027 E5.73172
G1 X133.9 Y121.5 E5.7415
G1 X133.9 Y127.598 E5.86563
G1 X133.807 Y127.98 E5.87363
G1 X133.617 Y128.346 E5.88202
G1 X133.36 Y128.584 E5.88915
G1 X132.973 Y128.815 E5.89833
G1 X132.5 Y128.9 E5.90811
G1 X102.402 Y128.9 E6.52076
G1 X102.02 Y128.807 E6.52876
G1 X101.654 Y128.617 E6.53716
G1 X101.416 Y128.36 E6.54429
G1 X101.185 Y127.973 E6.55346
G1 X101.1 Y127.5 E6.56325
G1 X101.1 Y121.402 E6.68737
G0 F6000 X100.5 Y121.5
G1 F420 X100.5 Y127.549 E6.8105
G1 X100.43 Y127.838 E6.81655
G1 X100.293 Y128.101 E6.82259
G1 X100.155 Y128.24 E6.82658
G1 X99.828 Y128.435 E6.83433
G1 X99.5 Y128.5 E6.84113
G1 X69.451 Y128.5 E7.45279
G1 X69.162 Y128.43 E7.45884
G1 X68.899 Y128.293 E7.46487
G1 X68.76 Y128.155 E7.46886
G1 X68.565 Y127.828 E7.47661
G1 X68.5 Y127.5 E7.48342
G1 X68.5 Y121.451 E7.60655
G1 X68.57 Y121.162 E7.6126
G1 X68.707 Y120.899 E7.61864
G1 X68.845 Y120.76 E7.62262
G1 X69.172 Y120.565 E7.63037
G1 X69.5 Y120.5 E7.63718
G1 X74.5 Y120.5 E7.73895
G1 X74.5 Y116.859 E7.81307
G1 X74.57 Y116.57 E7.81912
G1 X74.707 Y116.307 E7.82516
G1 X74.845 Y116.168 E7.82914
G1 X75.172 Y115.973 E7.83689
G1 X75.5 Y115.908 E7.8437
G1 X79.5 Y115.908 E7.92512
G1 X79.5 Y114.5 E7.95378
G1 X69.451 Y114.5 E8.15833
G1 X69.162 Y114.43 E8.16438
G1 X68.899 Y114.293 E8.17042
G1 X68.76 Y114.155 E8.17441
G1 X68.565 Y113.828 E8.18216
G1 X68.5 Y113.5 E8.18896
G1 X68.5 Y107.451 E8.31209
G1 X68.57 Y107.162 E8.31814
G1 X68.707 Y106.899 E8.32418
G1 X68.845 Y106.76 E8.32817
G1 X69.172 Y106.565 E8.33592
G1 X69.5 Y106.5 E8.34272
G1 X99.549 Y106.5 E8.95438
G1 X99.838 Y106.57 E8.96043
G1 X100.101 Y106.707 E8.96647
G1 X100.24 Y106.845 E8.97045
G1 X100.435 Y107.172 E8.9782
G1 X100.5 Y107.5 E8.98501
G1 X100.5 Y113.549 E9.10814
G1 X100.43 Y113.838 E9.11419
G1 X100.293 Y114.101 E9.12023
G1 X100.155 Y114.24 E9.12421
G1 X99.828 Y114.435 E9.13196
G1 X99.5 Y114.5 E9.13877
G1 X89.5 Y114.5 E9.34232
G1 X89.5 Y115.908 E9.37098
G1 X93.549 Y115.908 E9.4534
G1 X93.838 Y115.978 E9.45945
G1 X94.101 Y116.115 E9.46549
G1 X94.24 Y116.253 E9.46948
G1 X94.435 Y116.58 E9.47723
G1 X94.5 Y116.908 E9.48403
G1 X94.5 Y120.5 E9.55715
G1 X99.549 Y120.5 E9.65992
G1 X99.838 Y120.57 E9.66597
G1 X100.101 Y120.707 E9.67201
G1 X100.24 Y120.845 E9.676
G1 X100.435 Y121.172 E9.68375
G1 X100.5 Y121.5 E9.69055
G0 F6000 X99.7 Y121.5
G1 F420 X99.7 Y127.5 E9.81268
G1 X99.661 Y127.619 E9.81523
G1 X99.5 Y127.7 E9.8189
G1 X69.5 Y127.7 E10.42956
G1 X69.381 Y127.661 E10.43211
G1 X69.3 Y127.5 E10.43578
G1 X69.3 Y121.5 E10.55791
G1 X69.339 Y121.381 E10.56046
G1 X69.5 Y121.3 E10.56412
G1 X75.3 Y121.3 E10.68218
G1 X75.3 Y116.908 E10.77158
G1 X75.339 Y116.789 E10.77413
G1 X75.5 Y116.708 E10.7778
G1 X80 Y116.708 E10.8694
G1 X80.119 Y116.747 E10.87195
G1 X80.2 Y116.908 E10.87562
G1 X80.2 Y121.3 E10.96502
G1 X88.8 Y121.3 E11.14007
G1 X88.8 Y116.908 E11.22947
G1 X88.839 Y116.789 E11.23202
G1 X89 Y116.708 E11.23569
G1 X93.5 Y116.708 E11.32729
G1 X93.619 Y116.747 E11.32984
G1 X93.7 Y116.908 E11.33351
G1 X93.7 Y121.3 E11.42291
G1 X99.5 Y121.3 E11.54097
G1 X99.619 Y121.339 E11.54352
G1 X99.7 Y121.5 E11.54718
G1 F3000 E5.54718
G0 F6000 X99.7 Y120.835
G0 X99.5 Y114.165
G0 X99.5 Y113.7
G1 F3000 E11.54718
G1 F420 X99.661 Y113.619 E11.55085
G1 X99.7 Y113.5 E11.5534
G1 X99.7 Y107.5 E11.67553
G1 X99.619 Y107.339 E11.6792
G1 X99.5 Y107.3 E11.68175
G1 X69.5 Y107.3 E12.29241
G1 X69.339 Y107.381 E12.29608
G1 X69.3 Y107.5 E12.29862
G1 X69.3 Y113.5 E12.42076
G1 X69.381 Y113.661 E12.42442
G1 X69.5 Y113.7 E12.42697
G1 X80.3 Y113.7 E12.64681
G1 X80.3 Y118.092 E12.73621
G1 X80.381 Y118.253 E12.73988
G1 X80.5 Y118.292 E12.74243
G1 X88.5 Y118.292 E12.90527
G1 X88.661 Y118.211 E12.90894
G1 X88.7 Y118.092 E12.91149
G1 X88.7 Y113.7 E13.00089
G1 X99.5 Y113.7 E13.22072
G0 F6000 X99.68 Y114.057
G1 F420 X99.5 Y114.1 E13.22449
G1 X89.1 Y114.1 E13.43618
G1 X89.1 Y116.308 E13.48113
G1 X93.5 Y116.308 E13.57069
G1 X93.744 Y116.367 E13.5758
G1 X93.896 Y116.458 E13.57941
G1 X94.057 Y116.728 E13.58581
G1 X94.1 Y116.908 E13.58957
G1 X94.1 Y120.9 E13.67083
G1 X99.5 Y120.9 E13.78075
G1 X99.744 Y120.959 E13.78586
G1 X99.896 Y121.05 E13.78946
G1 X100.057 Y121.32 E13.79586
G1 X100.1 Y121.5 E13.79963
G1 X100.1 Y127.5 E13.92176
G1 X100.041 Y127.744 E13.92687
G1 X99.95 Y127.896 E13.93048
G1 X99.68 Y128.057 E13.93688
G1 X99.5 Y128.1 E13.94064
G1 X69.5 Y128.1 E14.5513
G1 X69.256 Y128.041 E14.55641
G1 X69.104 Y127.95 E14.56002
G1 X68.943 Y127.68 E14.56641
G1 X68.9 Y127.5 E14.57018
G1 X68.9 Y121.5 E14.69231
G1 X68.959 Y121.256 E14.69742
G1 X69.05 Y121.104 E14.70103
G1 X69.32 Y120.943 E14.70743
G1 X69.5 Y120.9 E14.71119
G1 X74.9 Y120.9 E14.82111
G1 X74.9 Y116.908 E14.90237
G1 X74.959 Y116.664 E14.90748
G1 X75.05 Y116.512 E14.91109
G1 X75.32 Y116.351 E14.91748
G1 X75.5 Y116.308 E14.92125
G1 X79.9 Y116.308 E15.01081
G1 X79.9 Y114.1 E15.05576
G1 X69.5 Y114.1 E15.26745
G1 X69.256 Y114.041 E15.27256
G1 X69.104 Y113.95 E15.27617
G1 X68.943 Y113.68 E15.28257
G1 X68.9 Y113.5 E15.28633
G1 X68.9 Y107.5 E15.40847
G1 X68.959 Y107.256 E15.41358
G1 X69.05 Y107.104 E15.41718
G1 X69.32 Y106.943 E15.42358
G1 X69.5 Y106.9 E15.42735
G1 X99.5 Y106.9 E16.038
G1 X99.744 Y106.959 E16.04311
G1 X99.896 Y107.05 E16.04672
G1 X100.057 Y107.32 E16.05312
G1 X100.1 Y107.5 E16.05689
G1 X100.1 Y113.5 E16.17902
G1 X100.041 Y113.744 E16.18413
G1 X99.95 Y113.896 E16.18773
G1 X99.68 Y114.057 E16.19413
G1 F3000 E10.19413
G0 F6000 X88.4 Y118.692
G1 F3000 E16.19413
G1 F420 X80.6 Y118.692 E16.3529
G1 X80.6 Y120.9 E16.39785
G1 X88.4 Y120.9 E16.55662
G1 X88.4 Y118.692 E16.60156
G1 F3000 E10.60156
G0 F6000 X114.4 Y119.492
G1 F3000 E16.60156
G1 F420 X120.6 Y119.492 E16.72776
G1 X120.6 Y120.1 E16.74014
G1 X114.4 Y120.1 E16.86634
G1 X114.4 Y119.492 E16.87872
G0 F6000 X114 Y119.092
G1 F420 X114 Y120.5 E16.90738
G1 X121 Y120.5 E17.04986
G1 X121 Y119.092 E17.07852
G1 X114 Y119.092 E17.22101
G1 F3000 E11.22101
G0 F6000 X134.1 Y121.402
G1 F3000 E17.22101
G1 F420 X134.193 Y121.02 E17.22901
G1 X134.383 Y120.654 E17.23741
G1 X134.64 Y120.416 E17.24454
G1 X135.027 Y120.185 E17.25371
G1 X135.5 Y120.1 E17.26349
G1 X140.1 Y120.1 E17.35713
G1 X140.1 Y116.81 E17.4241
G1 X140.193 Y116.428 E17.4321
G1 X140.383 Y116.062 E17.44049
G1 X140.64 Y115.824 E17.44762
G1 X141.027 Y115.593 E17.4568
G1 X141.5 Y115.508 E17.46658
G1 X145.1 Y115.508 E17.53986
G1 X145.1 Y114.9 E17.55223
G1 X135.402 Y114.9 E17.74964
G1 X135.02 Y114.807 E17.75764
G1 X134.654 Y114.617 E17.76604
G1 X134.416 Y114.36 E17.77317
G1 X134.185 Y113.973 E17.78234
G1 X134.1 Y113.5 E17.79212
G1 X134.1 Y107.402 E17.91625
G1 X134.193 Y107.02 E17.92425
G1 X134.383 Y106.654 E17.93265
G1 X134.64 Y106.416 E17.93978
G1 X135.027 Y106.185 E17.94895
G1 X135.5 Y106.1 E17.95873
G1 X165.598 Y106.1 E18.57138
G1 X165.98 Y106.193 E18.57939
G1 X166.346 Y106.383 E18.58778
G1 X166.584 Y106.64 E18.59491
G1 X166.815 Y107.027 E18.60408
G1 X166.9 Y107.5 E18.61387
G1 X166.9 Y113.598 E18.73799
G1 X166.807 Y113.98 E18.74599
G1 X166.617 Y114.346 E18.75439
G1 X166.36 Y114.584 E18.76152
G1 X165.973 Y114.815 E18.77069
G1 X165.5 Y114.9 E18.78047
G1 X155.9 Y114.9 E18.97588
G1 X155.9 Y115.508 E18.98826
G1 X159.598 Y115.508 E19.06353
G1 X159.98 Y115.601 E19.07154
G1 X160.346 Y115.791 E19.07993
G1 X160.584 Y116.048 E19.08706
G1 X160.815 Y116.435 E19.09623
G1 X160.9 Y116.908 E19.10602
G1 X160.9 Y120.1 E19.17099
G1 X165.598 Y120.1 E19.26662
G1 X165.98 Y120.193 E19.27462
G1 X166.346 Y120.383 E19.28302
G1 X166.584 Y120.64 E19.29015
G1 X166.815 Y121.027 E19.29932
G1 X166.9 Y121.5 E19.3091
G1 X166.9 Y127.598 E19.43323
G1 X166.807 Y127.98 E19.44123
G1 X166.617 Y128.346 E19.44963
G1 X166.36 Y128.584 E19.45676
G1 X165.973 Y128.815 E19.46593
G1 X165.5 Y128.9 E19.47571
G1 X135.402 Y128.9 E20.08836
G1 X135.02 Y128.807 E20.09637
G1 X134.654 Y128.617 E20.10476
G1 X134.416 Y128.36 E20.11189
G1 X134.185 Y127.973 E20.12106
G1 X134.1 Y127.5 E20.13085
G1 X134.1 Y121.402 E20.25497
G0 F6000 X134.5 Y121.451
G1 F420 X134.57 Y121.162 E20.26102
G1 X134.707 Y120.899 E20.26706
G1 X134.845 Y120.76 E20.27105
G1 X135.172 Y120.565 E20.2788
G1 X135.5 Y120.5 E20.2856
G1 X140.5 Y120.5 E20.38738
G1 X140.5 Y116.859 E20.46149
G1 X140.57 Y116.57 E20.46755
G1 X140.707 Y116.307 E20.47358
G1 X140.845 Y116.168 E20.47757
G1 X141.172 Y115.973 E20.48532
G1 X141.5 Y115.908 E20.49213
G1 X145.5 Y115.908 E20.57355
G1 X145.5 Y114.5 E20.60221
G1 X135.451 Y114.5 E20.80676
G1 X135.162 Y114.43 E20.81281
G1 X134.899 Y114.293 E20.81884
G1 X134.76 Y114.155 E20.82283
G1 X134.565 Y113.828 E20.83058
G1 X134.5 Y113.5 E20.83739
G1 X134.5 Y107.451 E20.96052
G1 X134.57 Y107.162 E20.96657
G1 X134.707 Y106.899 E20.97261
G1 X134.845 Y106.76 E20.97659
G1 X135.172 Y106.565 E20.98434
G1 X135.5 Y106.5 E20.99115
G1 X165.549 Y106.5 E21.6028
G1 X165.838 Y106.57 E21.60885
G1 X166.101 Y106.707 E21.61489
G1 X166.24 Y106.845 E21.61888
G1 X166.435 Y107.172 E21.62663
G1 X166.5 Y107.5 E21.63343
G1 X166.5 Y113.549 E21.75656
G1 X166.43 Y113.838 E21.76262
G1 X166.293 Y114.101 E21.76865
G1 X166.155 Y114.24 E21.77264
G1 X165.828 Y114.435 E21.78039
G1 X165.5 Y114.5 E21.78719
G1 X155.5 Y114.5 E21.99075
G1 X155.5 Y115.908 E22.01941
G1 X159.549 Y115.908 E22.10183
G1 X159.838 Y115.978 E22.10788
G1 X160.101 Y116.115 E22.11391
G1 X160.24 Y116.253 E22.1179
G1 X160.435 Y116.58 E22.12565
G1 X160.5 Y116.908 E22.13246
G1 X160.5 Y120.5 E22.20557
G1 X165.549 Y120.5 E22.30835
G1 X165.838 Y120.57 E22.3144
G1 X166.101 Y120.707 E22.32044
G1 X166.24 Y120.845 E22.32442
G1 X166.435 Y121.172 E22.33217
G1 X166.5 Y121.5 E22.33898
G1 X166.5 Y127.549 E22.46211
G1 X166.43 Y127.838 E22.46816
G1 X166.293 Y128.101 E22.4742
G1 X166.155 Y128.24 E22.47818
G1 X165.828 Y128.435 E22.48593
G1 X165.5 Y128.5 E22.49274
G1 X135.451 Y128.5 E23.10439
G1 X135.162 Y128.43 E23.11045
G1 X134.899 Y128.293 E23.11648
G1 X134.76 Y128.155 E23.12047
G1 X134.565 Y127.828 E23.12822
G1 X134.5 Y127.5 E23.13502
G1 X134.5 Y121.451 E23.25815
G0 F6000 X133.5 Y121.5
G1 F420 X133.5 Y127.549 E23.38128
G1 X133.43 Y127.838 E23.38733
G1 X133.293 Y128.101 E23.39337
G1 X133.155 Y128.24 E23.39736
G1 X132.828 Y128.435 E23.40511
G1 X132.5 Y128.5 E23.41191
G1 X102.451 Y128.5 E24.02357
G1 X102.162 Y128.43 E24.02962
G1 X101.899 Y128.293 E24.03566
G1 X101.76 Y128.155 E24.03964
G1 X101.565 Y127.828 E24.04739
G1 X101.5 Y127.5 E24.0542
G1 X101.5 Y121.451 E24.17733
G1 X101.57 Y121.162 E24.18338
G1 X101.707 Y120.899 E24.18942
G1 X101.845 Y120.76 E24.1934
G1 X102.172 Y120.565 E24.20115
G1 X102.5 Y120.5 E24.20796
G1 X107.5 Y120.5 E24.30974
G1 X107.5 Y116.859 E24.38385
G1 X107.57 Y116.57 E24.3899
G1 X107.707 Y116.307 E24.39594
G1 X107.845 Y116.168 E24.39993
G1 X108.172 Y115.973 E24.40768
G1 X108.5 Y115.908 E24.41448
G1 X112.5 Y115.908 E24.4959
G1 X112.5 Y114.5 E24.52456
G1 X102.451 Y114.5 E24.72911
G1 X102.162 Y114.43 E24.73516
G1 X101.899 Y114.293 E24.7412
G1 X101.76 Y114.155 E24.74519
G1 X101.565 Y113.828 E24.75294
G1 X101.5 Y113.5 E24.75974
G1 X101.5 Y107.451 E24.88287
G1 X101.57 Y107.162 E24.88893
G1 X101.707 Y106.899 E24.89496
G1 X101.845 Y106.76 E24.89895
G1 X102.172 Y106.565 E24.9067
G1 X102.5 Y106.5 E24.9135
G1 X132.549 Y106.5 E25.52516
G1 X132.838 Y106.57 E25.53121
G1 X133.101 Y106.707 E25.53725
G1 X133.24 Y106.845 E25.54123
G1 X133.435 Y107.172 E25.54898
G1 X133.5 Y107.5 E25.55579
G1 X133.5 Y113.549 E25.67892
G1 X133.43 Y113.838 E25.68497
G1 X133.293 Y114.101 E25.69101
G1 X133.155 Y114.24 E25.69499
G1 X132.828 Y114.435 E25.70274
G1 X132.5 Y114.5 E25.70955
G1 X122.5 Y114.5 E25.9131
G1 X122.5 Y115.908 E25.94176
G1 X126.549 Y115.908 E26.02418
