;FLAVOR:Marlin
;TIME:8330
;Filament used: 2.66383m
;Layer height: 0.12
;MINX:64.252
;MINY:98.3
;MINZ:0.12
;MAXX:170.748
;MAXY:136.595
;MAXZ:5.52
;TARGET_MACHINE.NAME:Creality Ender-3
;Generated with Cura_SteamEngine 5.11.0
M140 S80
M105
M190 S80
M104 S245
M105
M109 S245
; Ender 3 Custom Start G-code
G92 E0 ; Reset Extruder
G28 ; Home all axes
G1 Z2.0 F3000 ; Move Z Axis up little to prevent scratching of Heat Bed
G1 X0.1 Y20 Z0.3 F5000.0 ; Move to start position
G1 X0.1 Y200.0 Z0.3 F1500.0 E15 ; Draw the first line
G1 X0.4 Y200.0 Z0.3 F5000.0 ; Move to side a little
G1 X0.4 Y20 Z0.3 F1500.0 E30 ; Draw the second line
G92 E0 ; Reset Extruder
G1 Z2.0 F3000 ; Move Z Axis up little to prevent scratching of Heat Bed
G1 X5 Y20 Z0.3 F5000.0 ; Move over to prevent blob squish
M82 ;absolute extrusion mode
G92 E0
G92 E0
G1 F3000 E-6
;LAYER_COUNT:46
;LAYER:0
M107
G0 F6000 X66.082 Y99.059 Z0.12
;TYPE:SKIRT
G1 F3000 E0
G1 F420 X66.803 Y98.663 E0.01674
G1 X67.578 Y98.41 E0.03334
G1 X68.393 Y98.321 E0.05003
G1 X69.398 Y98.3 E0.07049
G1 X165.889 Y98.3 E2.03458
G1 X166.693 Y98.317 E2.05095
G1 X167.387 Y98.409 E2.0652
G1 X168.141 Y98.626 E2.08117
G1 X168.991 Y99.126 E2.10125
G1 X169.428 Y99.489 E2.11281
G1 X169.985 Y100.13 E2.13009
G1 X170.364 Y100.862 E2.14687
G1 X170.617 Y101.585 E2.16247
G1 X170.708 Y102.413 E2.17942
G1 X170.732 Y103.479 E2.20113
G1 X170.748 Y110.595 E2.34597
G1 X170.742 Y131.257 E2.76655
G1 X170.722 Y132.135 E2.78443
G1 X170.602 Y132.95 E2.8012
G1 X170.389 Y133.592 E2.81497
G1 X170.079 Y134.213 E2.82909
G1 X169.58 Y134.834 E2.84531
G1 X169.144 Y135.277 E2.85796
G1 X168.562 Y135.72 E2.87285
G1 X167.898 Y136.137 E2.88881
G1 X166.893 Y136.511 E2.91064
G1 X166.076 Y136.585 E2.92734
G1 X165.646 Y136.595 E2.93609
G1 X71.899 Y136.585 E4.84433
G1 X69.713 Y136.592 E4.88883
G1 X68.796 Y136.575 E4.9075
G1 X68.172 Y136.51 E4.92027
G1 X67.339 Y136.226 E4.93818
G1 X66.84 Y135.97 E4.9496
G1 X66.043 Y135.464 E4.96881
G1 X65.434 Y134.846 E4.98647
G1 X64.897 Y134.167 E5.0041
G1 X64.53 Y133.415 E5.02113
G1 X64.352 Y132.699 E5.03615
G1 X64.283 Y132.052 E5.04939
G1 X64.259 Y130.917 E5.0725
G1 X64.252 Y124.543 E5.20224
G1 X64.259 Y122.311 E5.24768
G1 X64.253 Y110.586 E5.48634
G1 X64.268 Y103.098 E5.63876
G1 X64.29 Y102.307 E5.65487
G1 X64.416 Y101.472 E5.67206
G1 X64.607 Y100.861 E5.68509
G1 X65.109 Y100.022 E5.70499
G1 X65.465 Y99.604 E5.71617
G1 X66.082 Y99.059 E5.73292
G0 F6000 X66.316 Y99.387
G1 F420 X66.963 Y99.031 E5.74795
G1 X67.659 Y98.804 E5.76286
G1 X68.401 Y98.721 E5.77805
G1 X69.406 Y98.7 E5.79851
G1 X165.882 Y98.7 E7.7623
G1 X166.643 Y98.714 E7.7778
G1 X167.276 Y98.793 E7.79078
G1 X167.98 Y98.996 E7.8057
G1 X168.735 Y99.434 E7.82346
G1 X169.172 Y99.797 E7.83503
G1 X169.652 Y100.356 E7.85002
G1 X170.009 Y101.046 E7.86584
G1 X170.224 Y101.671 E7.87929
G1 X170.308 Y102.422 E7.89467
G1 X170.332 Y103.48 E7.91621
G1 X170.348 Y110.595 E8.06104
G1 X170.342 Y131.249 E8.48146
G1 X170.326 Y132.08 E8.49838
G1 X170.222 Y132.826 E8.51371
G1 X170.031 Y133.413 E8.52627
G1 X169.739 Y133.998 E8.53958
G1 X169.295 Y134.553 E8.55405
G1 X168.859 Y134.996 E8.5667
G1 X168.349 Y135.381 E8.57971
G1 X167.72 Y135.776 E8.59483
G1 X166.801 Y136.118 E8.61479
G1 X166.067 Y136.185 E8.62979
G1 X165.646 Y136.195 E8.63836
G1 X71.898 Y136.185 E10.54662
G1 X69.72 Y136.192 E10.59096
G1 X68.838 Y136.177 E10.60891
G1 X68.256 Y136.116 E10.62082
G1 X67.521 Y135.87 E10.6366
G1 X67.055 Y135.632 E10.64725
G1 X66.295 Y135.149 E10.66558
G1 X65.748 Y134.598 E10.68138
G1 X65.238 Y133.953 E10.69812
G1 X64.909 Y133.278 E10.71341
G1 X64.75 Y132.655 E10.72649
G1 X64.683 Y132.043 E10.73903
G1 X64.659 Y130.917 E10.76195
G1 X64.652 Y124.544 E10.89168
G1 X64.659 Y122.312 E10.93711
G1 X64.653 Y110.587 E11.17577
G1 X64.668 Y103.108 E11.32801
G1 X64.686 Y102.364 E11.34316
G1 X64.798 Y101.591 E11.35906
G1 X64.975 Y101.025 E11.37113
G1 X65.416 Y100.279 E11.38877
G1 X65.73 Y99.904 E11.39872
G1 X66.316 Y99.387 E11.41463
G0 F6000 X66.547 Y99.716
G1 F420 X67.123 Y99.399 E11.42801
G1 X67.745 Y99.196 E11.44133
G1 X68.409 Y99.121 E11.45493
G1 X69.414 Y99.1 E11.4754
G1 X165.875 Y99.1 E13.43888
G1 X166.636 Y99.114 E13.45437
G1 X167.165 Y99.177 E13.46522
G1 X167.821 Y99.366 E13.47911
G1 X168.483 Y99.745 E13.49464
G1 X168.869 Y100.058 E13.50476
G1 X169.318 Y100.581 E13.51879
G1 X169.631 Y101.176 E13.53247
G1 X169.832 Y101.76 E13.54504
G1 X169.908 Y102.431 E13.55879
G1 X169.932 Y103.481 E13.58017
G1 X169.948 Y110.595 E13.72497
G1 X169.942 Y131.241 E14.14523
G1 X169.926 Y132.072 E14.16215
G1 X169.841 Y132.705 E14.17515
G1 X169.673 Y133.234 E14.18644
G1 X169.399 Y133.782 E14.19892
G1 X169.008 Y134.274 E14.21171
G1 X168.617 Y134.677 E14.22314
G1 X168.136 Y135.042 E14.23543
G1 X167.542 Y135.415 E14.24971
G1 X166.709 Y135.725 E14.2678
G1 X166.057 Y135.785 E14.28112
G1 X165.646 Y135.795 E14.28949
G1 X71.897 Y135.785 E16.19777
G1 X69.726 Y135.792 E16.24196
G1 X68.879 Y135.779 E16.25921
G1 X68.341 Y135.723 E16.27022
G1 X67.702 Y135.513 E16.28391
G1 X67.27 Y135.294 E16.29377
G1 X66.546 Y134.834 E16.31123
G1 X66.062 Y134.35 E16.32516
G1 X65.577 Y133.736 E16.34109
G1 X65.288 Y133.144 E16.3545
G1 X65.138 Y132.556 E16.36685
G1 X65.083 Y132.034 E16.37753
G1 X65.059 Y130.917 E16.40028
G1 X65.052 Y124.545 E16.52998
G1 X65.059 Y122.313 E16.57541
G1 X65.053 Y110.588 E16.81408
G1 X65.068 Y103.116 E16.96617
G1 X65.082 Y102.419 E16.98036
G1 X65.18 Y101.71 E16.99493
G1 X65.343 Y101.189 E17.00604
G1 X65.723 Y100.536 E17.02142
G1 X66.037 Y100.161 E17.03138
G1 X66.547 Y99.716 E17.04515
G0 F6000 X66.778 Y100.045
G1 F420 X67.283 Y99.767 E17.05689
G1 X67.831 Y99.588 E17.06862
G1 X68.417 Y99.521 E17.08063
G1 X69.422 Y99.5 E17.10109
G1 X165.868 Y99.5 E19.06427
G1 X166.629 Y99.514 E19.07976
G1 X167.116 Y99.574 E19.08975
G1 X167.665 Y99.737 E19.10141
G1 X168.231 Y100.056 E19.11463
G1 X168.617 Y100.369 E19.12475
G1 X168.984 Y100.806 E19.13636
G1 X169.253 Y101.306 E19.14792
G1 X169.44 Y101.849 E19.15961
G1 X169.508 Y102.44 E19.17172
G1 X169.532 Y103.482 E19.19293
G1 X169.548 Y110.595 E19.33772
G1 X169.542 Y131.234 E19.75783
G1 X169.529 Y132.023 E19.7739
G1 X169.459 Y132.587 E19.78546
G1 X169.315 Y133.055 E19.79543
G1 X169.059 Y133.566 E19.80706
G1 X168.718 Y133.998 E19.81827
G1 X168.374 Y134.359 E19.82842
G1 X167.923 Y134.703 E19.83996
G1 X167.364 Y135.054 E19.8534
G1 X166.617 Y135.332 E19.86962
G1 X166.047 Y135.385 E19.88128
G1 X165.646 Y135.395 E19.88944
G1 X71.896 Y135.385 E21.79774
G1 X69.731 Y135.392 E21.84181
G1 X68.921 Y135.381 E21.8583
G1 X68.424 Y135.329 E21.86847
G1 X67.883 Y135.156 E21.88003
G1 X67.451 Y134.937 E21.88989
G1 X66.799 Y134.521 E21.90563
G1 X66.345 Y134.067 E21.9187
G1 X65.919 Y133.525 E21.93274
G1 X65.666 Y133.006 E21.94449
G1 X65.526 Y132.457 E21.95602
G1 X65.483 Y132.025 E21.96486
G1 X65.459 Y130.917 E21.98742
G1 X65.452 Y124.546 E22.1171
G1 X65.459 Y122.314 E22.16253
G1 X65.453 Y110.589 E22.4012
G1 X65.468 Y103.123 E22.55317
G1 X65.479 Y102.47 E22.56646
G1 X65.562 Y101.83 E22.5796
G1 X65.712 Y101.351 E22.58982
G1 X66.03 Y100.793 E22.60289
G1 X66.344 Y100.418 E22.61285
G1 X66.778 Y100.045 E22.6245
G0 F6000 X67.008 Y100.375
G1 F420 X67.443 Y100.135 E22.63461
G1 X67.917 Y99.98 E22.64476
G1 X68.425 Y99.921 E22.65517
G1 X69.43 Y99.9 E22.67563
G1 X165.861 Y99.9 E24.6385
G1 X166.585 Y99.912 E24.65324
G1 X167.002 Y99.958 E24.66178
G1 X167.512 Y100.109 E24.67261
G1 X167.979 Y100.367 E24.68347
G1 X168.335 Y100.656 E24.6928
G1 X168.653 Y101.034 E24.70286
G1 X168.875 Y101.436 E24.7122
G1 X169.048 Y101.938 E24.72301
G1 X169.108 Y102.449 E24.73349
G1 X169.132 Y103.483 E24.75454
G1 X169.148 Y110.595 E24.89931
G1 X169.142 Y131.227 E25.31927
G1 X169.129 Y132.016 E25.33534
G1 X169.075 Y132.474 E25.34472
G1 X168.957 Y132.876 E25.35325
G1 X168.718 Y133.353 E25.36411
G1 X168.428 Y133.722 E25.37366
G1 X168.084 Y134.083 E25.38381
G1 X167.71 Y134.364 E25.39334
G1 X167.186 Y134.693 E25.40593
G1 X166.525 Y134.939 E25.42029
G1 X166.037 Y134.985 E25.43026
G1 X165.646 Y134.995 E25.43823
G1 X71.895 Y134.985 E27.34655
G1 X69.736 Y134.992 E27.39049
G1 X68.963 Y134.983 E27.40623
G1 X68.506 Y134.935 E27.41558
G1 X68.005 Y134.775 E27.42629
G1 X67.666 Y134.6 E27.43405
G1 X67.053 Y134.209 E27.44885
G1 X66.628 Y133.784 E27.46109
G1 X66.261 Y133.314 E27.47323
G1 X66.044 Y132.868 E27.48332
G1 X65.914 Y132.358 E27.49404
G1 X65.883 Y132.016 E27.50103
G1 X65.859 Y130.917 E27.5234
G1 X65.852 Y124.547 E27.65306
G1 X65.859 Y122.315 E27.6985
G1 X65.853 Y110.59 E27.93716
G1 X65.868 Y103.13 E28.08901
G1 X65.879 Y102.477 E28.10231
G1 X65.944 Y101.949 E28.11313
G1 X66.081 Y101.51 E28.1225
G1 X66.34 Y101.046 E28.13331
G1 X66.605 Y100.721 E28.14185
G1 X67.008 Y100.375 E28.15266
G0 F6000 X67.237 Y100.705
G1 F420 X67.603 Y100.503 E28.16117
G1 X68.002 Y100.373 E28.16971
G1 X68.433 Y100.321 E28.17855
G1 X69.438 Y100.3 E28.19901
G1 X165.855 Y100.3 E30.1616
G1 X166.541 Y100.31 E30.17556
G1 X166.958 Y100.356 E30.1841
G1 X167.358 Y100.48 E30.19263
G1 X167.727 Y100.678 E30.20115
G1 X168.053 Y100.942 E30.20969
G1 X168.322 Y101.263 E30.21821
G1 X168.525 Y101.63 E30.22675
G1 X168.656 Y102.028 E30.23528
G1 X168.708 Y102.458 E30.2441
G1 X168.732 Y103.484 E30.26499
G1 X168.748 Y110.595 E30.40973
G1 X168.742 Y131.221 E30.82958
G1 X168.731 Y131.975 E30.84493
G1 X168.691 Y132.361 E30.85283
G1 X168.573 Y132.763 E30.86136
G1 X168.38 Y133.135 E30.86989
G1 X168.138 Y133.446 E30.87791
G1 X167.794 Y133.807 E30.88806
G1 X167.497 Y134.025 E30.89556
G1 X167.008 Y134.332 E30.90731
G1 X166.433 Y134.546 E30.9198
G1 X166.027 Y134.585 E30.9281
G1 X165.646 Y134.595 E30.93586
G1 X71.894 Y134.585 E32.8442
G1 X69.74 Y134.592 E32.88804
G1 X69.005 Y134.585 E32.90301
G1 X68.588 Y134.541 E32.91154
G1 X68.187 Y134.419 E32.92007
G1 X67.881 Y134.263 E32.92706
G1 X67.307 Y133.897 E32.94092
G1 X66.911 Y133.501 E32.95232
G1 X66.603 Y133.103 E32.96257
G1 X66.42 Y132.726 E32.9711
G1 X66.312 Y132.321 E32.97963
G1 X66.283 Y132.007 E32.98605
G1 X66.259 Y130.917 E33.00824
G1 X66.252 Y124.548 E33.13788
G1 X66.259 Y122.316 E33.18331
G1 X66.253 Y110.591 E33.42198
G1 X66.268 Y103.137 E33.57371
G1 X66.279 Y102.484 E33.587
G1 X66.326 Y102.068 E33.59552
G1 X66.451 Y101.668 E33.60405
G1 X66.65 Y101.299 E33.61259
G1 X66.915 Y100.974 E33.62112
G1 X67.237 Y100.705 E33.62966
G1 F3000 E27.62966
;MESH:Rear-Wedge_100x30mm.stl
G0 F6000 X69.45 Y101.835
G0 X95.671 Y106.167
;TYPE:WALL-OUTER
G1 F3000 E33.62966
G1 F420 X95.35 Y106.304 E33.63677
G1 X95.013 Y106.348 E33.64368
G1 X94.657 Y106.307 E33.65098
G1 X94.303 Y106.153 E33.65884
G1 X94.036 Y105.948 E33.66569
G1 X93.831 Y105.674 E33.67265
G1 X93.689 Y105.32 E33.68042
G1 X93.645 Y105.001 E33.68697
G1 X93.689 Y104.677 E33.69363
G1 X93.819 Y104.347 E33.70085
G1 X94.039 Y104.042 E33.7085
G1 X94.347 Y103.819 E33.71624
G1 X94.669 Y103.69 E33.7233
G1 X95.001 Y103.645 E33.73012
G1 X95.32 Y103.689 E33.73668
G1 X95.649 Y103.819 E33.74388
G1 X95.956 Y104.041 E33.75159
G1 X96.152 Y104.303 E33.75825
G1 X96.308 Y104.652 E33.76603
G1 X96.347 Y105.025 E33.77367
G1 X96.308 Y105.344 E33.78021
G1 X96.164 Y105.675 E33.78756
G1 X95.955 Y105.956 E33.79468
G1 X95.671 Y106.167 E33.80189
G1 F3000 E27.80189
G0 F6000 X95.944 Y106.828
G0 X110 Y107.007
G0 X110.294 Y106.968
G0 X111.117 Y106.726
G0 X110.683 Y106.159
G1 F3000 E33.80189
G1 F420 X110.35 Y106.304 E33.80928
G1 X110.013 Y106.348 E33.8162
G1 X109.657 Y106.307 E33.82349
G1 X109.315 Y106.161 E33.83106
G1 X109.063 Y105.973 E33.83746
G1 X108.831 Y105.674 E33.84516
G1 X108.689 Y105.32 E33.85293
G1 X108.645 Y105.001 E33.85948
G1 X108.689 Y104.677 E33.86614
G1 X108.819 Y104.347 E33.87336
G1 X109.039 Y104.042 E33.88101
G1 X109.347 Y103.819 E33.88875
G1 X109.669 Y103.69 E33.89581
G1 X110.001 Y103.645 E33.90263
G1 X110.32 Y103.689 E33.90919
G1 X110.649 Y103.819 E33.91639
G1 X110.956 Y104.041 E33.9241
G1 X111.152 Y104.303 E33.93076
G1 X111.308 Y104.652 E33.93854
G1 X111.347 Y105.025 E33.94618
G1 X111.308 Y105.344 E33.95272
G1 X111.164 Y105.675 E33.96007
G1 X110.96 Y105.948 E33.967
G1 X110.683 Y106.159 E33.97409
G1 F3000 E27.97409
G0 F6000 X111.117 Y106.726
G0 X137.481 Y114.938
G0 X138 Y115.007
G0 X138.294 Y114.968
G0 X139.114 Y114.729
G0 X138.68 Y114.161
G1 F3000 E33.97409
G1 F420 X138.354 Y114.303 E33.98133
G1 X138.009 Y114.348 E33.98841
G1 X137.642 Y114.303 E33.99594
G1 X137.33 Y114.169 E34.00285
G1 X137.052 Y113.963 E34.00989
G1 X136.829 Y113.671 E34.01737
G1 X136.695 Y113.348 E34.02449
G1 X136.648 Y113.016 E34.03131
G1 X136.696 Y112.644 E34.03895
G1 X136.829 Y112.325 E34.04598
G1 X137.041 Y112.043 E34.05316
G1 X137.324 Y111.83 E34.06037
G1 X137.651 Y111.694 E34.06758
G1 X138.001 Y111.645 E34.07478
G1 X138.345 Y111.694 E34.08185
G1 X138.672 Y111.83 E34.08906
G1 X138.955 Y112.043 E34.09627
G1 X139.166 Y112.324 E34.10342
G1 X139.308 Y112.662 E34.11088
G1 X139.348 Y112.988 E34.11757
G1 X139.306 Y113.345 E34.12489
G1 X139.169 Y113.667 E34.13201
G1 X138.953 Y113.955 E34.13934
G1 X138.68 Y114.161 E34.1463
G1 F3000 E28.1463
G0 F6000 X139.114 Y114.729
G0 X160.754 Y120.77
G0 X162.155 Y120.842
G0 X162.076 Y120.135
G1 F3000 E34.1463
G1 F420 X161.513 Y120.2 E34.15784
G1 X160.903 Y120.132 E34.17033
G1 X160.321 Y119.929 E34.18288
G1 X159.814 Y119.612 E34.19505
G1 X159.387 Y119.181 E34.2074
G1 X159.064 Y118.668 E34.21974
G1 X158.864 Y118.093 E34.23213
G1 X158.8 Y117.496 E34.24435
G1 X158.801 Y108.478 E34.42791
G1 X158.871 Y107.877 E34.44023
G1 X159.078 Y107.301 E34.45269
G1 X159.402 Y106.798 E34.46487
G1 X159.798 Y106.402 E34.47627
G1 X160.341 Y106.059 E34.48934
G1 X160.877 Y105.871 E34.5009
G1 X161.5 Y105.8 E34.51367
G1 X162.119 Y105.871 E34.52635
G1 X162.655 Y106.059 E34.53791
G1 X163.197 Y106.401 E34.55095
G1 X163.597 Y106.797 E34.56241
G1 X163.937 Y107.341 E34.57547
G1 X164.135 Y107.921 E34.58795
G1 X164.199 Y108.477 E34.59934
G1 X164.201 Y117.496 E34.78292
G1 X164.134 Y118.087 E34.79503
G1 X163.918 Y118.694 E34.80814
G1 X163.598 Y119.198 E34.82029
G1 X163.198 Y119.598 E34.83181
G1 X162.655 Y119.937 E34.84484
G1 X162.076 Y120.135 E34.8573
G1 F3000 E28.8573
G0 F6000 X162.155 Y120.842
G0 X165.495 Y131.915
G0 X165.772 Y132.192
G1 F3000 E34.8573
G1 F420 X165.775 Y124.09 E35.02221
G1 X165.752 Y123.667 E35.03084
G1 X165.771 Y102.7 E35.45762
G1 X69.228 Y102.7 E37.42278
G1 X69.212 Y108.089 E37.53247
G1 X69.244 Y111.321 E37.59826
G1 X69.225 Y132.192 E38.0231
G1 X165.772 Y132.192 E39.98833
G0 F6000 X165.372 Y131.792
;TYPE:WALL-INNER
G1 F420 X165.375 Y124.102 E40.14643
G1 X165.352 Y123.667 E40.15538
G1 X165.371 Y103.1 E40.57821
G1 X110.871 Y103.101 E41.69867
G1 F374.1 X110.368 Y103.186 E41.71041
G1 X110.932 Y103.524 E41.72555
G1 F420 X111.243 Y103.757 E41.73354
G1 X111.516 Y104.122 E41.74291
G1 X111.698 Y104.545 E41.75238
G1 X111.753 Y105.001 E41.76182
G1 X111.697 Y105.455 E41.77123
G1 X111.508 Y105.879 E41.78077
G1 X111.231 Y106.25 E41.79029
G1 X110.873 Y106.516 E41.79946
G1 X110.436 Y106.7 E41.80921
G1 X110 Y106.751 E41.81823
G1 X109.542 Y106.696 E41.82771
G1 X109.119 Y106.514 E41.83718
G1 X108.754 Y106.242 E41.84654
G1 X108.486 Y105.877 E41.85585
G1 X108.304 Y105.455 E41.8653
G1 X108.242 Y105.001 E41.87472
G1 X108.304 Y104.545 E41.88418
G1 X108.478 Y104.125 E41.89353
G1 X108.753 Y103.757 E41.90297
G1 X109.064 Y103.524 E41.91096
G1 F372.4 X109.596 Y103.191 E41.92548
G1 X109.125 Y103.101 E41.93657
G1 F420 X95.871 Y103.101 E42.20905
G1 F374.1 X95.368 Y103.186 E42.2208
G1 X95.932 Y103.524 E42.23594
G1 F420 X96.243 Y103.757 E42.24393
G1 X96.516 Y104.122 E42.2533
G1 X96.698 Y104.545 E42.26276
G1 X96.753 Y105.001 E42.27221
G1 X96.697 Y105.455 E42.28161
G1 X96.508 Y105.879 E42.29116
G1 X96.226 Y106.254 E42.3008
G1 X95.882 Y106.507 E42.30958
G1 X95.437 Y106.7 E42.31955
G1 X95 Y106.751 E42.3286
G1 X94.542 Y106.696 E42.33808
G1 X94.115 Y106.512 E42.34764
G1 X93.763 Y106.247 E42.3567
G1 X93.486 Y105.877 E42.3662
G1 X93.304 Y105.455 E42.37565
G1 X93.242 Y105.001 E42.38507
G1 X93.304 Y104.545 E42.39453
G1 X93.478 Y104.125 E42.40388
G1 X93.753 Y103.757 E42.41332
G1 X94.064 Y103.524 E42.42131
G1 F372.4 X94.596 Y103.191 E42.43583
G1 X94.125 Y103.101 E42.44692
G1 F420 X69.627 Y103.1 E42.95057
G1 X69.612 Y108.085 E43.05305
G1 X69.644 Y111.321 E43.11958
