;FLAVOR:Marlin
;TIME:8347
;Filament used: 2.66409m
;Layer height: 0.12
;MINX:64.252
;MINY:98.3
;MINZ:0.12
;MAXX:170.748
;MAXY:136.595
;MAXZ:5.52
;TARGET_MACHINE.NAME:Creality Ender-3
;Generated with Cura_SteamEngine 5.11.0
M140 S80
M105
M190 S80
M104 S245
M105
M109 S245
; Ender 3 Custom Start G-code
G92 E0 ; Reset Extruder
G28 ; Home all axes
G1 Z2.0 F3000 ; Move Z Axis up little to prevent scratching of Heat Bed
G1 X0.1 Y20 Z0.3 F5000.0 ; Move to start position
G1 X0.1 Y200.0 Z0.3 F1500.0 E15 ; Draw the first line
G1 X0.4 Y200.0 Z0.3 F5000.0 ; Move to side a little
G1 X0.4 Y20 Z0.3 F1500.0 E30 ; Draw the second line
G92 E0 ; Reset Extruder
G1 Z2.0 F3000 ; Move Z Axis up little to prevent scratching of Heat Bed
G1 X5 Y20 Z0.3 F5000.0 ; Move over to prevent blob squish
M82 ;absolute extrusion mode
G92 E0
G92 E0
G1 F3000 E-6
;LAYER_COUNT:46
;LAYER:0
M107
G0 F6000 X66.082 Y99.059 Z0.12
;TYPE:SKIRT
G1 F3000 E0
G1 F420 X66.803 Y98.663 E0.01674
G1 X67.578 Y98.41 E0.03334
G1 X68.393 Y98.321 E0.05003
G1 X69.398 Y98.3 E0.07049
G1 X165.89 Y98.3 E2.0346
G1 X166.694 Y98.317 E2.05097
G1 X167.388 Y98.409 E2.06522
G1 X168.142 Y98.626 E2.08119
G1 X168.992 Y99.126 E2.10127
G1 X169.429 Y99.489 E2.11283
G1 X169.986 Y100.13 E2.13012
G1 X170.365 Y100.862 E2.14689
G1 X170.618 Y101.585 E2.16249
G1 X170.709 Y102.413 E2.17944
G1 X170.733 Y103.479 E2.20115
G1 X170.748 Y110.394 E2.3419
G1 X170.741 Y112.561 E2.38601
G1 X170.742 Y131.258 E2.76659
G1 X170.719 Y132.179 E2.78535
G1 X170.611 Y132.926 E2.80071
G1 X170.493 Y133.328 E2.80924
G1 X170.082 Y134.205 E2.82895
G1 X169.633 Y134.773 E2.84369
G1 X169.178 Y135.238 E2.85693
G1 X168.661 Y135.652 E2.87041
G1 X167.905 Y136.131 E2.88863
G1 X166.882 Y136.511 E2.91085
G1 X166.046 Y136.585 E2.92793
G1 X165.429 Y136.593 E2.94049
G1 X163.101 Y136.585 E2.98788
G1 X69.671 Y136.595 E4.88966
G1 X68.841 Y136.577 E4.90656
G1 X68.093 Y136.472 E4.92194
G1 X67.433 Y136.264 E4.93602
G1 X66.818 Y135.957 E4.95001
G1 X66.24 Y135.582 E4.96404
G1 X65.776 Y135.198 E4.9763
G1 X65.382 Y134.79 E4.98784
G1 X64.803 Y133.978 E5.00814
G1 X64.531 Y133.419 E5.0208
G1 X64.352 Y132.699 E5.0359
G1 X64.283 Y132.052 E5.04914
G1 X64.259 Y130.917 E5.07225
G1 X64.252 Y124.543 E5.202
G1 X64.259 Y122.311 E5.24743
G1 X64.253 Y110.586 E5.48609
G1 X64.268 Y103.098 E5.63851
G1 X64.29 Y102.307 E5.65462
G1 X64.416 Y101.472 E5.67181
G1 X64.607 Y100.861 E5.68484
G1 X65.109 Y100.022 E5.70474
G1 X65.465 Y99.604 E5.71592
G1 X66.082 Y99.059 E5.73268
G0 F6000 X66.316 Y99.387
G1 F420 X66.963 Y99.031 E5.74771
G1 X67.659 Y98.804 E5.76261
G1 X68.401 Y98.721 E5.77781
G1 X69.406 Y98.7 E5.79827
G1 X165.883 Y98.7 E7.76208
G1 X166.644 Y98.714 E7.77757
G1 X167.277 Y98.793 E7.79056
G1 X167.981 Y98.996 E7.80547
G1 X168.736 Y99.434 E7.82324
G1 X169.173 Y99.797 E7.8348
G1 X169.653 Y100.356 E7.8498
G1 X170.01 Y101.046 E7.86561
G1 X170.225 Y101.671 E7.87907
G1 X170.309 Y102.422 E7.89445
G1 X170.333 Y103.48 E7.91599
G1 X170.348 Y110.393 E8.0567
G1 X170.341 Y112.56 E8.10081
G1 X170.342 Y131.249 E8.48123
G1 X170.323 Y132.124 E8.49905
G1 X170.227 Y132.813 E8.51321
G1 X170.109 Y133.215 E8.52174
G1 X169.74 Y133.993 E8.53926
G1 X169.347 Y134.493 E8.55221
G1 X168.892 Y134.958 E8.56545
G1 X168.447 Y135.314 E8.57705
G1 X167.726 Y135.771 E8.59443
G1 X166.792 Y136.118 E8.61471
G1 X166.041 Y136.185 E8.63006
G1 X165.43 Y136.193 E8.64249
G1 X163.102 Y136.185 E8.68988
G1 X69.68 Y136.195 E10.5915
G1 X68.85 Y136.177 E10.6084
G1 X68.211 Y136.09 E10.62153
G1 X67.61 Y135.905 E10.63433
G1 X67.036 Y135.621 E10.64737
G1 X66.458 Y135.246 E10.66139
G1 X66.064 Y134.92 E10.6718
G1 X65.67 Y134.512 E10.68335
G1 X65.163 Y133.803 E10.70109
G1 X64.91 Y133.282 E10.71288
G1 X64.75 Y132.655 E10.72605
G1 X64.683 Y132.043 E10.73858
G1 X64.659 Y130.917 E10.76151
G1 X64.652 Y124.544 E10.89123
G1 X64.659 Y122.312 E10.93666
G1 X64.653 Y110.587 E11.17533
G1 X64.668 Y103.108 E11.32756
G1 X64.686 Y102.364 E11.34271
G1 X64.798 Y101.591 E11.35861
G1 X64.975 Y101.025 E11.37068
G1 X65.416 Y100.279 E11.38832
G1 X65.73 Y99.904 E11.39828
G1 X66.316 Y99.387 E11.41419
G0 F6000 X66.547 Y99.716
G1 F420 X67.123 Y99.399 E11.42757
G1 X67.745 Y99.196 E11.44089
G1 X68.409 Y99.121 E11.45449
G1 X69.414 Y99.1 E11.47495
G1 X165.876 Y99.1 E13.43845
G1 X166.637 Y99.114 E13.45395
G1 X167.166 Y99.177 E13.46479
G1 X167.822 Y99.366 E13.47869
G1 X168.484 Y99.745 E13.49421
G1 X168.87 Y100.058 E13.50433
G1 X169.319 Y100.581 E13.51836
G1 X169.632 Y101.176 E13.53204
G1 X169.833 Y101.76 E13.54462
G1 X169.909 Y102.431 E13.55836
G1 X169.933 Y103.481 E13.57974
G1 X169.948 Y110.392 E13.72042
G1 X169.941 Y112.559 E13.76453
G1 X169.942 Y131.241 E14.1448
G1 X169.926 Y132.072 E14.16172
G1 X169.843 Y132.7 E14.17461
G1 X169.725 Y133.102 E14.18314
G1 X169.399 Y133.779 E14.19844
G1 X169.032 Y134.246 E14.21053
G1 X168.641 Y134.647 E14.22193
G1 X168.233 Y134.976 E14.2326
G1 X167.547 Y135.411 E14.24913
G1 X166.702 Y135.725 E14.26748
G1 X166.036 Y135.785 E14.28109
G1 X165.431 Y135.793 E14.29341
G1 X163.103 Y135.785 E14.34079
G1 X69.688 Y135.795 E16.24228
G1 X68.9 Y135.78 E16.25832
G1 X68.329 Y135.708 E16.27003
G1 X67.728 Y135.523 E16.28283
G1 X67.252 Y135.284 E16.29368
G1 X66.712 Y134.937 E16.30674
G1 X66.352 Y134.642 E16.31621
G1 X65.958 Y134.234 E16.32776
G1 X65.523 Y133.628 E16.34294
G1 X65.288 Y133.144 E16.3539
G1 X65.138 Y132.556 E16.36625
G1 X65.083 Y132.034 E16.37693
G1 X65.059 Y130.917 E16.39967
G1 X65.052 Y124.545 E16.52938
G1 X65.059 Y122.313 E16.57481
G1 X65.053 Y110.588 E16.81348
G1 X65.068 Y103.116 E16.96557
G1 X65.082 Y102.419 E16.97976
G1 X65.18 Y101.71 E16.99433
G1 X65.343 Y101.189 E17.00544
G1 X65.723 Y100.536 E17.02082
G1 X66.037 Y100.161 E17.03078
G1 X66.547 Y99.716 E17.04455
G0 F6000 X66.778 Y100.045
G1 F420 X67.283 Y99.767 E17.05629
G1 X67.831 Y99.588 E17.06802
G1 X68.417 Y99.521 E17.08003
G1 X69.422 Y99.5 E17.10049
G1 X165.869 Y99.5 E19.06369
G1 X166.63 Y99.514 E19.07918
G1 X167.117 Y99.574 E19.08917
G1 X167.666 Y99.737 E19.10083
G1 X168.232 Y100.056 E19.11405
G1 X168.618 Y100.369 E19.12417
G1 X168.985 Y100.806 E19.13578
G1 X169.254 Y101.306 E19.14734
G1 X169.441 Y101.849 E19.15903
G1 X169.509 Y102.44 E19.17114
G1 X169.533 Y103.482 E19.19235
G1 X169.548 Y110.391 E19.33299
G1 X169.541 Y112.558 E19.3771
G1 X169.542 Y131.234 E19.75725
G1 X169.529 Y132.023 E19.77331
G1 X169.459 Y132.587 E19.78488
G1 X169.341 Y132.989 E19.79341
G1 X169.057 Y133.567 E19.80652
G1 X168.744 Y133.968 E19.81687
G1 X168.388 Y134.337 E19.82731
G1 X168.019 Y134.638 E19.837
G1 X167.368 Y135.051 E19.8527
G1 X166.612 Y135.332 E19.86911
G1 X166.031 Y135.385 E19.88099
G1 X165.432 Y135.393 E19.89318
G1 X163.104 Y135.385 E19.94057
G1 X69.694 Y135.395 E21.84195
G1 X68.95 Y135.383 E21.8571
G1 X68.379 Y135.311 E21.86881
G1 X67.85 Y135.142 E21.88012
G1 X67.467 Y134.947 E21.88886
G1 X66.964 Y134.626 E21.90101
G1 X66.64 Y134.364 E21.90949
G1 X66.246 Y133.956 E21.92104
G1 X65.883 Y133.453 E21.93366
G1 X65.666 Y133.006 E21.94378
G1 X65.526 Y132.457 E21.95531
G1 X65.483 Y132.025 E21.96415
G1 X65.459 Y130.917 E21.98671
G1 X65.452 Y124.546 E22.11639
G1 X65.459 Y122.314 E22.16182
G1 X65.453 Y110.589 E22.40049
G1 X65.468 Y103.123 E22.55246
G1 X65.479 Y102.47 E22.56575
G1 X65.562 Y101.83 E22.57889
G1 X65.712 Y101.351 E22.58911
G1 X66.03 Y100.793 E22.60218
G1 X66.344 Y100.418 E22.61214
G1 X66.778 Y100.045 E22.62378
G0 F6000 X67.008 Y100.375
G1 F420 X67.443 Y100.135 E22.6339
G1 X67.917 Y99.98 E22.64405
G1 X68.425 Y99.921 E22.65446
G1 X69.43 Y99.9 E22.67492
G1 X165.862 Y99.9 E24.63781
G1 X166.586 Y99.912 E24.65255
G1 X167.003 Y99.958 E24.66109
G1 X167.513 Y100.109 E24.67192
G1 X167.98 Y100.367 E24.68278
G1 X168.336 Y100.656 E24.69211
G1 X168.654 Y101.034 E24.70217
G1 X168.876 Y101.436 E24.71151
G1 X169.049 Y101.938 E24.72232
G1 X169.109 Y102.449 E24.73279
G1 X169.133 Y103.483 E24.75385
G1 X169.148 Y110.39 E24.89444
G1 X169.141 Y112.557 E24.93855
G1 X169.142 Y131.227 E25.31858
G1 X169.129 Y132.016 E25.33465
G1 X169.075 Y132.474 E25.34403
G1 X168.957 Y132.876 E25.35256
G1 X168.718 Y133.352 E25.3634
G1 X168.454 Y133.692 E25.37216
G1 X168.133 Y134.029 E25.38164
G1 X167.805 Y134.3 E25.3903
G1 X167.189 Y134.691 E25.40515
G1 X166.522 Y134.939 E25.41964
G1 X166.026 Y134.985 E25.42977
G1 X165.433 Y134.993 E25.44185
G1 X163.105 Y134.985 E25.48923
G1 X69.7 Y134.995 E27.39051
G1 X68.956 Y134.983 E27.40566
G1 X68.497 Y134.929 E27.41507
G1 X68.03 Y134.785 E27.42501
G1 X67.681 Y134.609 E27.43297
G1 X67.213 Y134.313 E27.44424
G1 X66.926 Y134.084 E27.45171
G1 X66.568 Y133.719 E27.46212
G1 X66.243 Y133.278 E27.47327
G1 X66.044 Y132.868 E27.48255
G1 X65.914 Y132.358 E27.49326
G1 X65.883 Y132.016 E27.50025
G1 X65.859 Y130.917 E27.52263
G1 X65.852 Y124.547 E27.65229
G1 X65.859 Y122.315 E27.69772
G1 X65.853 Y110.59 E27.93639
G1 X65.868 Y103.13 E28.08824
G1 X65.879 Y102.477 E28.10153
G1 X65.944 Y101.949 E28.11236
G1 X66.081 Y101.51 E28.12172
G1 X66.34 Y101.046 E28.13254
G1 X66.605 Y100.721 E28.14107
G1 X67.008 Y100.375 E28.15189
G0 F6000 X67.237 Y100.705
G1 F420 X67.603 Y100.503 E28.1604
G1 X68.002 Y100.373 E28.16894
G1 X68.433 Y100.321 E28.17777
G1 X69.438 Y100.3 E28.19824
G1 X165.856 Y100.3 E30.16084
G1 X166.542 Y100.31 E30.17481
G1 X166.959 Y100.356 E30.18335
G1 X167.359 Y100.48 E30.19187
G1 X167.728 Y100.678 E30.2004
G1 X168.054 Y100.942 E30.20894
G1 X168.323 Y101.263 E30.21746
G1 X168.526 Y101.63 E30.226
G1 X168.657 Y102.028 E30.23453
G1 X168.709 Y102.458 E30.24334
G1 X168.733 Y103.484 E30.26423
G1 X168.748 Y110.389 E30.40479
G1 X168.741 Y112.556 E30.4489
G1 X168.742 Y131.221 E30.82883
G1 X168.731 Y131.975 E30.84418
G1 X168.691 Y132.361 E30.85207
G1 X168.573 Y132.763 E30.8606
G1 X168.38 Y133.135 E30.86913
G1 X168.138 Y133.446 E30.87715
G1 X167.875 Y133.723 E30.88493
G1 X167.591 Y133.962 E30.89248
G1 X167.01 Y134.331 E30.90649
G1 X166.432 Y134.546 E30.91905
G1 X166.021 Y134.585 E30.92745
G1 X165.434 Y134.593 E30.9394
G1 X163.106 Y134.585 E30.98679
G1 X69.706 Y134.595 E32.88796
G1 X68.997 Y134.585 E32.9024
G1 X68.61 Y134.545 E32.91032
G1 X68.208 Y134.427 E32.91884
G1 X67.895 Y134.271 E32.92596
G1 X67.427 Y133.975 E32.93723
G1 X67.212 Y133.804 E32.94283
G1 X66.854 Y133.439 E32.95323
G1 X66.603 Y133.103 E32.96177
G1 X66.42 Y132.726 E32.9703
G1 X66.312 Y132.321 E32.97883
G1 X66.283 Y132.007 E32.98525
G1 X66.259 Y130.917 E33.00744
G1 X66.252 Y124.548 E33.13709
G1 X66.259 Y122.316 E33.18252
G1 X66.253 Y110.591 E33.42118
G1 X66.268 Y103.137 E33.57291
G1 X66.279 Y102.484 E33.58621
G1 X66.326 Y102.068 E33.59473
G1 X66.451 Y101.668 E33.60326
G1 X66.65 Y101.299 E33.61179
G1 X66.915 Y100.974 E33.62033
G1 X67.237 Y100.705 E33.62887
G1 F3000 E27.62887
;MESH:Rear-Wedge_100x30mm.stl
G0 F6000 X69.45 Y101.835
G0 X74.076 Y120.135
;TYPE:WALL-OUTER
G1 F3000 E33.62887
G1 F420 X73.487 Y120.2 E33.64093
G1 X72.877 Y120.125 E33.65344
G1 X72.302 Y119.918 E33.66588
G1 X71.797 Y119.597 E33.67806
G1 X71.374 Y119.163 E33.6904
G1 X71.059 Y118.655 E33.70256
G1 X70.862 Y118.087 E33.7148
G1 X70.801 Y117.518 E33.72645
G1 X70.801 Y108.478 E33.91046
G1 X70.871 Y107.877 E33.92278
G1 X71.078 Y107.301 E33.93524
G1 X71.402 Y106.798 E33.94741
G1 X71.833 Y106.374 E33.95972
G1 X72.341 Y106.059 E33.97189
G1 X72.877 Y105.871 E33.98345
G1 X73.5 Y105.8 E33.99621
G1 X74.119 Y105.871 E34.0089
G1 X74.655 Y106.059 E34.02046
G1 X75.197 Y106.401 E34.0335
G1 X75.597 Y106.797 E34.04496
G1 X75.937 Y107.341 E34.05802
G1 X76.135 Y107.921 E34.07049
G1 X76.199 Y108.477 E34.08189
G1 X76.201 Y117.496 E34.26547
G1 X76.13 Y118.102 E34.27789
G1 X75.932 Y118.668 E34.29009
G1 X75.598 Y119.198 E34.30285
G1 X75.181 Y119.613 E34.31482
G1 X74.675 Y119.929 E34.32696
G1 X74.076 Y120.135 E34.33986
G1 F3000 E28.33986
G0 F6000 X74.155 Y120.842
G0 X97.519 Y114.938
G0 X98.114 Y114.729
G0 X97.68 Y114.161
G1 F3000 E34.33986
G1 F420 X97.354 Y114.303 E34.3471
G1 X97.009 Y114.348 E34.35418
G1 X96.642 Y114.303 E34.3617
G1 X96.33 Y114.169 E34.36862
G1 X96.053 Y113.964 E34.37563
G1 X95.833 Y113.678 E34.38298
G1 X95.692 Y113.337 E34.39049
G1 X95.648 Y112.988 E34.39765
G1 X95.696 Y112.644 E34.40472
G1 X95.829 Y112.325 E34.41175
G1 X96.041 Y112.043 E34.41893
G1 X96.324 Y111.83 E34.42614
G1 X96.651 Y111.694 E34.43335
G1 X97.001 Y111.645 E34.44055
G1 X97.345 Y111.694 E34.44762
G1 X97.672 Y111.83 E34.45483
G1 X97.955 Y112.043 E34.46204
G1 X98.166 Y112.324 E34.46919
G1 X98.308 Y112.662 E34.47665
G1 X98.348 Y113.01 E34.48378
G1 X98.301 Y113.36 E34.49097
G1 X98.172 Y113.662 E34.49766
G1 X97.964 Y113.943 E34.50477
G1 X97.68 Y114.161 E34.51206
G1 F3000 E28.51206
G0 F6000 X98.114 Y114.729
G0 X125.944 Y106.828
G0 X125.671 Y106.167
G1 F3000 E34.51206
G1 F420 X125.35 Y106.304 E34.51916
G1 X125.013 Y106.348 E34.52608
G1 X124.657 Y106.307 E34.53338
G1 X124.303 Y106.153 E34.54123
G1 X124.036 Y105.948 E34.54809
G1 X123.831 Y105.674 E34.55505
G1 X123.689 Y105.32 E34.56282
G1 X123.645 Y105.001 E34.56937
G1 X123.689 Y104.677 E34.57603
G1 X123.819 Y104.347 E34.58325
G1 X124.039 Y104.042 E34.5909
G1 X124.347 Y103.819 E34.59864
G1 X124.669 Y103.69 E34.6057
G1 X125.001 Y103.645 E34.61252
G1 X125.32 Y103.689 E34.61908
G1 X125.649 Y103.819 E34.62628
G1 X125.956 Y104.041 E34.63399
G1 X126.152 Y104.303 E34.64065
G1 X126.308 Y104.651 E34.64841
G1 X126.347 Y104.975 E34.65505
G1 X126.308 Y105.343 E34.66259
G1 X126.164 Y105.675 E34.66995
G1 X125.955 Y105.956 E34.67708
G1 X125.671 Y106.167 E34.68428
G1 F3000 E28.68428
G0 F6000 X125.944 Y106.828
G0 X140 Y107.007
G0 X140.294 Y106.968
G0 X141.117 Y106.726
G0 X140.683 Y106.159
G1 F3000 E34.68428
G1 F420 X140.35 Y106.304 E34.69168
G1 X140.013 Y106.348 E34.69859
G1 X139.657 Y106.307 E34.70589
G1 X139.315 Y106.161 E34.71346
G1 X139.063 Y105.973 E34.71986
G1 X138.831 Y105.674 E34.72756
G1 X138.689 Y105.32 E34.73532
G1 X138.645 Y105.001 E34.74188
G1 X138.689 Y104.677 E34.74854
G1 X138.819 Y104.347 E34.75575
G1 X139.039 Y104.042 E34.76341
G1 X139.347 Y103.819 E34.77115
G1 X139.669 Y103.69 E34.77821
G1 X140.001 Y103.645 E34.78503
G1 X140.32 Y103.689 E34.79159
G1 X140.649 Y103.819 E34.79879
G1 X140.956 Y104.041 E34.8065
G1 X141.152 Y104.303 E34.81316
G1 X141.308 Y104.651 E34.82092
G1 X141.347 Y104.975 E34.82756
G1 X141.308 Y105.343 E34.8351
G1 X141.164 Y105.675 E34.84246
G1 X140.96 Y105.948 E34.8494
G1 X140.683 Y106.159 E34.85649
G1 F3000 E28.85649
G0 F6000 X141.117 Y106.726
G0 X165.495 Y131.914
G0 X165.772 Y132.191
G1 F3000 E34.85649
G1 F420 X165.775 Y124.118 E35.02081
G1 X165.752 Y120.143 E35.10173
G1 X165.756 Y111.322 E35.28128
G1 X165.784 Y108.024 E35.34842
G1 X165.772 Y102.7 E35.45679
G1 X69.229 Y102.7 E37.42194
G1 X69.245 Y123.667 E37.84873
G1 X69.224 Y124.105 E37.85765
G1 X69.224 Y132.192 E38.02226
G1 X165.772 Y132.191 E39.98752
G0 F6000 X165.372 Y131.791
;TYPE:WALL-INNER
G1 F420 X165.375 Y124.118 E40.14527
G1 X165.352 Y120.143 E40.22699
G1 X165.356 Y111.318 E40.40842
G1 X165.384 Y108.025 E40.47612
G1 X165.373 Y103.1 E40.57737
G1 X140.871 Y103.101 E41.0811
G1 F374.1 X140.368 Y103.186 E41.09285
G1 X140.932 Y103.524 E41.10799
G1 F420 X141.243 Y103.757 E41.11598
G1 X141.516 Y104.122 E41.12535
G1 X141.698 Y104.545 E41.13482
G1 X141.753 Y105.001 E41.14426
G1 X141.697 Y105.455 E41.15367
G1 X141.508 Y105.879 E41.16321
G1 X141.231 Y106.25 E41.17273
G1 X140.873 Y106.516 E41.1819
G1 X140.436 Y106.7 E41.19165
G1 X140 Y106.751 E41.20067
G1 X139.542 Y106.696 E41.21015
G1 X139.119 Y106.514 E41.21962
G1 X138.754 Y106.242 E41.22898
G1 X138.486 Y105.877 E41.23829
G1 X138.304 Y105.455 E41.24774
G1 X138.242 Y105.001 E41.25716
G1 X138.304 Y104.545 E41.26662
G1 X138.478 Y104.125 E41.27596
G1 X138.753 Y103.757 E41.28541
G1 X139.064 Y103.524 E41.2934
G1 F372.4 X139.596 Y103.191 E41.30791
G1 X139.125 Y103.101 E41.31901
G1 F420 X125.871 Y103.101 E41.59149
G1 F374.1 X125.368 Y103.186 E41.60324
G1 X125.932 Y103.524 E41.61838
G1 F420 X126.243 Y103.757 E41.62637
G1 X126.516 Y104.122 E41.63574
G1 X126.698 Y104.545 E41.6452
G1 X126.753 Y105.001 E41.65465
G1 X126.697 Y105.455 E41.66405
G1 X126.508 Y105.879 E41.67359
G1 X126.226 Y106.254 E41.68324
G1 X125.882 Y106.507 E41.69202
G1 X125.437 Y106.7 E41.70199
G1 X125 Y106.751 E41.71104
G1 X124.542 Y106.696 E41.72052
