;FLAVOR:Marlin
;TIME:16560
;Filament used: 7.01924m
;Layer height: 0.16
;MINX:53.3
;MINY:48.3
;MINZ:0.2
;MAXX:181.7
;MAXY:116.7
;MAXZ:4.88
;TARGET_MACHINE.NAME:Creality Ender-3
;Generated with Cura_SteamEngine 5.11.0
M140 S80
M105
M190 S80
M104 S245
M105
M109 S245
; Ender 3 Custom Start G-code
G92 E0 ; Reset Extruder
G28 ; Home all axes
G1 Z2.0 F3000 ; Move Z Axis up little to prevent scratching of Heat Bed
G1 X0.1 Y20 Z0.3 F5000.0 ; Move to start position
G1 X0.1 Y200.0 Z0.3 F1500.0 E15 ; Draw the first line
G1 X0.4 Y200.0 Z0.3 F5000.0 ; Move to side a little
G1 X0.4 Y20 Z0.3 F1500.0 E30 ; Draw the second line
G92 E0 ; Reset Extruder
G1 Z2.0 F3000 ; Move Z Axis up little to prevent scratching of Heat Bed
G1 X5 Y20 Z0.3 F5000.0 ; Move over to prevent blob squish
M82 ;absolute extrusion mode
G92 E0
G92 E0
G1 F3000 E-6
;LAYER_COUNT:30
;LAYER:0
M107
G0 F6000 X54.572 Y49.515 Z0.2
;TYPE:SKIRT
G1 F3000 E0
G1 F420 X55.211 Y49.001 E0.02782
G1 X55.781 Y48.674 E0.05011
G1 X56.576 Y48.402 E0.07862
G1 X57.398 Y48.31 E0.10668
G1 X57.78 Y48.3 E0.11964
G1 X176.862 Y48.3 E4.15954
G1 X177.769 Y48.324 E4.19032
G1 X178.435 Y48.422 E4.21316
G1 X179.119 Y48.624 E4.23736
G1 X179.89 Y49.07 E4.26757
G1 X180.45 Y49.514 E4.29182
G1 X180.998 Y50.21 E4.32187
G1 X181.357 Y50.834 E4.34629
G1 X181.607 Y51.706 E4.37707
G1 X181.687 Y52.353 E4.39919
G1 X181.7 Y52.776 E4.41354
G1 X181.7 Y111.828 E6.4169
G1 X181.679 Y112.721 E6.44721
G1 X181.578 Y113.434 E6.47164
G1 X181.379 Y114.112 E6.49561
G1 X180.966 Y114.838 E6.52394
G1 X180.484 Y115.456 E6.55053
G1 X179.711 Y116.051 E6.58363
G1 X179.156 Y116.359 E6.60516
G1 X178.343 Y116.596 E6.63389
G1 X177.602 Y116.69 E6.65923
G1 X177.22 Y116.7 E6.67219
G1 X58.138 Y116.7 E10.71209
G1 X57.231 Y116.676 E10.74287
G1 X56.565 Y116.578 E10.76571
G1 X55.881 Y116.376 E10.7899
G1 X55.11 Y115.93 E10.82012
G1 X54.55 Y115.486 E10.84437
G1 X54.002 Y114.79 E10.87442
G1 X53.643 Y114.166 E10.89884
G1 X53.393 Y113.294 E10.92962
G1 X53.313 Y112.645 E10.9518
G1 X53.3 Y112.212 E10.9665
G1 X53.3 Y53.103 E12.97179
G1 X53.32 Y52.257 E13.0005
G1 X53.388 Y51.641 E13.02152
G1 X53.679 Y50.804 E13.05159
G1 X54.014 Y50.155 E13.07636
G1 X54.572 Y49.515 E13.10517
G0 F6000 X54.874 Y49.778
G1 F420 X55.41 Y49.348 E13.12848
G1 X55.945 Y49.041 E13.14941
G1 X56.668 Y48.794 E13.17533
G1 X57.408 Y48.71 E13.20059
G1 X57.79 Y48.7 E13.21356
G1 X176.853 Y48.7 E17.25281
G1 X177.713 Y48.72 E17.28199
G1 X178.322 Y48.806 E17.30286
G1 X178.963 Y48.995 E17.32553
G1 X179.642 Y49.383 E17.35206
G1 X180.163 Y49.796 E17.37462
G1 X180.651 Y50.409 E17.4012
G1 X180.985 Y50.99 E17.42393
G1 X181.21 Y51.756 E17.45102
G1 X181.287 Y52.365 E17.47184
G1 X181.3 Y52.788 E17.4862
G1 X181.3 Y111.82 E19.48888
G1 X181.283 Y112.667 E19.51762
G1 X181.194 Y113.321 E19.54001
G1 X181.008 Y113.954 E19.5624
G1 X180.618 Y114.64 E19.58917
G1 X180.201 Y115.169 E19.61202
G1 X179.517 Y115.701 E19.64142
G1 X179 Y115.988 E19.66148
G1 X178.231 Y116.212 E19.68865
G1 X177.592 Y116.29 E19.71049
G1 X177.21 Y116.3 E19.72345
G1 X58.147 Y116.3 E23.76271
G1 X57.287 Y116.28 E23.79189
G1 X56.678 Y116.194 E23.81276
G1 X56.037 Y116.005 E23.83543
G1 X55.358 Y115.617 E23.86196
G1 X54.837 Y115.204 E23.88451
G1 X54.349 Y114.591 E23.91109
G1 X54.015 Y114.01 E23.93383
G1 X53.79 Y113.244 E23.96091
G1 X53.713 Y112.633 E23.98181
G1 X53.7 Y112.2 E23.9965
G1 X53.7 Y53.112 E26.00108
G1 X53.718 Y52.301 E26.0286
G1 X53.781 Y51.727 E26.04819
G1 X54.034 Y50.988 E26.07469
G1 X54.346 Y50.384 E26.09776
G1 X54.874 Y49.778 E26.12502
G0 F6000 X55.176 Y50.041
G1 F420 X55.609 Y49.695 E26.14383
G1 X56.109 Y49.408 E26.16339
G1 X56.759 Y49.186 E26.18669
G1 X57.418 Y49.11 E26.20919
G1 X57.8 Y49.1 E26.22216
G1 X176.845 Y49.1 E30.2608
G1 X177.66 Y49.117 E30.28845
G1 X178.209 Y49.19 E30.30724
G1 X178.805 Y49.366 E30.32833
G1 X179.394 Y49.697 E30.35125
G1 X179.88 Y50.082 E30.37228
G1 X180.304 Y50.608 E30.3952
G1 X180.614 Y51.148 E30.41633
G1 X180.813 Y51.807 E30.43968
G1 X180.887 Y52.377 E30.45918
G1 X180.9 Y52.8 E30.47354
G1 X180.9 Y111.813 E32.47557
G1 X180.886 Y112.616 E32.50282
G1 X180.81 Y113.208 E32.52307
G1 X180.636 Y113.799 E32.54397
G1 X180.304 Y114.392 E32.56702
G1 X179.917 Y114.883 E32.58823
G1 X179.323 Y115.351 E32.61389
G1 X178.844 Y115.617 E32.63248
G1 X178.119 Y115.828 E32.65809
G1 X177.582 Y115.89 E32.67643
G1 X177.2 Y115.9 E32.68939
G1 X58.155 Y115.9 E36.72804
G1 X57.34 Y115.883 E36.75569
G1 X56.791 Y115.81 E36.77448
G1 X56.195 Y115.634 E36.79556
G1 X55.606 Y115.303 E36.81848
G1 X55.12 Y114.918 E36.83952
G1 X54.696 Y114.392 E36.86244
G1 X54.386 Y113.852 E36.88356
G1 X54.187 Y113.193 E36.90692
G1 X54.113 Y112.621 E36.92648
G1 X54.1 Y112.188 E36.94118
G1 X54.1 Y53.12 E38.94508
G1 X54.116 Y52.344 E38.97141
G1 X54.174 Y51.812 E38.98957
G1 X54.389 Y51.172 E39.01247
G1 X54.678 Y50.613 E39.03382
G1 X55.176 Y50.041 E39.05955
G0 F6000 X55.429 Y50.351
G1 F420 X55.808 Y50.042 E39.07614
G1 X56.273 Y49.775 E39.09433
G1 X56.85 Y49.578 E39.11502
G1 X57.428 Y49.51 E39.13476
G1 X57.81 Y49.5 E39.14772
G1 X176.838 Y49.5 E43.18579
G1 X177.611 Y49.514 E43.21202
G1 X178.096 Y49.574 E43.2286
G1 X178.651 Y49.738 E43.24823
G1 X179.146 Y50.011 E43.26741
G1 X179.597 Y50.368 E43.28692
G1 X179.957 Y50.807 E43.30618
G1 X180.244 Y51.307 E43.32574
G1 X180.416 Y51.858 E43.34532
G1 X180.49 Y52.428 E43.36482
G1 X180.5 Y52.81 E43.37779
G1 X180.5 Y111.806 E45.37925
G1 X180.486 Y112.609 E45.40649
G1 X180.426 Y113.095 E45.42311
G1 X180.264 Y113.644 E45.44252
G1 X179.99 Y114.144 E45.46187
G1 X179.631 Y114.599 E45.48153
G1 X179.128 Y115.001 E45.50337
G1 X178.686 Y115.247 E45.52054
G1 X178.072 Y115.431 E45.54228
G1 X177.572 Y115.49 E45.55936
G1 X177.19 Y115.5 E45.57232
G1 X58.162 Y115.5 E49.61039
G1 X57.389 Y115.486 E49.63662
G1 X56.904 Y115.426 E49.6532
G1 X56.349 Y115.262 E49.67283
G1 X55.854 Y114.989 E49.69201
G1 X55.403 Y114.632 E49.71152
G1 X55.043 Y114.193 E49.73078
G1 X54.756 Y113.693 E49.75034
G1 X54.584 Y113.142 E49.76992
G1 X54.51 Y112.57 E49.78949
G1 X54.5 Y112.178 E49.80279
G1 X54.5 Y53.128 E51.80609
G1 X54.514 Y52.388 E51.83119
G1 X54.568 Y51.895 E51.84802
G1 X54.744 Y51.356 E51.86726
G1 X55.011 Y50.84 E51.88697
G1 X55.429 Y50.351 E51.90879
G0 F6000 X55.686 Y50.658
G1 F420 X56.007 Y50.389 E51.923
G1 X56.437 Y50.142 E51.93982
G1 X56.941 Y49.97 E51.95789
G1 X57.438 Y49.91 E51.97487
G1 X57.82 Y49.9 E51.98784
G1 X176.831 Y49.9 E56.02532
G1 X177.567 Y49.912 E56.0503
G1 X177.983 Y49.958 E56.0645
G1 X178.495 Y50.109 E56.0826
G1 X178.898 Y50.325 E56.09812
G1 X179.317 Y50.657 E56.11625
G1 X179.61 Y51.006 E56.13171
G1 X179.875 Y51.468 E56.14978
G1 X180.034 Y51.977 E56.16787
G1 X180.09 Y52.438 E56.18363
G1 X180.1 Y52.82 E56.19659
G1 X180.1 Y111.8 E58.19751
G1 X180.088 Y112.565 E58.22346
G1 X180.042 Y112.982 E58.2377
G1 X179.892 Y113.491 E58.2557
G1 X179.676 Y113.896 E58.27127
G1 X179.345 Y114.315 E58.28938
G1 X178.933 Y114.652 E58.30744
G1 X178.531 Y114.876 E58.32305
G1 X178.024 Y115.034 E58.34107
G1 X177.562 Y115.09 E58.35686
G1 X177.18 Y115.1 E58.36982
G1 X58.169 Y115.1 E62.40731
G1 X57.433 Y115.088 E62.43228
G1 X57.017 Y115.042 E62.44648
G1 X56.505 Y114.891 E62.46459
G1 X56.102 Y114.675 E62.4801
G1 X55.683 Y114.343 E62.49824
G1 X55.39 Y113.994 E62.5137
G1 X55.125 Y113.532 E62.53177
G1 X54.966 Y113.023 E62.54986
G1 X54.91 Y112.56 E62.56568
G1 X54.9 Y112.168 E62.57898
G1 X54.9 Y53.135 E64.5817
G1 X54.912 Y52.432 E64.60555
G1 X54.962 Y51.978 E64.62105
G1 X55.099 Y51.54 E64.63662
G1 X55.344 Y51.067 E64.65469
G1 X55.686 Y50.658 E64.67277
G0 F6000 X55.943 Y50.965
G1 F420 X56.264 Y50.696 E64.68698
G1 X56.631 Y50.492 E64.70123
G1 X57.029 Y50.362 E64.71543
G1 X57.448 Y50.31 E64.72976
G1 X57.83 Y50.3 E64.74272
G1 X176.825 Y50.3 E68.77966
G1 X177.523 Y50.31 E68.80335
G1 X177.939 Y50.356 E68.81755
G1 X178.339 Y50.48 E68.83175
G1 X178.709 Y50.678 E68.84599
G1 X179.034 Y50.942 E68.86019
G1 X179.303 Y51.263 E68.8744
G1 X179.507 Y51.629 E68.88862
G1 X179.637 Y52.027 E68.90282
G1 X179.69 Y52.448 E68.91722
G1 X179.7 Y52.83 E68.93018
G1 X179.7 Y111.794 E70.93056
G1 X179.69 Y112.521 E70.95522
G1 X179.644 Y112.938 E70.96945
G1 X179.52 Y113.338 E70.98366
G1 X179.323 Y113.708 E70.99788
G1 X179.059 Y114.033 E71.01209
G1 X178.738 Y114.303 E71.02632
G1 X178.372 Y114.507 E71.04053
G1 X177.974 Y114.637 E71.05474
G1 X177.552 Y114.69 E71.06917
G1 X177.17 Y114.7 E71.08213
G1 X58.175 Y114.7 E75.11908
G1 X57.477 Y114.69 E75.14276
G1 X57.061 Y114.644 E75.15696
G1 X56.661 Y114.52 E75.17116
G1 X56.291 Y114.322 E75.1854
G1 X55.966 Y114.058 E75.19961
G1 X55.697 Y113.737 E75.21381
G1 X55.493 Y113.371 E75.22803
G1 X55.363 Y112.973 E75.24223
G1 X55.31 Y112.55 E75.2567
G1 X55.3 Y112.158 E75.27
G1 X55.3 Y53.141 E77.27217
G1 X55.31 Y52.476 E77.29473
G1 X55.356 Y52.059 E77.30897
G1 X55.481 Y51.659 E77.32318
G1 X55.679 Y51.29 E77.33739
G1 X55.943 Y50.965 E77.35159
G1 F3000 E71.35159
;MESH:Side-Panel-120x60mm.stl
G0 F6000 X56.835 Y52.924
G0 X63.325 Y69.266
;TYPE:WALL-OUTER
G1 F3000 E77.35159
G1 F420 X62.929 Y69.4 E77.36578
G1 X62.477 Y69.447 E77.38119
G1 X62.047 Y69.394 E77.39589
G1 X61.671 Y69.266 E77.40937
G1 X61.266 Y69.01 E77.42562
G1 X60.962 Y68.699 E77.44038
G1 X60.735 Y68.327 E77.45516
G1 X60.593 Y67.907 E77.4702
G1 X60.548 Y67.5 E77.48409
G1 X60.603 Y67.045 E77.49964
G1 X60.755 Y66.628 E77.5147
G1 X60.99 Y66.266 E77.52934
G1 X61.3 Y65.963 E77.54405
G1 X61.669 Y65.735 E77.55876
G1 X62.089 Y65.593 E77.5738
G1 X62.523 Y65.549 E77.5886
G1 X62.924 Y65.595 E77.6023
G1 X63.348 Y65.743 E77.61753
G1 X63.717 Y65.975 E77.63232
G1 X64.025 Y66.283 E77.6471
G1 X64.254 Y66.643 E77.66157
G1 X64.394 Y67.047 E77.67608
G1 X64.448 Y67.489 E77.69118
G1 X64.399 Y67.933 E77.70634
G1 X64.252 Y68.357 E77.72156
G1 X64.031 Y68.71 E77.73569
G1 X63.719 Y69.024 E77.75071
G1 X63.325 Y69.266 E77.76639
G1 F3000 E71.76639
G0 F6000 X63.557 Y69.937
G0 X65.105 Y82.5
G0 X65.04 Y83.078
G0 X64.848 Y83.63
G0 X64.536 Y84.123
G0 X64.302 Y84.357
G0 X63.557 Y84.937
G0 X63.325 Y84.266
G1 F3000 E77.76639
G1 F420 X62.929 Y84.4 E77.78058
G1 X62.477 Y84.447 E77.79599
G1 X62.047 Y84.394 E77.81069
G1 X61.671 Y84.266 E77.82417
G1 X61.266 Y84.01 E77.84042
G1 X60.962 Y83.699 E77.85517
G1 X60.735 Y83.327 E77.86996
G1 X60.593 Y82.907 E77.885
G1 X60.548 Y82.5 E77.89889
G1 X60.603 Y82.045 E77.91444
G1 X60.755 Y81.628 E77.9295
G1 X60.99 Y81.266 E77.94414
G1 X61.3 Y80.963 E77.95885
G1 X61.669 Y80.735 E77.97356
G1 X62.089 Y80.593 E77.9886
G1 X62.523 Y80.549 E78.0034
G1 X62.929 Y80.596 E78.01727
G1 X63.367 Y80.754 E78.03306
G1 X63.719 Y80.976 E78.04718
G1 X64.031 Y81.29 E78.0622
G1 X64.258 Y81.651 E78.07667
G1 X64.4 Y82.069 E78.09164
G1 X64.448 Y82.52 E78.10703
G1 X64.4 Y82.927 E78.12093
G1 X64.252 Y83.357 E78.13636
G1 X64.031 Y83.71 E78.15049
G1 X63.719 Y84.024 E78.16551
G1 X63.325 Y84.266 E78.18119
G1 F3000 E72.18119
G0 F6000 X63.557 Y84.937
G0 X65.105 Y97.5
G0 X65.04 Y98.078
G0 X64.848 Y98.63
G0 X64.567 Y99.074
G0 X63.726 Y99.858
G0 X63.347 Y99.257
G1 F3000 E78.18119
G1 F420 X62.924 Y99.401 E78.19635
G1 X62.477 Y99.447 E78.2116
G1 X62.047 Y99.394 E78.22629
G1 X61.671 Y99.266 E78.23977
G1 X61.266 Y99.01 E78.25602
G1 X60.962 Y98.699 E78.27078
G1 X60.735 Y98.327 E78.28556
G1 X60.593 Y97.907 E78.3006
G1 X60.548 Y97.5 E78.3145
G1 X60.603 Y97.045 E78.33004
G1 X60.755 Y96.628 E78.3451
G1 X60.99 Y96.266 E78.35974
G1 X61.3 Y95.963 E78.37445
G1 X61.669 Y95.735 E78.38916
G1 X62.089 Y95.593 E78.40421
G1 X62.523 Y95.549 E78.419
G1 X62.929 Y95.596 E78.43287
G1 X63.367 Y95.754 E78.44867
G1 X63.719 Y95.976 E78.46278
G1 X64.031 Y96.29 E78.4778
G1 X64.258 Y96.651 E78.49227
G1 X64.399 Y97.063 E78.50704
G1 X64.448 Y97.487 E78.52152
G1 X64.401 Y97.921 E78.53633
G1 X64.261 Y98.339 E78.55129
G1 X64.025 Y98.717 E78.5664
G1 X63.717 Y99.025 E78.58118
G1 X63.347 Y99.257 E78.596
G1 F3000 E72.596
G0 F6000 X63.726 Y99.858
G0 X128.943 Y91.45
G0 X128.76 Y90.762
G1 F3000 E78.596
G1 F420 X127.896 Y90.902 E78.62569
G1 X126.989 Y90.948 E78.6565
G1 X126.1 Y90.902 E78.6867
G1 X125.236 Y90.762 E78.7164
G1 X124.382 Y90.535 E78.74637
G1 X123.553 Y90.215 E78.77652
G1 X122.776 Y89.818 E78.80612
G1 X122.026 Y89.332 E78.83644
G1 X121.333 Y88.773 E78.86665
G1 X120.726 Y88.162 E78.89586
G1 X120.156 Y87.454 E78.9267
G1 X119.678 Y86.721 E78.95639
G1 X119.273 Y85.924 E78.98672
G1 X118.962 Y85.105 E79.01644
G1 X118.734 Y84.261 E79.0461
G1 X118.596 Y83.376 E79.07648
G1 X118.548 Y82.488 E79.10665
G1 X118.596 Y81.619 E79.13618
G1 X118.734 Y80.735 E79.16653
G1 X118.966 Y79.879 E79.19662
G1 X119.281 Y79.053 E79.22661
G1 X119.678 Y78.275 E79.25624
G1 X120.168 Y77.526 E79.28661
G1 X120.734 Y76.826 E79.31715
G1 X121.342 Y76.22 E79.34627
G1 X122.042 Y75.656 E79.37677
G1 X122.775 Y75.178 E79.40645
G1 X123.572 Y74.773 E79.43678
G1 X124.391 Y74.462 E79.4665
G1 X125.257 Y74.23 E79.49692
G1 X126.12 Y74.096 E79.52655
G1 X127.012 Y74.048 E79.55685
G1 X127.895 Y74.098 E79.58686
G1 X128.761 Y74.234 E79.6166
G1 X129.605 Y74.462 E79.64626
G1 X130.443 Y74.781 E79.67668
G1 X131.221 Y75.178 E79.70631
G1 X131.962 Y75.661 E79.73632
G1 X132.662 Y76.226 E79.76683
G1 X133.273 Y76.833 E79.79605
G1 X133.844 Y77.543 E79.82696
G1 X134.318 Y78.275 E79.85655
G1 X134.723 Y79.072 E79.88688
G1 X135.038 Y79.892 E79.91668
G1 X135.266 Y80.756 E79.94699
G1 X135.404 Y81.621 E79.97671
G1 X135.448 Y82.511 E80.00694
G1 X135.402 Y83.396 E80.037
G1 X135.262 Y84.26 E80.0667
G1 X135.035 Y85.114 E80.09668
G1 X134.715 Y85.943 E80.12682
G1 X134.318 Y86.721 E80.15645
G1 X133.832 Y87.47 E80.18674
G1 X133.273 Y88.162 E80.21692
G1 X132.662 Y88.774 E80.24626
G1 X131.961 Y89.339 E80.27681
G1 X131.211 Y89.823 E80.30709
G1 X130.424 Y90.223 E80.33704
G1 X129.604 Y90.538 E80.36684
G1 X128.76 Y90.762 E80.39646
G1 F3000 E74.39646
G0 F6000 X128.943 Y91.45
G0 X153 Y91.601
G0 X154.943 Y91.45
G0 X154.76 Y90.762
G1 F3000 E80.39646
G1 F420 X153.896 Y90.902 E80.42616
G1 X152.989 Y90.948 E80.45697
G1 X152.1 Y90.902 E80.48717
G1 X151.236 Y90.762 E80.51686
G1 X150.382 Y90.535 E80.54684
G1 X149.553 Y90.215 E80.57699
G1 X148.776 Y89.818 E80.60659
G1 X148.026 Y89.332 E80.63691
G1 X147.334 Y88.774 E80.66706
G1 X146.72 Y88.154 E80.69667
G1 X146.156 Y87.454 E80.72716
G1 X145.678 Y86.721 E80.75685
G1 X145.273 Y85.924 E80.78718
G1 X144.962 Y85.105 E80.8169
G1 X144.73 Y84.239 E80.84732
G1 X144.596 Y83.376 E80.87694
G1 X144.548 Y82.488 E80.90711
G1 X144.598 Y81.601 E80.93725
G1 X144.734 Y80.735 E80.96699
G1 X144.965 Y79.882 E80.99697
G1 X145.281 Y79.053 E81.02707
G1 X145.678 Y78.275 E81.0567
G1 X146.168 Y77.526 E81.08707
G1 X146.727 Y76.833 E81.11727
G1 X147.334 Y76.226 E81.1464
G1 X148.034 Y75.661 E81.17691
G1 X148.775 Y75.178 E81.20692
G1 X149.572 Y74.773 E81.23725
G1 X150.391 Y74.462 E81.26697
G1 X151.257 Y74.23 E81.29739
G1 X152.12 Y74.096 E81.32702
G1 X153.012 Y74.048 E81.35732
G1 X153.895 Y74.098 E81.38732
G1 X154.761 Y74.234 E81.41706
G1 X155.605 Y74.462 E81.44672
G1 X156.443 Y74.781 E81.47714
G1 X157.23 Y75.184 E81.50714
G1 X157.97 Y75.668 E81.53714
G1 X158.665 Y76.229 E81.56744
G1 X159.28 Y76.842 E81.5969
G1 X159.839 Y77.534 E81.62708
G1 X160.323 Y78.285 E81.65739
G1 X160.719 Y79.061 E81.68694
G1 X161.038 Y79.892 E81.71714
G1 X161.266 Y80.756 E81.74745
G1 X161.404 Y81.621 E81.77717
G1 X161.448 Y82.511 E81.8074
G1 X161.402 Y83.396 E81.83747
G1 X161.262 Y84.26 E81.86716
G1 X161.031 Y85.124 E81.8975
G1 X160.715 Y85.943 E81.92728
G1 X160.318 Y86.72 E81.95688
G1 X159.839 Y87.462 E81.98685
G1 X159.266 Y88.17 E82.01775
G1 X158.654 Y88.78 E82.04706
G1 X157.953 Y89.344 E82.07758
G1 X157.211 Y89.823 E82.10755
G1 X156.433 Y90.22 E82.13718
G1 X155.604 Y90.538 E82.1673
G1 X154.76 Y90.762 E82.19692
G1 F3000 E76.19692
G0 F6000 X154.943 Y91.45
G0 X173.557 Y84.937
G0 X173.325 Y84.266
G1 F3000 E82.19692
G1 F420 X172.949 Y84.394 E82.2104
G1 X172.523 Y84.447 E82.22496
G1 X172.067 Y84.4 E82.24051
G1 X171.647 Y84.256 E82.25558
G1 X171.273 Y84.017 E82.27063
G1 X170.962 Y83.699 E82.28572
G1 X170.739 Y83.339 E82.30009
G1 X170.598 Y82.936 E82.31458
G1 X170.548 Y82.511 E82.32909
G1 X170.598 Y82.06 E82.34449
G1 X170.739 Y81.657 E82.35897
G1 X170.972 Y81.286 E82.37383
G1 X171.273 Y80.983 E82.38832
G1 X171.647 Y80.744 E82.40338
G1 X172.067 Y80.596 E82.41849
