;FLAVOR:Marlin
;TIME:16385
;Filament used: 6.9678m
;Layer height: 0.16
;MINX:53.3
;MINY:83.3
;MINZ:0.2
;MAXX:181.7
;MAXY:151.7
;MAXZ:5.44
;TARGET_MACHINE.NAME:Creality Ender-3
;Generated with Cura_SteamEngine 5.11.0
M140 S80
M105
M190 S80
M104 S245
M105
M109 S245
; Ender 3 Custom Start G-code
G92 E0 ; Reset Extruder
G28 ; Home all axes
G1 Z2.0 F3000 ; Move Z Axis up little to prevent scratching of Heat Bed
G1 X0.1 Y20 Z0.3 F5000.0 ; Move to start position
G1 X0.1 Y200.0 Z0.3 F1500.0 E15 ; Draw the first line
G1 X0.4 Y200.0 Z0.3 F5000.0 ; Move to side a little
G1 X0.4 Y20 Z0.3 F1500.0 E30 ; Draw the second line
G92 E0 ; Reset Extruder
G1 Z2.0 F3000 ; Move Z Axis up little to prevent scratching of Heat Bed
G1 X5 Y20 Z0.3 F5000.0 ; Move over to prevent blob squish
M82 ;absolute extrusion mode
G92 E0
G92 E0
G1 F3000 E-6
;LAYER_COUNT:33
;LAYER:0
M107
G0 F6000 X55.211 Y84.001 Z0.2
;TYPE:SKIRT
G1 F3000 E0
G1 F420 X55.781 Y83.674 E0.02229
G1 X56.576 Y83.402 E0.0508
G1 X57.398 Y83.31 E0.07886
G1 X57.78 Y83.3 E0.09182
G1 X176.862 Y83.3 E4.13172
G1 X177.769 Y83.324 E4.1625
G1 X178.435 Y83.422 E4.18534
G1 X179.119 Y83.624 E4.20954
G1 X179.89 Y84.07 E4.23975
G1 X180.45 Y84.514 E4.264
G1 X180.998 Y85.21 E4.29405
G1 X181.357 Y85.834 E4.31847
G1 X181.607 Y86.706 E4.34925
G1 X181.687 Y87.353 E4.37136
G1 X181.7 Y87.776 E4.38572
G1 X181.7 Y146.828 E6.38908
G1 X181.679 Y147.721 E6.41938
G1 X181.578 Y148.434 E6.44381
G1 X181.379 Y149.112 E6.46779
G1 X180.966 Y149.838 E6.49612
G1 X180.484 Y150.456 E6.52271
G1 X179.711 Y151.051 E6.5558
G1 X179.156 Y151.359 E6.57734
G1 X178.343 Y151.596 E6.60607
G1 X177.602 Y151.69 E6.63141
G1 X177.22 Y151.7 E6.64437
G1 X58.138 Y151.7 E10.68427
G1 X57.231 Y151.676 E10.71505
G1 X56.565 Y151.578 E10.73789
G1 X55.881 Y151.376 E10.76208
G1 X55.11 Y150.93 E10.7923
G1 X54.55 Y150.486 E10.81655
G1 X54.002 Y149.79 E10.8466
G1 X53.643 Y149.166 E10.87102
G1 X53.393 Y148.294 E10.9018
G1 X53.313 Y147.645 E10.92398
G1 X53.3 Y147.212 E10.93868
G1 X53.3 Y88.103 E12.94397
G1 X53.32 Y87.257 E12.97268
G1 X53.388 Y86.641 E12.9937
G1 X53.679 Y85.804 E13.02377
G1 X54.014 Y85.155 E13.04854
G1 X54.572 Y84.515 E13.07735
G1 X55.211 Y84.001 E13.10517
G0 F6000 X55.41 Y84.348
G1 F420 X55.945 Y84.041 E13.1261
G1 X56.668 Y83.794 E13.15202
G1 X57.408 Y83.71 E13.17728
G1 X57.79 Y83.7 E13.19025
G1 X176.853 Y83.7 E17.2295
G1 X177.713 Y83.72 E17.25868
G1 X178.322 Y83.806 E17.27955
G1 X178.963 Y83.995 E17.30222
G1 X179.642 Y84.383 E17.32875
G1 X180.163 Y84.796 E17.35131
G1 X180.651 Y85.409 E17.37789
G1 X180.985 Y85.99 E17.40062
G1 X181.21 Y86.756 E17.42771
G1 X181.287 Y87.365 E17.44853
G1 X181.3 Y87.788 E17.46289
G1 X181.3 Y146.82 E19.46557
G1 X181.283 Y147.667 E19.49431
G1 X181.194 Y148.321 E19.5167
G1 X181.008 Y148.954 E19.53908
G1 X180.618 Y149.64 E19.56586
G1 X180.201 Y150.169 E19.58871
G1 X179.517 Y150.701 E19.6181
G1 X179 Y150.988 E19.63817
G1 X178.231 Y151.212 E19.66534
G1 X177.592 Y151.29 E19.68718
G1 X177.21 Y151.3 E19.70014
G1 X58.147 Y151.3 E23.73939
G1 X57.287 Y151.28 E23.76858
G1 X56.678 Y151.194 E23.78944
G1 X56.037 Y151.005 E23.81211
G1 X55.358 Y150.617 E23.83865
G1 X54.837 Y150.204 E23.8612
G1 X54.349 Y149.591 E23.88778
G1 X54.015 Y149.01 E23.91052
G1 X53.79 Y148.244 E23.9376
G1 X53.713 Y147.633 E23.95849
G1 X53.7 Y147.2 E23.97319
G1 X53.7 Y88.112 E25.97777
G1 X53.718 Y87.301 E26.00529
G1 X53.781 Y86.727 E26.02488
G1 X54.034 Y85.988 E26.05138
G1 X54.346 Y85.384 E26.07444
G1 X54.874 Y84.778 E26.10171
G1 X55.41 Y84.348 E26.12502
G0 F6000 X55.609 Y84.695
G1 F420 X56.109 Y84.408 E26.14458
G1 X56.759 Y84.186 E26.16788
G1 X57.418 Y84.11 E26.19039
G1 X57.8 Y84.1 E26.20335
G1 X176.845 Y84.1 E30.242
G1 X177.66 Y84.117 E30.26965
G1 X178.209 Y84.19 E30.28844
G1 X178.805 Y84.366 E30.30952
G1 X179.394 Y84.697 E30.33244
G1 X179.88 Y85.082 E30.35348
G1 X180.304 Y85.608 E30.3764
G1 X180.614 Y86.148 E30.39752
G1 X180.813 Y86.807 E30.42088
G1 X180.887 Y87.377 E30.44038
G1 X180.9 Y87.8 E30.45473
G1 X180.9 Y146.813 E32.45677
G1 X180.886 Y147.616 E32.48401
G1 X180.81 Y148.208 E32.50426
G1 X180.636 Y148.799 E32.52516
G1 X180.304 Y149.392 E32.54822
G1 X179.917 Y149.883 E32.56943
G1 X179.323 Y150.351 E32.59508
G1 X178.844 Y150.617 E32.61367
G1 X178.119 Y150.828 E32.63929
G1 X177.582 Y150.89 E32.65763
G1 X177.2 Y150.9 E32.67059
G1 X58.155 Y150.9 E36.70923
G1 X57.34 Y150.883 E36.73689
G1 X56.791 Y150.81 E36.75568
G1 X56.195 Y150.634 E36.77676
G1 X55.606 Y150.303 E36.79968
G1 X55.12 Y149.918 E36.82072
G1 X54.696 Y149.392 E36.84364
G1 X54.386 Y148.852 E36.86476
G1 X54.187 Y148.193 E36.88811
G1 X54.113 Y147.621 E36.90768
G1 X54.1 Y147.188 E36.92238
G1 X54.1 Y88.12 E38.92628
G1 X54.116 Y87.344 E38.95261
G1 X54.174 Y86.812 E38.97077
G1 X54.389 Y86.172 E38.99367
G1 X54.678 Y85.613 E39.01502
G1 X55.176 Y85.041 E39.04075
G1 X55.609 Y84.695 E39.05955
G0 F6000 X55.808 Y85.042
G1 F420 X56.273 Y84.775 E39.07774
G1 X56.85 Y84.578 E39.09843
G1 X57.428 Y84.51 E39.11817
G1 X57.81 Y84.5 E39.13113
G1 X176.838 Y84.5 E43.1692
G1 X177.611 Y84.514 E43.19543
G1 X178.096 Y84.574 E43.21201
G1 X178.651 Y84.738 E43.23164
G1 X179.146 Y85.011 E43.25082
G1 X179.597 Y85.368 E43.27033
G1 X179.957 Y85.807 E43.28959
G1 X180.244 Y86.307 E43.30915
G1 X180.416 Y86.858 E43.32873
G1 X180.49 Y87.428 E43.34823
G1 X180.5 Y87.81 E43.3612
G1 X180.5 Y146.806 E45.36266
G1 X180.486 Y147.609 E45.3899
G1 X180.426 Y148.095 E45.40652
G1 X180.264 Y148.644 E45.42593
G1 X179.99 Y149.144 E45.44528
G1 X179.631 Y149.599 E45.46494
G1 X179.128 Y150.001 E45.48678
G1 X178.686 Y150.247 E45.50395
G1 X178.072 Y150.431 E45.52569
G1 X177.572 Y150.49 E45.54277
G1 X177.19 Y150.5 E45.55574
G1 X58.162 Y150.5 E49.5938
G1 X57.389 Y150.486 E49.62003
G1 X56.904 Y150.426 E49.63661
G1 X56.349 Y150.262 E49.65624
G1 X55.854 Y149.989 E49.67542
G1 X55.403 Y149.632 E49.69493
G1 X55.043 Y149.193 E49.71419
G1 X54.756 Y148.693 E49.73375
G1 X54.584 Y148.142 E49.75333
G1 X54.51 Y147.57 E49.7729
G1 X54.5 Y147.178 E49.7862
G1 X54.5 Y88.128 E51.7895
G1 X54.514 Y87.388 E51.8146
G1 X54.568 Y86.895 E51.83143
G1 X54.744 Y86.356 E51.85067
G1 X55.011 Y85.84 E51.87038
G1 X55.429 Y85.351 E51.8922
G1 X55.808 Y85.042 E51.90879
G0 F6000 X56.007 Y85.389
G1 F420 X56.437 Y85.142 E51.92561
G1 X56.941 Y84.97 E51.94368
G1 X57.438 Y84.91 E51.96066
G1 X57.82 Y84.9 E51.97363
G1 X176.831 Y84.9 E56.01112
G1 X177.567 Y84.912 E56.03609
G1 X177.983 Y84.958 E56.05029
G1 X178.495 Y85.109 E56.0684
G1 X178.898 Y85.325 E56.08391
G1 X179.317 Y85.657 E56.10204
G1 X179.61 Y86.006 E56.1175
G1 X179.875 Y86.468 E56.13557
G1 X180.034 Y86.977 E56.15366
G1 X180.09 Y87.438 E56.16942
G1 X180.1 Y87.82 E56.18238
G1 X180.1 Y146.8 E58.1833
G1 X180.088 Y147.565 E58.20925
G1 X180.042 Y147.982 E58.22349
G1 X179.892 Y148.491 E58.24149
G1 X179.676 Y148.896 E58.25706
G1 X179.345 Y149.315 E58.27518
G1 X178.933 Y149.652 E58.29323
G1 X178.531 Y149.876 E58.30885
G1 X178.024 Y150.034 E58.32686
G1 X177.562 Y150.09 E58.34265
G1 X177.18 Y150.1 E58.35561
G1 X58.169 Y150.1 E62.3931
G1 X57.433 Y150.088 E62.41807
G1 X57.017 Y150.042 E62.43227
G1 X56.505 Y149.891 E62.45038
G1 X56.102 Y149.675 E62.46589
G1 X55.683 Y149.343 E62.48403
G1 X55.39 Y148.994 E62.49949
G1 X55.125 Y148.532 E62.51756
G1 X54.966 Y148.023 E62.53565
G1 X54.91 Y147.56 E62.55147
G1 X54.9 Y147.168 E62.56478
G1 X54.9 Y88.135 E64.56749
G1 X54.912 Y87.432 E64.59134
G1 X54.962 Y86.978 E64.60684
G1 X55.099 Y86.54 E64.62241
G1 X55.344 Y86.067 E64.64048
G1 X55.686 Y85.658 E64.65857
G1 X56.007 Y85.389 E64.67277
G0 F6000 X56.264 Y85.696
G1 F420 X56.631 Y85.492 E64.68702
G1 X57.029 Y85.362 E64.70122
G1 X57.448 Y85.31 E64.71555
G1 X57.83 Y85.3 E64.72851
G1 X176.825 Y85.3 E68.76546
G1 X177.523 Y85.31 E68.78914
G1 X177.939 Y85.356 E68.80334
G1 X178.339 Y85.48 E68.81754
G1 X178.709 Y85.678 E68.83178
G1 X179.034 Y85.942 E68.84599
G1 X179.303 Y86.263 E68.86019
G1 X179.507 Y86.629 E68.87441
G1 X179.637 Y87.027 E68.88861
G1 X179.69 Y87.448 E68.90301
G1 X179.7 Y87.83 E68.91597
G1 X179.7 Y146.794 E70.91635
G1 X179.69 Y147.521 E70.94101
G1 X179.644 Y147.938 E70.95525
G1 X179.52 Y148.338 E70.96945
G1 X179.323 Y148.708 E70.98367
G1 X179.059 Y149.033 E70.99788
G1 X178.738 Y149.303 E71.01211
G1 X178.372 Y149.507 E71.02632
G1 X177.974 Y149.637 E71.04053
G1 X177.552 Y149.69 E71.05496
G1 X177.17 Y149.7 E71.06792
G1 X58.175 Y149.7 E75.10487
G1 X57.477 Y149.69 E75.12855
G1 X57.061 Y149.644 E75.14275
G1 X56.661 Y149.52 E75.15696
G1 X56.291 Y149.322 E75.17119
G1 X55.966 Y149.058 E75.1854
G1 X55.697 Y148.737 E75.19961
G1 X55.493 Y148.371 E75.21382
G1 X55.363 Y147.973 E75.22802
G1 X55.31 Y147.55 E75.24249
G1 X55.3 Y147.158 E75.25579
G1 X55.3 Y88.141 E77.25796
G1 X55.31 Y87.476 E77.28052
G1 X55.356 Y87.059 E77.29476
G1 X55.481 Y86.659 E77.30897
G1 X55.679 Y86.29 E77.32318
G1 X55.943 Y85.965 E77.33739
G1 X56.264 Y85.696 E77.35159
G1 F3000 E71.35159
;MESH:Side-Panel-120x60mm.stl
G0 F6000 X57.924 Y86.835
G0 X63.192 Y104.323
;TYPE:WALL-OUTER
G1 F3000 E77.35159
G1 F420 X62.747 Y104.434 E77.36715
G1 X62.24 Y104.431 E77.38435
G1 X61.781 Y104.313 E77.40043
G1 X61.413 Y104.117 E77.41458
G1 X61.023 Y103.77 E77.43229
G1 X60.787 Y103.426 E77.44644
G1 X60.601 Y102.941 E77.46406
G1 X60.548 Y102.5 E77.47913
G1 X60.613 Y102.008 E77.49597
G1 X60.787 Y101.57 E77.51196
G1 X61.055 Y101.19 E77.52773
G1 X61.415 Y100.878 E77.54389
G1 X61.783 Y100.686 E77.55797
G1 X62.239 Y100.566 E77.57397
G1 X62.736 Y100.561 E77.59083
G1 X63.192 Y100.677 E77.6068
G1 X63.607 Y100.891 E77.62264
G1 X63.959 Y101.207 E77.63868
G1 X64.23 Y101.599 E77.65485
G1 X64.389 Y102.025 E77.67028
G1 X64.448 Y102.486 E77.68604
G1 X64.39 Y102.966 E77.70245
G1 X64.226 Y103.404 E77.71831
G1 X63.96 Y103.787 E77.73413
G1 X63.609 Y104.103 E77.75016
G1 X63.192 Y104.323 E77.76615
G1 F3000 E71.76615
G0 F6000 X63.361 Y105.014
G0 X65.106 Y117.5
G0 X65.029 Y118.123
G0 X64.808 Y118.71
G0 X64.449 Y119.227
G0 X64.183 Y119.463
G0 X63.361 Y120.014
G0 X63.192 Y119.323
G1 F3000 E77.76615
G1 F420 X62.747 Y119.434 E77.78171
G1 X62.24 Y119.431 E77.79891
G1 X61.781 Y119.313 E77.81499
G1 X61.413 Y119.117 E77.82913
G1 X61.023 Y118.77 E77.84684
G1 X60.787 Y118.426 E77.861
G1 X60.601 Y117.941 E77.87862
G1 X60.548 Y117.5 E77.89369
G1 X60.613 Y117.008 E77.91052
G1 X60.787 Y116.57 E77.92651
G1 X61.055 Y116.19 E77.94229
G1 X61.415 Y115.878 E77.95845
G1 X61.783 Y115.686 E77.97253
G1 X62.239 Y115.566 E77.98853
G1 X62.747 Y115.562 E78.00576
G1 X63.192 Y115.677 E78.02136
G1 X63.598 Y115.886 E78.03685
G1 X63.952 Y116.2 E78.0529
G1 X64.236 Y116.613 E78.0699
G1 X64.392 Y117.036 E78.0852
G1 X64.448 Y117.52 E78.10173
G1 X64.392 Y117.96 E78.11678
G1 X64.226 Y118.404 E78.13286
G1 X63.96 Y118.787 E78.14868
G1 X63.609 Y119.103 E78.1647
G1 X63.192 Y119.323 E78.18069
G1 F3000 E72.18069
G0 F6000 X63.361 Y120.014
G0 X65.106 Y132.5
G0 X65.029 Y133.123
G0 X64.808 Y133.71
G0 X64.449 Y134.227
G0 X64.183 Y134.463
G0 X63.361 Y135.014
G0 X63.192 Y134.323
G1 F3000 E78.18069
G1 F420 X62.736 Y134.435 E78.19662
G1 X62.24 Y134.431 E78.21345
G1 X61.781 Y134.313 E78.22953
G1 X61.413 Y134.117 E78.24368
G1 X61.023 Y133.77 E78.26138
G1 X60.787 Y133.426 E78.27554
G1 X60.601 Y132.941 E78.29316
G1 X60.548 Y132.5 E78.30823
G1 X60.613 Y132.008 E78.32506
G1 X60.787 Y131.57 E78.34105
G1 X61.055 Y131.19 E78.35683
G1 X61.415 Y130.878 E78.37299
G1 X61.783 Y130.686 E78.38707
G1 X62.239 Y130.566 E78.40307
G1 X62.747 Y130.562 E78.4203
G1 X63.192 Y130.677 E78.4359
G1 X63.598 Y130.886 E78.45139
G1 X63.952 Y131.2 E78.46744
G1 X64.236 Y131.613 E78.48445
G1 X64.394 Y132.046 E78.50008
G1 X64.448 Y132.484 E78.51505
G1 X64.393 Y132.956 E78.53118
G1 X64.23 Y133.397 E78.54713
G1 X63.959 Y133.789 E78.56329
G1 X63.607 Y134.104 E78.57932
G1 X63.192 Y134.323 E78.59524
G1 F3000 E72.59524
G0 F6000 X63.361 Y135.014
G0 X127.975 Y126.606
G0 X127.936 Y125.896
G1 F3000 E78.59524
G1 F420 X126.988 Y125.948 E78.62745
G1 X126.042 Y125.894 E78.65959
G1 X125.13 Y125.738 E78.69098
G1 X124.199 Y125.473 E78.72382
G1 X123.322 Y125.107 E78.75606
G1 X122.492 Y124.644 E78.7883
G1 X121.731 Y124.105 E78.81994
G1 X121.022 Y123.474 E78.85214
G1 X120.391 Y122.765 E78.88434
G1 X119.846 Y121.999 E78.91623
G1 X119.379 Y121.153 E78.94902
G1 X119.019 Y120.28 E78.98105
G1 X118.757 Y119.377 E79.01295
G1 X118.6 Y118.44 E79.04518
G1 X118.548 Y117.488 E79.07753
G1 X118.602 Y116.542 E79.10967
G1 X118.763 Y115.608 E79.14182
G1 X119.027 Y114.699 E79.17394
G1 X119.385 Y113.829 E79.20585
G1 X119.852 Y112.992 E79.23837
G1 X120.391 Y112.231 E79.27001
G1 X121.022 Y111.522 E79.30221
G1 X121.74 Y110.884 E79.33479
G1 X122.501 Y110.346 E79.36641
G1 X123.333 Y109.883 E79.39871
G1 X124.22 Y109.519 E79.43124
G1 X125.13 Y109.258 E79.46335
G1 X126.064 Y109.1 E79.49549
G1 X127.012 Y109.048 E79.5277
G1 X127.958 Y109.102 E79.55985
G1 X128.888 Y109.263 E79.59187
G1 X129.78 Y109.519 E79.62335
G1 X130.663 Y109.883 E79.65575
G1 X131.499 Y110.346 E79.68817
G1 X132.267 Y110.892 E79.72014
G1 X132.982 Y111.531 E79.75267
G1 X133.612 Y112.24 E79.78485
G1 X134.15 Y113.001 E79.81647
G1 X134.617 Y113.843 E79.84913
G1 X134.981 Y114.721 E79.88137
G1 X135.238 Y115.63 E79.91342
G1 X135.396 Y116.564 E79.94556
G1 X135.448 Y117.512 E79.97777
G1 X135.394 Y118.454 E80.00978
G1 X135.24 Y119.373 E80.04139
G1 X134.977 Y120.291 E80.07379
G1 X134.612 Y121.164 E80.10589
G1 X134.15 Y121.999 E80.13826
G1 X133.605 Y122.766 E80.17018
G1 X132.965 Y123.482 E80.20276
G1 X132.261 Y124.108 E80.23472
G1 X131.499 Y124.65 E80.26645
G1 X130.654 Y125.117 E80.2992
G1 X129.779 Y125.481 E80.33135
G1 X128.866 Y125.738 E80.36353
G1 X127.936 Y125.896 E80.39553
G1 F3000 E74.39553
G0 F6000 X127.975 Y126.606
G0 X153.975 Y126.606
G0 X153.936 Y125.896
G1 F3000 E80.39553
G1 F420 X152.988 Y125.948 E80.42774
G1 X152.042 Y125.894 E80.45989
G1 X151.13 Y125.738 E80.49128
G1 X150.199 Y125.473 E80.52411
G1 X149.322 Y125.107 E80.55635
G1 X148.492 Y124.644 E80.5886
G1 X147.729 Y124.104 E80.62031
G1 X147.014 Y123.465 E80.65284
G1 X146.391 Y122.766 E80.68461
G1 X145.846 Y121.999 E80.71653
G1 X145.379 Y121.153 E80.74931
G1 X145.019 Y120.28 E80.78135
G1 X144.756 Y119.373 E80.81338
G1 X144.6 Y118.432 E80.84574
G1 X144.548 Y117.488 E80.87782
G1 X144.602 Y116.542 E80.90996
G1 X144.76 Y115.619 E80.94173
G1 X145.023 Y114.709 E80.97387
G1 X145.389 Y113.822 E81.00642
G1 X145.852 Y112.992 E81.03866
G1 X146.391 Y112.231 E81.0703
G1 X147.031 Y111.514 E81.10291
G1 X147.74 Y110.884 E81.13508
G1 X148.501 Y110.346 E81.1667
G1 X149.333 Y109.883 E81.199
G1 X150.22 Y109.519 E81.23153
G1 X151.13 Y109.258 E81.26365
G1 X152.064 Y109.1 E81.29578
G1 X153.012 Y109.048 E81.32799
G1 X153.958 Y109.102 E81.36014
G1 X154.888 Y109.263 E81.39216
G1 X155.798 Y109.525 E81.42428
G1 X156.673 Y109.889 E81.45643
G1 X157.508 Y110.353 E81.48884
G1 X158.265 Y110.891 E81.52035
G1 X158.974 Y111.522 E81.55255
G1 X159.612 Y112.24 E81.58513
G1 X160.155 Y113.01 E81.6171
G1 X160.617 Y113.843 E81.64941
G1 X160.981 Y114.721 E81.68166
G1 X161.236 Y115.619 E81.71333
G1 X161.396 Y116.564 E81.74584
G1 X161.448 Y117.512 E81.77805
G1 X161.394 Y118.454 E81.81006
G1 X161.24 Y119.373 E81.84167
G1 X160.973 Y120.302 E81.87447
G1 X160.617 Y121.155 E81.90582
G1 X160.147 Y122.003 E81.93872
G1 X159.605 Y122.765 E81.97044
G1 X158.982 Y123.465 E82.00223
G1 X158.265 Y124.105 E82.03484
G1 X157.498 Y124.65 E82.06676
G1 X156.654 Y125.117 E82.09948
G1 X155.795 Y125.476 E82.13107
G1 X154.866 Y125.738 E82.16381
G1 X153.936 Y125.896 E82.19581
G1 F3000 E76.19581
G0 F6000 X153.975 Y126.606
G0 X155.62 Y126.188
G0 X173.336 Y120.02
G0 X173.168 Y119.331
G1 F3000 E82.19581
G1 F420 X172.76 Y119.431 E82.21007
G1 X172.254 Y119.434 E82.22723
G1 X171.803 Y119.323 E82.24299
G1 X171.399 Y119.109 E82.2585
G1 X171.034 Y118.785 E82.27506
G1 X170.769 Y118.395 E82.29105
G1 X170.607 Y117.97 E82.30648
G1 X170.548 Y117.512 E82.32215
G1 X170.604 Y117.036 E82.33841
G1 X170.774 Y116.591 E82.35457
G1 X171.034 Y116.212 E82.37016
G1 X171.387 Y115.896 E82.38623
G1 X171.803 Y115.677 E82.40218
G1 X172.254 Y115.562 E82.41797
G1 X172.762 Y115.566 E82.43521
G1 X173.212 Y115.686 E82.45101
G1 X173.626 Y115.907 E82.46693
G1 X173.973 Y116.225 E82.4829
G1 X174.236 Y116.613 E82.4988
G1 X174.395 Y117.055 E82.51473
