;FLAVOR:Marlin
;TIME:11253
;Filament used: 6.09432m
;Layer height: 0.16
;MINX:50.3
;MINY:85.3
;MINZ:0.2
;MAXX:183.7
;MAXY:138.7
;MAXZ:4.8
;TARGET_MACHINE.NAME:Creality Ender-3
;Generated with Cura_SteamEngine 5.11.0
M140 S80
M105
M190 S80
M104 S245
M105
M109 S245
; Ender 3 Custom Start G-code
G92 E0 ; Reset Extruder
G28 ; Home all axes
G1 Z2.0 F3000 ; Move Z Axis up little to prevent scratching of Heat Bed
G1 X0.1 Y20 Z0.3 F5000.0 ; Move to start position
G1 X0.1 Y200.0 Z0.3 F1500.0 E15 ; Draw the first line
G1 X0.4 Y200.0 Z0.3 F5000.0 ; Move to side a little
G1 X0.4 Y20 Z0.3 F1500.0 E30 ; Draw the second line
G92 E0 ; Reset Extruder
G1 Z2.0 F3000 ; Move Z Axis up little to prevent scratching of Heat Bed
G1 X5 Y20 Z0.3 F5000.0 ; Move over to prevent blob squish
M82 ;absolute extrusion mode
G92 E0
G92 E0
G1 F3000 E-6
;LAYER_COUNT:24
;LAYER:0
M107
G0 F6000 X52.695 Y86.141 Z0.2
;TYPE:SKIRT
G1 F3000 E0
G1 F480 X53.3 Y85.808 E0.02343
G1 X54.187 Y85.484 E0.05546
G1 X54.875 Y85.349 E0.07925
G1 X55.367 Y85.31 E0.09599
G1 X55.74 Y85.301 E0.10865
G1 X177.872 Y85.3 E4.25202
G1 X178.64 Y85.314 E4.27808
G1 X179.56 Y85.425 E4.30952
G1 X180.279 Y85.631 E4.33489
G1 X180.957 Y85.936 E4.36011
G1 X181.589 Y86.34 E4.38556
G1 X182.214 Y86.888 E4.41376
G1 X182.821 Y87.641 E4.44657
G1 X183.22 Y88.362 E4.47453
G1 X183.514 Y89.187 E4.50424
G1 X183.658 Y89.931 E4.52995
G1 X183.69 Y90.367 E4.54478
G1 X183.699 Y90.74 E4.55744
G1 X183.7 Y132.84 E5.9857
G1 X183.686 Y133.638 E6.01277
G1 X183.575 Y134.559 E6.04424
G1 X183.408 Y135.167 E6.06563
G1 X182.991 Y136.088 E6.09993
G1 X182.604 Y136.663 E6.12345
G1 X181.959 Y137.358 E6.15561
G1 X181.369 Y137.814 E6.18091
G1 X180.712 Y138.188 E6.20656
G1 X179.887 Y138.495 E6.23642
G1 X179.127 Y138.65 E6.26274
G1 X178.633 Y138.69 E6.27955
G1 X178.265 Y138.698 E6.29204
G1 X56.128 Y138.7 E10.43558
G1 X55.36 Y138.686 E10.46164
G1 X54.44 Y138.575 E10.49307
G1 X53.721 Y138.369 E10.51845
G1 X53.043 Y138.064 E10.54367
G1 X52.411 Y137.66 E10.56912
G1 X51.786 Y137.112 E10.59731
G1 X51.142 Y136.303 E10.63239
G1 X50.78 Y135.639 E10.65805
G1 X50.486 Y134.817 E10.68767
G1 X50.349 Y134.124 E10.71163
G1 X50.31 Y133.628 E10.72851
G1 X50.301 Y133.245 E10.74151
G1 X50.3 Y91.091 E12.1716
G1 X50.314 Y90.355 E12.19657
G1 X50.424 Y89.444 E12.2277
G1 X50.589 Y88.839 E12.24898
G1 X50.945 Y88.03 E12.27896
G1 X51.441 Y87.28 E12.30947
G1 X52 Y86.68 E12.33729
G1 X52.695 Y86.141 E12.36712
G0 F6000 X52.89 Y86.49
G1 F480 X53.439 Y86.183 E12.38846
G1 X54.265 Y85.876 E12.41836
G1 X54.907 Y85.748 E12.44057
G1 X55.377 Y85.71 E12.45656
G1 X55.74 Y85.701 E12.46888
G1 X177.865 Y85.7 E16.61202
G1 X178.633 Y85.714 E16.63807
G1 X179.452 Y85.81 E16.66605
G1 X180.115 Y85.996 E16.68941
G1 X180.793 Y86.301 E16.71463
G1 X181.325 Y86.641 E16.73605
G1 X181.95 Y87.189 E16.76425
G1 X182.508 Y87.89 E16.79465
G1 X182.844 Y88.498 E16.81821
G1 X183.122 Y89.264 E16.84586
G1 X183.259 Y89.961 E16.86996
G1 X183.29 Y90.377 E16.88411
G1 X183.299 Y90.74 E16.89643
G1 X183.3 Y132.833 E18.32445
G1 X183.286 Y133.631 E18.35152
G1 X183.189 Y134.453 E18.3796
G1 X183.022 Y135.061 E18.40099
G1 X182.657 Y135.867 E18.43101
G1 X182.309 Y136.393 E18.45241
G1 X181.713 Y137.043 E18.48233
G1 X181.171 Y137.466 E18.50565
G1 X180.514 Y137.84 E18.5313
G1 X179.806 Y138.103 E18.55692
G1 X179.094 Y138.251 E18.58159
G1 X178.623 Y138.29 E18.59763
G1 X178.26 Y138.299 E18.60994
G1 X56.135 Y138.3 E22.75308
G1 X55.367 Y138.286 E22.77914
G1 X54.548 Y138.19 E22.80711
G1 X53.885 Y138.004 E22.83047
G1 X53.207 Y137.699 E22.85569
G1 X52.675 Y137.359 E22.87711
G1 X52.05 Y136.811 E22.90531
G1 X51.492 Y136.11 E22.93571
G1 X51.156 Y135.502 E22.95927
G1 X50.878 Y134.738 E22.98686
G1 X50.748 Y134.092 E23.00921
G1 X50.71 Y133.618 E23.02534
G1 X50.701 Y133.245 E23.038
G1 X50.7 Y91.099 E24.46782
G1 X50.714 Y90.363 E24.49279
G1 X50.81 Y89.549 E24.5206
G1 X50.975 Y88.944 E24.54187
G1 X51.28 Y88.249 E24.56762
G1 X51.734 Y87.553 E24.59581
G1 X52.293 Y86.953 E24.62363
G1 X52.89 Y86.49 E24.64926
G0 F6000 X53.088 Y86.838
G1 F480 X53.581 Y86.557 E24.66852
G1 X54.345 Y86.268 E24.69623
G1 X54.94 Y86.147 E24.71683
G1 X55.387 Y86.11 E24.73204
G1 X55.74 Y86.101 E24.74402
G1 X177.858 Y86.1 E28.88692
G1 X178.626 Y86.114 E28.91297
G1 X179.346 Y86.196 E28.93756
G1 X179.953 Y86.362 E28.95891
G1 X180.58 Y86.64 E28.98218
G1 X181.061 Y86.942 E29.00144
G1 X181.686 Y87.49 E29.02964
G1 X182.159 Y88.086 E29.05546
G1 X182.469 Y88.637 E29.0769
G1 X182.73 Y89.343 E29.10244
G1 X182.86 Y89.991 E29.12486
G1 X182.89 Y90.387 E29.13834
G1 X182.899 Y90.74 E29.15031
G1 X182.9 Y132.826 E30.5781
G1 X182.886 Y133.624 E30.60517
G1 X182.803 Y134.347 E30.62986
G1 X182.636 Y134.955 E30.65125
G1 X182.323 Y135.646 E30.67699
G1 X181.975 Y136.172 E30.69838
G1 X181.465 Y136.729 E30.72401
G1 X180.973 Y137.118 E30.74528
G1 X180.316 Y137.492 E30.77093
G1 X179.725 Y137.711 E30.79231
G1 X179.013 Y137.859 E30.81698
G1 X178.613 Y137.89 E30.8306
G1 X178.26 Y137.899 E30.84257
G1 X56.142 Y137.9 E34.98547
G1 X55.374 Y137.886 E35.01153
G1 X54.654 Y137.804 E35.03611
G1 X54.047 Y137.638 E35.05746
G1 X53.42 Y137.36 E35.08073
G1 X52.939 Y137.058 E35.1
G1 X52.314 Y136.51 E35.1282
G1 X51.841 Y135.914 E35.15401
G1 X51.531 Y135.363 E35.17546
G1 X51.27 Y134.657 E35.20099
G1 X51.147 Y134.059 E35.22171
G1 X51.11 Y133.608 E35.23706
G1 X51.101 Y133.245 E35.24938
G1 X51.1 Y91.107 E36.67892
G1 X51.114 Y90.371 E36.7039
G1 X51.197 Y89.652 E36.72845
G1 X51.343 Y89.102 E36.74775
G1 X51.615 Y88.468 E36.77116
G1 X52.069 Y87.772 E36.79935
G1 X52.54 Y87.268 E36.82275
G1 X53.088 Y86.838 E36.84638
G0 F6000 X53.286 Y87.186
G1 F480 X53.779 Y86.905 E36.86564
G1 X54.427 Y86.66 E36.88914
G1 X54.974 Y86.546 E36.90809
G1 X55.398 Y86.51 E36.92253
G1 X55.74 Y86.501 E36.93414
G1 X177.851 Y86.5 E41.07679
G1 X178.583 Y86.512 E41.10163
G1 X179.243 Y86.583 E41.12415
G1 X179.793 Y86.729 E41.14346
G1 X180.367 Y86.979 E41.1647
G1 X180.848 Y87.281 E41.18396
G1 X181.42 Y87.789 E41.20992
G1 X181.81 Y88.282 E41.23124
G1 X182.12 Y88.833 E41.25269
G1 X182.338 Y89.424 E41.27406
G1 X182.461 Y90.022 E41.29477
G1 X182.49 Y90.398 E41.30757
G1 X182.499 Y90.74 E41.31917
G1 X182.5 Y132.82 E42.74675
G1 X182.488 Y133.581 E42.77257
G1 X182.417 Y134.241 E42.79509
G1 X182.25 Y134.849 E42.81648
G1 X181.989 Y135.425 E42.83794
G1 X181.641 Y135.951 E42.85933
G1 X181.215 Y136.417 E42.88075
G1 X180.773 Y136.772 E42.89998
G1 X180.174 Y137.118 E42.92345
G1 X179.642 Y137.32 E42.94276
G1 X178.981 Y137.46 E42.96568
G1 X178.602 Y137.49 E42.97858
G1 X178.26 Y137.499 E42.99018
G1 X56.149 Y137.5 E47.13284
G1 X55.417 Y137.488 E47.15768
G1 X54.757 Y137.417 E47.1802
G1 X54.207 Y137.271 E47.1995
G1 X53.633 Y137.021 E47.22074
G1 X53.152 Y136.719 E47.24001
G1 X52.58 Y136.211 E47.26596
G1 X52.19 Y135.718 E47.28729
G1 X51.88 Y135.167 E47.30874
G1 X51.662 Y134.576 E47.33011
G1 X51.539 Y133.978 E47.35082
G1 X51.51 Y133.598 E47.36375
G1 X51.501 Y133.245 E47.37573
G1 X51.5 Y91.114 E48.80504
G1 X51.512 Y90.414 E48.82879
G1 X51.584 Y89.755 E48.85128
G1 X51.73 Y89.205 E48.87058
G1 X51.952 Y88.684 E48.8898
G1 X52.363 Y88.043 E48.91563
G1 X52.789 Y87.581 E48.93695
G1 X53.286 Y87.186 E48.95849
G0 F6000 X53.484 Y87.534
G1 F480 X53.977 Y87.253 E48.97774
G1 X54.509 Y87.052 E48.99703
G1 X55.056 Y86.938 E49.01599
G1 X55.409 Y86.91 E49.028
G1 X55.74 Y86.901 E49.03923
G1 X177.845 Y86.9 E53.18169
G1 X178.543 Y86.91 E53.20537
G1 X179.14 Y86.97 E53.22572
G1 X179.69 Y87.116 E53.24503
G1 X180.154 Y87.318 E53.2622
G1 X180.635 Y87.62 E53.28147
G1 X181.108 Y88.039 E53.3029
G1 X181.463 Y88.481 E53.32214
G1 X181.746 Y88.975 E53.34145
G1 X181.947 Y89.506 E53.36071
G1 X182.062 Y90.053 E53.37968
G1 X182.09 Y90.409 E53.39179
G1 X182.099 Y90.74 E53.40302
G1 X182.1 Y132.814 E54.8304
G1 X182.09 Y133.541 E54.85506
G1 X182.03 Y134.138 E54.87542
G1 X181.884 Y134.687 E54.89469
G1 X181.653 Y135.207 E54.914
G1 X181.344 Y135.683 E54.93325
G1 X180.962 Y136.107 E54.95261
G1 X180.571 Y136.427 E54.96975
G1 X180.028 Y136.745 E54.9911
G1 X179.557 Y136.929 E55.00825
G1 X178.949 Y137.061 E55.02936
G1 X178.591 Y137.09 E55.04155
G1 X178.26 Y137.099 E55.05278
G1 X56.155 Y137.1 E59.19523
G1 X55.457 Y137.09 E59.21891
G1 X54.86 Y137.03 E59.23927
G1 X54.31 Y136.884 E59.25857
G1 X53.846 Y136.682 E59.27574
G1 X53.365 Y136.38 E59.29501
G1 X52.892 Y135.961 E59.31645
G1 X52.537 Y135.519 E59.33568
G1 X52.254 Y135.025 E59.355
G1 X52.053 Y134.494 E59.37426
G1 X51.938 Y133.947 E59.39322
G1 X51.91 Y133.588 E59.40544
G1 X51.901 Y133.245 E59.41708
G1 X51.9 Y91.12 E60.84618
G1 X51.91 Y90.455 E60.86874
G1 X51.971 Y89.858 E60.8891
G1 X52.117 Y89.308 E60.90841
G1 X52.319 Y88.844 E60.92558
G1 X52.659 Y88.312 E60.947
G1 X53.04 Y87.892 E60.96623
G1 X53.484 Y87.534 E60.98558
G0 F6000 X53.685 Y87.88
G1 F480 X54.122 Y87.626 E61.00273
G1 X54.593 Y87.443 E61.01987
G1 X55.088 Y87.337 E61.03705
G1 X55.42 Y87.31 E61.04835
G1 X55.74 Y87.301 E61.05921
G1 X177.839 Y87.3 E65.20146
G1 X178.537 Y87.31 E65.22514
G1 X179.04 Y87.357 E65.24228
G1 X179.53 Y87.483 E65.25944
G1 X179.994 Y87.685 E65.27661
G1 X180.42 Y87.957 E65.29376
G1 X180.798 Y88.292 E65.31089
G1 X181.118 Y88.683 E65.32803
G1 X181.373 Y89.12 E65.3452
G1 X181.556 Y89.591 E65.36234
G1 X181.663 Y90.085 E65.37949
G1 X181.69 Y90.42 E65.39089
G1 X181.699 Y90.74 E65.40175
G1 X181.7 Y132.808 E66.82892
G1 X181.69 Y133.535 E66.85359
G1 X181.643 Y134.038 E66.87073
G1 X181.517 Y134.528 E66.88789
G1 X181.316 Y134.992 E66.90505
G1 X181.044 Y135.418 E66.92219
G1 X180.709 Y135.797 E66.93935
G1 X180.318 Y136.117 E66.9565
G1 X179.882 Y136.372 E66.97363
G1 X179.411 Y136.556 E66.99079
G1 X178.916 Y136.662 E67.00796
G1 X178.58 Y136.69 E67.0194
G1 X178.26 Y136.699 E67.03026
G1 X56.161 Y136.7 E71.17251
G1 X55.463 Y136.69 E71.19619
G1 X54.96 Y136.643 E71.21333
G1 X54.47 Y136.517 E71.23049
G1 X54.006 Y136.315 E71.24766
G1 X53.58 Y136.043 E71.26481
G1 X53.202 Y135.708 E71.28194
G1 X52.882 Y135.317 E71.29908
G1 X52.627 Y134.88 E71.31625
G1 X52.444 Y134.409 E71.33339
G1 X52.337 Y133.915 E71.35054
G1 X52.31 Y133.577 E71.36204
G1 X52.301 Y133.245 E71.37331
G1 X52.3 Y91.126 E72.80221
G1 X52.31 Y90.461 E72.82477
G1 X52.358 Y89.958 E72.84192
G1 X52.484 Y89.468 E72.85908
G1 X52.686 Y89.004 E72.87625
G1 X52.958 Y88.578 E72.8934
G1 X53.294 Y88.201 E72.91053
G1 X53.685 Y87.88 E72.92769
G1 F3000 E66.92769
;MESH:Body1(8)
G0 F6000 X55.924 Y89.835
G0 X71.301 Y96.609
;TYPE:WALL-OUTER
G1 F3000 E72.92769
G1 F480 X70.922 Y96.766 E72.94161
G1 X70.483 Y96.8 E72.95655
G1 X70.072 Y96.765 E72.97054
G1 X69.666 Y96.594 E72.98548
G1 X69.43 Y96.445 E72.99495
G1 X69.238 Y96.281 E73.00352
G1 X69.033 Y96.045 E73.01413
G1 X68.886 Y95.799 E73.02385
G1 X68.734 Y95.422 E73.03764
G1 X68.696 Y94.981 E73.05265
G1 X68.735 Y94.572 E73.06659
G1 X68.902 Y94.166 E73.08149
G1 X69.051 Y93.93 E73.09095
G1 X69.238 Y93.715 E73.10062
G1 X69.43 Y93.551 E73.10919
G1 X69.697 Y93.386 E73.11984
G1 X70.085 Y93.234 E73.13397
G1 X70.52 Y93.196 E73.14879
G1 X70.923 Y93.235 E73.16252
G1 X71.329 Y93.401 E73.1774
G1 X71.572 Y93.553 E73.18713
G1 X71.781 Y93.738 E73.1966
G1 X71.945 Y93.93 E73.20516
G1 X72.109 Y94.195 E73.21573
G1 X72.265 Y94.573 E73.22961
G1 X72.3 Y94.983 E73.24357
G1 X72.263 Y95.422 E73.25851
G1 X72.095 Y95.829 E73.27345
G1 X71.943 Y96.072 E73.28318
G1 X71.76 Y96.279 E73.29255
G1 X71.545 Y96.463 E73.30215
G1 X71.301 Y96.609 E73.3118
G1 F3000 E67.3118
G0 F6000 X71.572 Y97.268
G0 X85.02 Y100.02
G0 X85.3 Y100.3
G1 F3000 E73.3118
G1 F480 X85.3 Y90.7 E73.63748
G1 X55.7 Y90.7 E74.64167
G1 X55.7 Y100.3 E74.96735
G1 X85.3 Y100.3 E75.97154
G0 F6000 X84.9 Y99.9
;TYPE:WALL-INNER
G1 F480 X84.9 Y91.1 E76.27307
G1 X56.1 Y91.1 E77.25989
G1 X56.1 Y99.9 E77.56142
G1 X84.9 Y99.9 E78.54824
G0 F6000 X84.5 Y99.5
G1 F480 X84.5 Y91.5 E78.82236
G1 X56.5 Y91.5 E79.78176
G1 X56.5 Y99.5 E80.05588
G1 X84.5 Y99.5 E81.01529
G0 F6000 X84.1 Y99.1
G1 F480 X84.1 Y91.9 E81.26199
G1 X71.444 Y91.9 E81.69565
G1 F408.5 X71.016 Y91.969 E81.7131
G1 X71.86 Y92.32 E81.7499
G1 F480 X72.273 Y92.57 E81.76645
G1 X72.629 Y92.884 E81.78271
G1 X72.857 Y93.15 E81.79471
G1 X73.167 Y93.612 E81.81378
G1 X73.362 Y94.084 E81.83128
G1 X73.464 Y94.502 E81.84602
G1 X73.505 Y95.003 E81.86324
G1 X73.451 Y95.636 E81.88501
G1 X73.362 Y95.912 E81.89495
G1 X73.178 Y96.358 E81.91148
G1 X72.918 Y96.784 E81.92858
G1 X72.549 Y97.184 E81.94723
G1 X72.171 Y97.487 E81.96383
G1 X71.857 Y97.678 E81.97642
G1 X71.411 Y97.862 E81.99295
G1 X71.081 Y97.958 E82.00473
G1 X70.5 Y98 E82.02469
G1 X70.002 Y97.964 E82.0418
G1 X69.584 Y97.862 E82.05654
G1 X69.114 Y97.669 E82.07395
G1 X68.65 Y97.357 E82.09311
G1 X68.376 Y97.123 E82.10545
G1 X68.067 Y96.766 E82.12163
G1 X67.816 Y96.353 E82.13819
G1 X67.633 Y95.899 E82.15496
G1 X67.538 Y95.51 E82.16868
G1 X67.502 Y95.134 E82.18163
G1 X67.502 Y94.867 E82.19077
G1 X67.538 Y94.487 E82.20385
G1 X67.633 Y94.097 E82.21761
G1 X67.823 Y93.622 E82.23514
G1 X68.139 Y93.15 E82.2546
G1 X68.374 Y92.875 E82.26699
G1 X68.727 Y92.573 E82.28291
G1 F470.6 X69.096 Y92.342 E82.29813
G1 F452.8 X69.591 Y92.118 E82.31786
G1 F389.5 X69.865 Y91.977 E82.33087
G1 X69.552 Y91.916 E82.34434
G1 F461.5 X69.177 Y91.901 E82.35772
G1 F480 X56.9 Y91.9 E82.77838
G1 X56.9 Y99.1 E83.02509
G1 X84.1 Y99.1 E83.95708
G0 F6000 X83.7 Y98.7
G1 F480 X83.7 Y92.3 E84.17638
G1 X72.56 Y92.301 E84.55809
G1 X72.812 Y92.512 E84.56935
G1 X72.997 Y92.699 E84.57836
G1 X73.161 Y92.89 E84.58699
G1 X73.397 Y93.213 E84.60069
G1 X73.588 Y93.583 E84.61496
G1 X73.731 Y93.931 E84.62785
G1 X73.862 Y94.468 E84.64679
G1 X73.894 Y94.849 E84.65989
G1 X73.894 Y95.153 E84.67031
G1 X73.862 Y95.529 E84.68324
G1 X73.821 Y95.786 E84.69216
G1 X73.732 Y96.065 E84.70219
G1 X73.588 Y96.413 E84.7151
G1 X73.46 Y96.663 E84.72472
G1 X73.328 Y96.879 E84.73339
G1 X73.149 Y97.124 E84.74379
G1 X72.734 Y97.569 E84.76464
G1 X72.379 Y97.828 E84.7797
G1 X72.163 Y97.96 E84.78837
G1 X71.913 Y98.088 E84.79799
G1 X71.564 Y98.231 E84.81092
G1 F491 X71.186 Y98.332 E84.82402
G1 F524.6 X70.5 Y98.375 E84.84557
G1 F533.3 X69.97 Y98.347 E84.86194
G1 F498.7 X69.431 Y98.232 E84.88011
G1 F480 X69.083 Y98.089 E84.89301
G1 X68.82 Y97.953 E84.90315
G1 X68.608 Y97.82 E84.91173
G1 X68.39 Y97.661 E84.92097
G1 X68.198 Y97.497 E84.92962
G1 X67.915 Y97.217 E84.94326
G1 X67.668 Y96.879 E84.95761
G1 X67.536 Y96.663 E84.96628
G1 X67.401 Y96.396 E84.97653
G1 X67.262 Y96.048 E84.98937
G1 X67.14 Y95.548 E85.00701
G1 X67.104 Y95.172 E85.01995
G1 X67.103 Y94.83 E85.03167
G1 X67.14 Y94.45 E85.04475
G1 X67.262 Y93.948 E85.06245
G1 X67.401 Y93.6 E85.07529
G1 X67.597 Y93.217 E85.09004
G1 X67.835 Y92.89 E85.10389
G1 X67.999 Y92.699 E85.11252
G1 X68.199 Y92.499 E85.12221
G1 X68.439 Y92.3 E85.13289
G1 X57.3 Y92.3 E85.51457
G1 X57.3 Y98.7 E85.73386
G1 X69.339 Y98.699 E86.14637
G1 F512 X70.5 Y98.725 E86.18368
G1 X71.657 Y98.7 E86.22085
G1 F480 X83.7 Y98.7 E86.6335
G0 F6000 X71.016 Y91.969
G1 F370.7 X70.5 Y91.948 E86.65642
G1 F365.7 X69.865 Y91.977 E86.685
G0 F6000 X69.971 Y92.844
G1 F480 X70.5 Y92.792 E86.70322
G1 X71.02 Y92.842 E86.72112
G1 X71.496 Y93.034 E86.7387
G1 X71.802 Y93.221 E86.75099
G1 X72.085 Y93.478 E86.76409
G1 X72.302 Y93.742 E86.7758
G1 X72.479 Y94.042 E86.78773
G1 X72.658 Y94.474 E86.80376
G1 X72.703 Y95.004 E86.82198
G1 X72.65 Y95.54 E86.84044
G1 X72.479 Y95.954 E86.85578
G1 X72.276 Y96.3 E86.86953
G1 X72.023 Y96.581 E86.88249
G1 X71.753 Y96.804 E86.89449
G1 X71.454 Y96.979 E86.90636
G1 X71.029 Y97.155 E86.92212
G1 X70.5 Y97.2 E86.94031
G1 X69.976 Y97.159 E86.95832
G1 X69.542 Y96.979 E86.97442
G1 X69.242 Y96.802 E86.98635
G1 X68.978 Y96.585 E86.99806
G1 X68.751 Y96.335 E87.00963
G1 X68.535 Y95.998 E87.02335
G1 X68.342 Y95.518 E87.04108
G1 X68.293 Y95.001 E87.05887
G1 X68.342 Y94.478 E87.07687
G1 X68.536 Y93.996 E87.09467
G1 X68.694 Y93.742 E87.10492
G1 X68.941 Y93.441 E87.11826
G1 X69.242 Y93.194 E87.1316
G1 X69.547 Y93.015 E87.14372
G1 X69.971 Y92.844 E87.15939
G0 F6000 X69.874 Y92.453
G1 F480 X70.5 Y92.396 E87.18093
G1 X70.972 Y92.436 E87.19716
G1 X71.25 Y92.504 E87.20696
G1 X71.677 Y92.676 E87.22274
G1 X72.043 Y92.9 E87.23744
G1 X72.389 Y93.218 E87.25354
G1 X72.553 Y93.41 E87.26219
G1 X72.815 Y93.807 E87.27849
G1 X72.992 Y94.237 E87.29442
G1 X73.065 Y94.536 E87.30497
