;FLAVOR:Marlin
;TIME:2579
;Filament used: 1.21761m
;Layer height: 0.16
;MINX:84.3
;MINY:100.3
;MINZ:0.2
;MAXX:148.7
;MAXY:134.7
;MAXZ:2.4
;TARGET_MACHINE.NAME:Creality Ender-3
;Generated with Cura_SteamEngine 5.11.0
M140 S80
M105
M190 S80
M104 S245
M105
M109 S245
; Ender 3 Custom Start G-code
G92 E0 ; Reset Extruder
G28 ; Home all axes
G1 Z2.0 F3000 ; Move Z Axis up little to prevent scratching of Heat Bed
G1 X0.1 Y20 Z0.3 F5000.0 ; Move to start position
G1 X0.1 Y200.0 Z0.3 F1500.0 E15 ; Draw the first line
G1 X0.4 Y200.0 Z0.3 F5000.0 ; Move to side a little
G1 X0.4 Y20 Z0.3 F1500.0 E30 ; Draw the second line
G92 E0 ; Reset Extruder
G1 Z2.0 F3000 ; Move Z Axis up little to prevent scratching of Heat Bed
G1 X5 Y20 Z0.3 F5000.0 ; Move over to prevent blob squish
M82 ;absolute extrusion mode
G92 E0
G92 E0
G1 F3000 E-6
;LAYER_COUNT:13
;LAYER:0
M107
G0 F6000 X86.258 Y101.337 Z0.2
;TYPE:SKIRT
G1 F3000 E0
G1 F420 X85.712 Y101.85 E0.02542
G1 X85.392 Y102.193 E0.04133
G1 X85.035 Y102.656 E0.06117
G1 X84.625 Y103.376 E0.08927
G1 X84.396 Y104.184 E0.11777
G1 X84.32 Y104.777 E0.13805
G1 X84.3 Y105.642 E0.1674
G1 X84.3 Y129.5 E0.97679
G1 X84.311 Y130.105 E0.99732
G1 X84.391 Y130.782 E1.02045
G1 X84.603 Y131.566 E1.048
G1 X84.989 Y132.302 E1.07619
G1 X85.392 Y132.803 E1.09801
G1 X85.861 Y133.298 E1.12114
G1 X86.158 Y133.579 E1.13501
G1 X86.54 Y133.886 E1.15164
G1 X87.372 Y134.375 E1.18438
G1 X88.061 Y134.578 E1.20875
G1 X88.774 Y134.679 E1.23318
G1 X89.642 Y134.7 E1.26263
G1 X113.492 Y134.7 E2.07175
G1 X115.104 Y134.675 E2.12645
G1 X117.826 Y134.675 E2.21879
G1 X119.617 Y134.7 E2.27956
G1 X143.506 Y134.7 E3.09
G1 X144.161 Y134.685 E3.11223
G1 X145.096 Y134.558 E3.14424
G1 X145.794 Y134.281 E3.16971
G1 X146.205 Y134.058 E3.18558
G1 X146.831 Y133.581 E3.21228
G1 X147.277 Y133.16 E3.23308
G1 X147.601 Y132.815 E3.24914
G1 X148.038 Y132.265 E3.27297
G1 X148.348 Y131.644 E3.29652
G1 X148.561 Y131.002 E3.31947
G1 X148.681 Y130.183 E3.34755
G1 X148.7 Y129.361 E3.37544
G1 X148.7 Y105.496 E4.18507
G1 X148.688 Y104.88 E4.20597
G1 X148.604 Y104.188 E4.22962
G1 X148.38 Y103.384 E4.25794
G1 X148 Y102.708 E4.28424
G1 X147.61 Y102.199 E4.306
G1 X147.122 Y101.685 E4.33004
G1 X146.866 Y101.443 E4.34199
G1 X146.412 Y101.081 E4.36169
G1 X145.627 Y100.625 E4.39249
G1 X144.939 Y100.422 E4.41683
G1 X144.226 Y100.321 E4.44126
G1 X143.358 Y100.3 E4.47071
G1 X119.508 Y100.3 E5.27983
G1 X117.896 Y100.325 E5.33453
G1 X115.174 Y100.325 E5.42687
G1 X113.383 Y100.3 E5.48764
G1 X89.49 Y100.3 E6.29822
G1 X88.783 Y100.319 E6.32221
G1 X87.904 Y100.442 E6.35232
G1 X87.079 Y100.763 E6.38235
G1 X86.258 Y101.337 E6.41634
G0 F6000 X86.532 Y101.629
G1 F420 X85.986 Y102.142 E6.44175
G1 X85.707 Y102.44 E6.4556
G1 X85.383 Y102.854 E6.47344
G1 X84.996 Y103.534 E6.49998
G1 X84.793 Y104.235 E6.52474
G1 X84.717 Y104.828 E6.54502
G1 X84.7 Y105.65 E6.57292
G1 X84.7 Y129.493 E7.3818
G1 X84.711 Y130.098 E7.40233
G1 X84.777 Y130.678 E7.42213
G1 X84.977 Y131.419 E7.44817
G1 X85.324 Y132.079 E7.47346
G1 X85.704 Y132.552 E7.49405
G1 X86.151 Y133.022 E7.51605
G1 X86.409 Y133.267 E7.52812
G1 X86.791 Y133.574 E7.54475
G1 X87.532 Y134.005 E7.57383
G1 X88.174 Y134.194 E7.59654
G1 X88.828 Y134.283 E7.61893
G1 X89.65 Y134.3 E7.64682
G1 X113.486 Y134.3 E8.45546
G1 X115.098 Y134.275 E8.51016
G1 X117.832 Y134.275 E8.60291
G1 X119.623 Y134.3 E8.66368
G1 X143.497 Y134.3 E9.47361
G1 X144.152 Y134.285 E9.49584
G1 X144.995 Y134.168 E9.52471
G1 X145.603 Y133.929 E9.54687
G1 X146.014 Y133.706 E9.56274
G1 X146.587 Y133.264 E9.58729
G1 X146.985 Y132.886 E9.60591
G1 X147.309 Y132.541 E9.62197
G1 X147.698 Y132.049 E9.64324
G1 X147.99 Y131.465 E9.66539
G1 X148.181 Y130.878 E9.68634
G1 X148.285 Y130.128 E9.71202
G1 X148.3 Y129.353 E9.73832
G1 X148.3 Y105.504 E10.54741
G1 X148.288 Y104.888 E10.56831
G1 X148.207 Y104.237 E10.59056
G1 X148.007 Y103.537 E10.61526
G1 X147.682 Y102.951 E10.63799
G1 X147.292 Y102.442 E10.65975
G1 X146.847 Y101.976 E10.68161
G1 X146.591 Y101.734 E10.69356
G1 X146.211 Y101.427 E10.71013
G1 X145.468 Y100.995 E10.73929
G1 X144.826 Y100.806 E10.76199
G1 X144.172 Y100.717 E10.78439
G1 X143.35 Y100.7 E10.81228
G1 X119.514 Y100.7 E11.62092
G1 X117.902 Y100.725 E11.67562
G1 X115.168 Y100.725 E11.76837
G1 X113.377 Y100.7 E11.82914
G1 X89.501 Y100.7 E12.63914
G1 X88.794 Y100.719 E12.66313
G1 X88.006 Y100.832 E12.69014
G1 X87.269 Y101.118 E12.71696
G1 X86.532 Y101.629 E12.74738
G0 F6000 X86.76 Y101.958
G1 F420 X86.262 Y102.432 E12.77071
G1 X86.022 Y102.687 E12.78259
G1 X85.698 Y103.101 E12.80042
G1 X85.366 Y103.693 E12.82345
G1 X85.19 Y104.286 E12.84443
G1 X85.114 Y104.879 E12.86471
G1 X85.1 Y105.657 E12.89111
G1 X85.1 Y129.486 E13.69952
G1 X85.111 Y130.091 E13.72005
G1 X85.174 Y130.632 E13.73853
G1 X85.351 Y131.271 E13.76102
G1 X85.66 Y131.859 E13.78355
G1 X85.994 Y132.276 E13.80168
G1 X86.441 Y132.746 E13.82368
G1 X86.684 Y132.976 E13.83504
G1 X87.041 Y133.262 E13.85055
G1 X87.69 Y133.634 E13.87593
G1 X88.287 Y133.81 E13.89705
G1 X88.879 Y133.886 E13.9173
G1 X89.657 Y133.9 E13.94369
G1 X113.48 Y133.9 E14.7519
G1 X115.092 Y133.875 E14.80659
G1 X117.838 Y133.875 E14.89975
G1 X119.629 Y133.9 E14.96052
G1 X143.488 Y133.9 E15.76994
G1 X144.143 Y133.885 E15.79217
G1 X144.893 Y133.778 E15.81787
G1 X145.412 Y133.577 E15.83675
G1 X145.823 Y133.354 E15.85262
G1 X146.341 Y132.949 E15.87492
G1 X146.709 Y132.597 E15.8922
G1 X146.995 Y132.293 E15.90636
G1 X147.358 Y131.834 E15.92621
G1 X147.632 Y131.286 E15.947
G1 X147.8 Y130.757 E15.96583
G1 X147.885 Y130.12 E15.98763
G1 X147.9 Y129.345 E16.01393
G1 X147.9 Y105.512 E16.82247
G1 X147.888 Y104.896 E16.84337
G1 X147.822 Y104.347 E16.86213
G1 X147.634 Y103.69 E16.88531
G1 X147.332 Y103.145 E16.90645
G1 X146.976 Y102.687 E16.92613
G1 X146.572 Y102.267 E16.9459
G1 X146.316 Y102.025 E16.95785
G1 X145.96 Y101.739 E16.97334
G1 X145.31 Y101.366 E16.99877
G1 X144.713 Y101.19 E17.01988
G1 X144.121 Y101.114 E17.04013
G1 X143.343 Y101.1 E17.06653
G1 X119.52 Y101.1 E17.87473
G1 X117.908 Y101.125 E17.92943
G1 X115.162 Y101.125 E18.02259
G1 X113.371 Y101.1 E18.08335
G1 X89.512 Y101.1 E18.89278
G1 X88.805 Y101.119 E18.91677
G1 X88.108 Y101.222 E18.94067
G1 X87.458 Y101.474 E18.96433
G1 X86.76 Y101.958 E18.99314
G0 F6000 X87.036 Y102.248
G1 F420 X86.538 Y102.722 E19.01647
G1 X86.313 Y102.961 E19.0276
G1 X86.014 Y103.346 E19.04414
G1 X85.738 Y103.846 E19.06351
G1 X85.574 Y104.4 E19.08312
G1 X85.514 Y104.886 E19.09973
G1 X85.5 Y105.664 E19.12613
G1 X85.5 Y129.479 E19.93406
G1 X85.511 Y130.084 E19.95459
G1 X85.571 Y130.584 E19.97167
G1 X85.726 Y131.125 E19.99076
G1 X85.996 Y131.639 E20.01046
G1 X86.306 Y132.026 E20.02728
G1 X86.716 Y132.455 E20.04741
G1 X86.959 Y132.685 E20.05876
G1 X87.29 Y132.949 E20.07313
G1 X87.845 Y133.262 E20.09474
G1 X88.4 Y133.426 E20.11438
G1 X88.886 Y133.486 E20.13099
G1 X89.664 Y133.5 E20.15739
G1 X113.474 Y133.5 E20.96515
G1 X115.086 Y133.475 E21.01985
G1 X117.844 Y133.475 E21.11341
G1 X119.635 Y133.5 E21.17418
G1 X143.479 Y133.5 E21.98309
G1 X144.134 Y133.485 E22.00532
G1 X144.793 Y133.388 E22.02792
G1 X145.268 Y133.204 E22.0452
G1 X145.63 Y133.004 E22.05923
G1 X146.092 Y132.636 E22.07927
G1 X146.431 Y132.309 E22.09525
G1 X146.704 Y132.019 E22.10876
G1 X147.017 Y131.621 E22.12594
G1 X147.274 Y131.107 E22.14543
G1 X147.418 Y130.639 E22.16204
G1 X147.488 Y130.071 E22.18146
G1 X147.5 Y129.338 E22.20633
G1 X147.5 Y105.52 E23.01436
G1 X147.488 Y104.904 E23.03527
G1 X147.437 Y104.457 E23.05053
G1 X147.261 Y103.843 E23.0722
G1 X146.982 Y103.339 E23.09174
G1 X146.662 Y102.935 E23.10923
G1 X146.297 Y102.558 E23.12703
G1 X146.041 Y102.316 E23.13898
G1 X145.71 Y102.051 E23.15336
G1 X145.155 Y101.738 E23.17498
G1 X144.6 Y101.574 E23.19461
G1 X144.114 Y101.514 E23.21123
G1 X143.336 Y101.5 E23.23762
G1 X119.526 Y101.5 E24.04539
G1 X117.914 Y101.525 E24.10008
G1 X115.156 Y101.525 E24.19365
G1 X113.365 Y101.5 E24.25441
G1 X89.521 Y101.5 E25.06333
G1 X88.864 Y101.515 E25.08562
G1 X88.208 Y101.612 E25.10812
G1 X87.647 Y101.829 E25.12853
G1 X87.036 Y102.248 E25.15366
G0 F6000 X87.312 Y102.538
G1 F420 X86.814 Y103.012 E25.17699
G1 X86.605 Y103.235 E25.18735
G1 X86.364 Y103.539 E25.20052
G1 X86.11 Y103.999 E25.21834
G1 X85.958 Y104.513 E25.23653
G1 X85.912 Y104.93 E25.25076
G1 X85.9 Y105.67 E25.27587
G1 X85.9 Y129.472 E26.08336
G1 X85.911 Y130.077 E26.10389
G1 X85.956 Y130.474 E26.11744
G1 X86.1 Y130.978 E26.13522
G1 X86.332 Y131.419 E26.15213
G1 X86.618 Y131.776 E26.16765
G1 X86.991 Y132.164 E26.18591
G1 X87.234 Y132.394 E26.19726
G1 X87.539 Y132.636 E26.21047
G1 X87.999 Y132.89 E26.22829
G1 X88.513 Y133.042 E26.24648
G1 X88.93 Y133.088 E26.26071
G1 X89.67 Y133.1 E26.28582
G1 X113.468 Y133.1 E27.09317
G1 X115.08 Y133.075 E27.14787
G1 X117.85 Y133.075 E27.24184
G1 X119.641 Y133.1 E27.30261
G1 X143.472 Y133.1 E28.11108
G1 X144.076 Y133.089 E28.13157
G1 X144.692 Y132.998 E28.1527
G1 X145.124 Y132.831 E28.16841
G1 X145.433 Y132.656 E28.18046
G1 X145.814 Y132.348 E28.19708
G1 X146.153 Y132.021 E28.21306
G1 X146.389 Y131.772 E28.2247
G1 X146.677 Y131.405 E28.24052
G1 X146.916 Y130.928 E28.25863
G1 X147.034 Y130.526 E28.27284
G1 X147.088 Y130.064 E28.28862
G1 X147.1 Y129.331 E28.31349
G1 X147.1 Y105.528 E29.12101
G1 X147.088 Y104.912 E29.14192
G1 X147.04 Y104.504 E29.15585
G1 X146.89 Y103.999 E29.17373
G1 X146.632 Y103.533 E29.1918
G1 X146.351 Y103.187 E29.20692
G1 X146.01 Y102.837 E29.22349
G1 X145.766 Y102.606 E29.23489
G1 X145.461 Y102.364 E29.2481
G1 X145.001 Y102.11 E29.26593
G1 X144.487 Y101.958 E29.28411
G1 X144.07 Y101.912 E29.29835
G1 X143.33 Y101.9 E29.32345
G1 X119.532 Y101.9 E30.13081
G1 X117.92 Y101.925 E30.1855
G1 X115.15 Y101.925 E30.27948
G1 X113.359 Y101.9 E30.34024
G1 X89.528 Y101.9 E31.14872
G1 X88.923 Y101.911 E31.16925
G1 X88.308 Y102.002 E31.19034
G1 X87.834 Y102.185 E31.20757
G1 X87.312 Y102.538 E31.22895
G0 F6000 X87.536 Y102.869
G1 F420 X88.02 Y102.542 E31.24877
G1 X88.411 Y102.391 E31.26299
G1 X88.93 Y102.311 E31.2808
G1 X89.535 Y102.3 E31.30133
G1 X113.353 Y102.3 E32.10937
G1 X115.144 Y102.325 E32.17013
G1 X117.926 Y102.325 E32.26451
G1 X119.538 Y102.3 E32.31921
G1 X143.324 Y102.3 E33.12615
G1 X144.026 Y102.31 E33.14997
G1 X144.443 Y102.356 E33.1642
G1 X144.843 Y102.48 E33.17841
G1 X145.213 Y102.678 E33.19265
G1 X145.491 Y102.897 E33.20465
G1 X145.723 Y103.116 E33.21548
G1 X146.064 Y103.466 E33.23206
G1 X146.321 Y103.784 E33.24593
G1 X146.519 Y104.153 E33.26013
G1 X146.643 Y104.553 E33.27434
G1 X146.688 Y104.92 E33.28688
G1 X146.7 Y105.536 E33.30779
G1 X146.7 Y129.325 E34.11484
G1 X146.69 Y130.023 E34.13852
G1 X146.65 Y130.413 E34.15182
G1 X146.532 Y130.815 E34.16603
G1 X146.339 Y131.187 E34.18025
G1 X146.098 Y131.497 E34.19357
G1 X145.875 Y131.733 E34.20459
G1 X145.536 Y132.06 E34.22057
G1 X145.23 Y132.311 E34.23399
G1 X144.98 Y132.458 E34.24383
G1 X144.589 Y132.609 E34.25805
G1 X144.069 Y132.68 E34.27586
G1 X144.069 Y132.689 E34.27616
G1 X143.465 Y132.7 E34.29666
G1 X119.647 Y132.7 E35.10469
G1 X117.856 Y132.675 E35.16546
G1 X115.074 Y132.675 E35.25984
G1 X113.462 Y132.7 E35.31453
G1 X89.676 Y132.7 E36.12148
G1 X88.974 Y132.69 E36.1453
G1 X88.557 Y132.644 E36.15953
G1 X88.157 Y132.52 E36.17374
G1 X87.787 Y132.322 E36.18797
G1 X87.509 Y132.103 E36.19998
G1 X87.266 Y131.873 E36.21133
G1 X86.93 Y131.526 E36.22772
G1 X86.668 Y131.199 E36.24193
G1 X86.473 Y130.828 E36.25615
G1 X86.353 Y130.427 E36.27035
G1 X86.311 Y130.07 E36.28255
G1 X86.3 Y129.465 E36.30307
G1 X86.3 Y105.676 E37.11012
G1 X86.31 Y104.974 E37.13394
G1 X86.356 Y104.557 E37.14817
G1 X86.48 Y104.157 E37.16238
G1 X86.678 Y103.787 E37.17662
G1 X86.897 Y103.509 E37.18862
G1 X87.106 Y103.286 E37.19899
G1 X87.536 Y102.869 E37.21931
G1 F3000 E31.21931
;MESH:Spacer-Rear-Wedge_26x26mm_M2.5.stl
G0 F6000 X88.431 Y104.429
G0 X94.265 Y108.324
;TYPE:WALL-OUTER
G1 F3000 E37.21931
G1 F420 X93.735 Y108.328 E37.23729
G1 X93.244 Y108.12 E37.25539
G1 X92.873 Y107.749 E37.27318
G1 X92.675 Y107.259 E37.29111
G1 X92.672 Y106.736 E37.30886
G1 X92.875 Y106.245 E37.32688
G1 X93.218 Y105.902 E37.34334
G1 F385.5 X93.745 Y105.606 E37.36564
G1 F357 X94.207 Y105.604 E37.38402
G1 F371.6 X94.757 Y105.881 E37.40757
G1 F393.9 X95.125 Y106.245 E37.42627
G1 F407.5 X95.328 Y106.736 E37.44484
G1 F415.8 X95.324 Y107.269 E37.4631
G1 F420 X95.125 Y107.752 E37.48082
G1 X94.751 Y108.12 E37.49862
G1 X94.265 Y108.324 E37.51651
G1 F3000 E31.51651
G0 F6000 X94.537 Y108.983
G0 X109.537 Y108.983
G0 X109.265 Y108.324
G1 F3000 E37.51651
G1 F420 X108.735 Y108.328 E37.53449
G1 X108.244 Y108.12 E37.55258
G1 X107.883 Y107.756 E37.56997
G1 X107.676 Y107.268 E37.58795
G1 X107.672 Y106.736 E37.606
G1 X107.875 Y106.245 E37.62403
G1 X108.218 Y105.902 E37.64048
G1 F385.5 X108.745 Y105.606 E37.66278
G1 F357 X109.207 Y105.604 E37.68116
G1 F371.6 X109.757 Y105.881 E37.70472
G1 F393.9 X110.125 Y106.245 E37.72342
G1 F407.5 X110.328 Y106.736 E37.74198
G1 F415.8 X110.326 Y107.259 E37.7599
G1 F420 X110.126 Y107.75 E37.77789
G1 X109.751 Y108.12 E37.79576
G1 X109.265 Y108.324 E37.81364
G1 F3000 E31.81364
G0 F6000 X109.537 Y108.983
G0 X110.599 Y111.782
G0 X110.599 Y128.26
G0 X110.337 Y128.893
G0 X109.977 Y129.253
G0 X109.254 Y129.638
G0 X109.254 Y129.394
G1 F3000 E37.81364
G1 F357 X108.795 Y129.396 E37.8319
G1 F371.6 X108.239 Y129.119 E37.85566
G1 F402.5 X107.879 Y128.754 E37.87379
G1 F420 X107.744 Y128.496 E37.88367
G1 X107.648 Y128.186 E37.89468
G1 X107.649 Y111.783 E38.45116
G1 X107.872 Y111.256 E38.47057
G1 X108.244 Y110.88 E38.48852
G1 X108.735 Y110.672 E38.50661
G1 X109.265 Y110.676 E38.52459
G1 X109.751 Y110.88 E38.54247
G1 X110.12 Y111.239 E38.55993
G1 X110.252 Y111.5 E38.56986
G1 X110.348 Y111.81 E38.58087
G1 X110.348 Y128.21 E39.13724
G1 X110.127 Y128.749 E39.157
G1 X109.778 Y129.098 E39.17375
G1 F385.5 X109.254 Y129.394 E39.19595
G1 F3000 E33.19595
G0 F6000 X109.254 Y129.638
G0 X113.321 Y129.32
G0 X114 Y129.917
G1 F3000 E39.19595
G1 F420 X114 Y105.085 E40.03839
G1 X113.914 Y105 E40.04249
G1 X109.885 Y105 E40.17917
G1 F389.2 X109.439 Y105.032 E40.19552
G1 F335 X109.224 Y105.068 E40.20474
G1 F310.1 X108.683 Y105.07 E40.22943
G1 F322.4 X108.563 Y105.048 E40.23479
G1 F374.1 X108.113 Y105.001 E40.25198
G1 F420 X94.885 Y105 E40.70075
G1 F389.2 X94.439 Y105.032 E40.71709
G1 F335 X94.224 Y105.068 E40.72632
G1 F310.1 X93.683 Y105.07 E40.751
G1 F322.4 X93.563 Y105.048 E40.75636
G1 F374.1 X93.113 Y105.001 E40.77355
G1 F420 X89.081 Y105 E40.91034
G1 X88.996 Y105.082 E40.91435
G1 X89 Y129.914 E41.75678
G1 X89.085 Y130 E41.76088
G1 X93.113 Y129.999 E41.89754
G1 F388.3 X93.563 Y129.969 E41.91406
G1 F334.3 X93.776 Y129.932 E41.92323
G1 F310.1 X94.317 Y129.93 E41.94791
G1 F356.2 X94.885 Y130 E41.97073
G1 F420 X108.113 Y129.999 E42.41949
G1 F388.3 X108.563 Y129.969 E42.43602
G1 F334.3 X108.776 Y129.932 E42.44518
G1 F310.1 X109.317 Y129.93 E42.46987
G1 F356.2 X109.885 Y130 E42.49268
G1 F420 X113.917 Y130 E42.62947
G1 X114 Y129.917 E42.63345
G1 F3000 E36.63345
G0 F6000 X113.321 Y129.32
G0 X109.15 Y129.551
G0 X94.254 Y129.638
G0 X94.254 Y129.394
G1 F3000 E42.63345
G1 F357 X93.795 Y129.396 E42.65171
G1 F371.6 X93.239 Y129.119 E42.67547
G1 F393.9 X92.874 Y128.75 E42.69422
G1 F407.5 X92.648 Y128.21 E42.71468
G1 F413.7 X92.648 Y111.786 E43.28023
G1 F417.9 X92.874 Y111.245 E43.30022
G1 F420 X93.244 Y110.88 E43.31785
G1 X93.735 Y110.672 E43.33594
G1 X94.265 Y110.676 E43.35392
G1 X94.751 Y110.88 E43.3718
G1 X95.122 Y111.247 E43.3895
G1 X95.252 Y111.5 E43.39915
G1 X95.348 Y111.826 E43.41068
G1 X95.348 Y128.21 E43.96652
G1 X95.127 Y128.749 E43.98628
G1 X94.778 Y129.098 E44.00302
G1 F385.5 X94.254 Y129.394 E44.02523
G0 F6000 X94.653 Y129.599
;TYPE:WALL-INNER
G1 F420 X108.345 Y129.599 E44.49438
G1 X107.932 Y129.378 E44.51043
G1 X107.547 Y128.987 E44.52923
G1 X107.362 Y128.614 E44.5435
G1 X107.248 Y128.246 E44.5567
G1 X107.248 Y111.706 E45.12343
G1 X107.531 Y111.033 E45.14845
G1 X108.016 Y110.536 E45.17224
G1 X108.649 Y110.274 E45.19572
G1 X109.343 Y110.272 E45.2195
G1 X109.973 Y110.534 E45.24288
G1 X110.451 Y111.005 E45.26587
G1 X110.634 Y111.382 E45.28023
G1 X110.748 Y111.75 E45.29343
G1 X110.748 Y128.17 E45.85605
G1 X110.704 Y128.396 E45.86394
