;FLAVOR:Marlin
;TIME:5009
;Filament used: 2.25003m
;Layer height: 0.16
;MINX:0
;MINY:0
;MINZ:0.12
;MAXX:142.825
;MAXY:103.762
;MAXZ:4.48
;TARGET_MACHINE.NAME:Creality Ender-3
;Generated with Cura_SteamEngine 5.11.0
M140 S80
M105
M190 S80
M104 S245
M105
M109 S245
; Ender 3 Custom Start G-code
G92 E0 ; Reset Extruder
G28 ; Home all axes
G1 Z2.0 F3000 ; Move Z Axis up little to prevent scratching of Heat Bed
G1 X0.1 Y20 Z0.3 F5000.0 ; Move to start position
G1 X0.1 Y200.0 Z0.3 F1500.0 E15 ; Draw the first line
G1 X0.4 Y200.0 Z0.3 F5000.0 ; Move to side a little
G1 X0.4 Y20 Z0.3 F1500.0 E30 ; Draw the second line
G92 E0 ; Reset Extruder
G1 Z2.0 F3000 ; Move Z Axis up little to prevent scratching of Heat Bed
G1 X5 Y20 Z0.3 F5000.0 ; Move over to prevent blob squish
M82 ;absolute extrusion mode
G92 E0
G92 E0
G1 F3000 E-6
;LAYER_COUNT:18
;LAYER:0
M107
G1 F300 Z1.12
G0 F6000 X0.00 Y0.00 Z1.12
G0 X81.623 Y32.94
;TYPE:SKIRT
G1 F300 Z0.12
G1 F3000 E0
G1 F420 X81.882 Y32.329 E0.01351
G1 X82.199 Y31.739 E0.02714
G1 X82.523 Y31.246 E0.03915
G1 X82.929 Y30.729 E0.05253
G1 X83.349 Y30.284 E0.06499
G1 X83.827 Y29.856 E0.07805
G1 X84.226 Y29.553 E0.08824
G1 X84.852 Y29.159 E0.1033
G1 X85.367 Y28.897 E0.11506
G1 X86.017 Y28.636 E0.12932
G1 X86.548 Y28.474 E0.14062
G1 X87.234 Y28.33 E0.15489
G1 X87.84 Y28.257 E0.16731
G1 X88.276 Y28.237 E0.1762
G1 X97.696 Y28.237 E0.36794
G1 X98.3 Y28.388 E0.38062
G1 X98.907 Y28.714 E0.39464
G1 X99.286 Y29.136 E0.40619
G1 X110.175 Y48.014 E0.84979
G1 X110.177 Y35.33 E1.10798
G1 X110.209 Y34.728 E1.12025
G1 X110.271 Y34.261 E1.12984
G1 X110.455 Y33.451 E1.14675
G1 X110.623 Y32.94 E1.1577
G1 X110.882 Y32.329 E1.1712
G1 X111.199 Y31.739 E1.18484
G1 X111.523 Y31.246 E1.19685
G1 X111.929 Y30.729 E1.21023
G1 X112.349 Y30.284 E1.22268
G1 X112.827 Y29.856 E1.23574
G1 X113.226 Y29.553 E1.24594
G1 X113.852 Y29.159 E1.261
G1 X114.367 Y28.897 E1.27276
G1 X115.017 Y28.636 E1.28702
G1 X115.548 Y28.474 E1.29832
G1 X116.234 Y28.33 E1.31258
G1 X116.84 Y28.257 E1.32501
G1 X117.276 Y28.237 E1.33389
G1 X126.696 Y28.237 E1.52564
G1 X127.3 Y28.388 E1.53831
G1 X127.907 Y28.714 E1.55234
G1 X128.286 Y29.136 E1.56388
G1 X142.635 Y54.012 E2.14844
G1 X142.825 Y54.714 E2.16324
G1 X142.823 Y59.669 E2.2641
G1 X142.791 Y60.272 E2.27639
G1 X142.729 Y60.739 E2.28598
G1 X142.544 Y61.552 E2.30295
G1 X142.351 Y62.127 E2.3153
G1 X142.101 Y62.708 E2.32817
G1 X141.84 Y63.195 E2.33942
G1 X141.457 Y63.781 E2.35367
G1 X141.071 Y64.271 E2.36637
G1 X140.651 Y64.716 E2.37882
G1 X140.173 Y65.144 E2.39188
G1 X139.774 Y65.447 E2.40208
G1 X139.148 Y65.841 E2.41714
G1 X138.835 Y66.001 E2.42429
G1 X139.289 Y66.24 E2.43474
G1 X139.84 Y66.6 E2.44813
G1 X140.24 Y66.911 E2.45845
G1 X140.792 Y67.425 E2.4738
G1 X141.184 Y67.866 E2.48581
G1 X141.582 Y68.396 E2.4993
G1 X141.904 Y68.916 E2.51175
G1 X142.197 Y69.498 E2.52502
G1 X142.424 Y70.073 E2.5376
G1 X142.593 Y70.628 E2.54941
G1 X142.732 Y71.293 E2.56324
G1 X142.806 Y71.908 E2.57585
G1 X142.825 Y72.343 E2.58471
G1 X142.825 Y88.48 E2.91318
G1 X142.565 Y89.3 E2.93069
G1 X142.175 Y89.792 E2.94347
G1 X127.841 Y103.321 E3.34468
G1 X127.144 Y103.678 E3.36062
G1 X126.5 Y103.762 E3.37384
G1 X117.252 Y103.759 E3.56208
G1 X116.67 Y103.728 E3.57395
G1 X116.203 Y103.667 E3.58353
G1 X115.411 Y103.488 E3.60006
G1 X114.851 Y103.306 E3.61205
G1 X114.322 Y103.082 E3.62374
G1 X113.711 Y102.76 E3.6378
G1 X113.16 Y102.399 E3.65121
G1 X112.707 Y102.044 E3.66292
G1 X112.234 Y101.601 E3.67611
G1 X111.792 Y101.108 E3.68959
G1 X111.428 Y100.619 E3.702
G1 X111.108 Y100.104 E3.71434
G1 X110.834 Y99.571 E3.72654
G1 X110.576 Y98.927 E3.74066
G1 X110.407 Y98.372 E3.75247
G1 X110.268 Y97.707 E3.7663
G1 X110.194 Y97.092 E3.77891
G1 X110.175 Y96.656 E3.78779
G1 X110.175 Y92.627 E3.8698
G1 X98.838 Y103.322 E4.18705
G1 X98.144 Y103.678 E4.20293
G1 X97.5 Y103.762 E4.21615
G1 X88.252 Y103.759 E4.40439
G1 X87.67 Y103.728 E4.41626
G1 X87.203 Y103.667 E4.42584
G1 X86.411 Y103.488 E4.44237
G1 X85.851 Y103.306 E4.45436
G1 X85.322 Y103.082 E4.46605
G1 X84.711 Y102.76 E4.48011
G1 X84.16 Y102.399 E4.49352
G1 X83.707 Y102.044 E4.50523
G1 X83.234 Y101.601 E4.51842
G1 X82.792 Y101.108 E4.5319
G1 X82.428 Y100.619 E4.54431
G1 X82.108 Y100.104 E4.55665
G1 X81.834 Y99.571 E4.56885
G1 X81.576 Y98.927 E4.58297
G1 X81.407 Y98.372 E4.59478
G1 X81.268 Y97.707 E4.60861
G1 X81.194 Y97.092 E4.62122
G1 X81.175 Y96.656 E4.6301
G1 X81.175 Y91.714 E4.7307
G1 X81.365 Y91.012 E4.7455
G1 X95.673 Y66.205 E5.32842
G1 X95.838 Y66.017 E5.33352
G1 X81.686 Y52.668 E5.72951
G1 X81.27 Y51.928 E5.74679
G1 X81.175 Y51.238 E5.76097
G1 X81.177 Y35.33 E6.08478
G1 X81.209 Y34.728 E6.09705
G1 X81.271 Y34.261 E6.10664
G1 X81.455 Y33.451 E6.12355
G1 X81.623 Y32.94 E6.1345
G0 F6000 X82.003 Y33.065
G1 F420 X82.235 Y32.517 E6.14661
G1 X82.533 Y31.959 E6.15949
G1 X82.857 Y31.466 E6.1715
G1 X83.221 Y31.003 E6.18349
G1 X83.616 Y30.582 E6.19524
G1 X84.069 Y30.175 E6.20763
G1 X84.468 Y29.872 E6.21783
G1 X85.034 Y29.515 E6.23145
G1 X85.517 Y29.268 E6.24249
G1 X86.134 Y29.019 E6.25604
G1 X86.665 Y28.857 E6.26734
G1 X87.282 Y28.727 E6.28017
G1 X87.858 Y28.657 E6.29198
G1 X88.294 Y28.637 E6.30087
G1 X97.647 Y28.637 E6.49125
G1 X98.156 Y28.764 E6.50193
G1 X98.655 Y29.032 E6.51346
G1 X98.962 Y29.374 E6.52281
G1 X110.575 Y49.507 E6.99591
G1 X110.576 Y35.351 E7.28406
G1 X110.606 Y34.781 E7.29568
G1 X110.668 Y34.314 E7.30527
G1 X110.835 Y33.576 E7.32067
G1 X111.003 Y33.065 E7.33162
G1 X111.235 Y32.517 E7.34373
G1 X111.533 Y31.959 E7.35661
G1 X111.857 Y31.466 E7.36862
G1 X112.221 Y31.003 E7.38061
G1 X112.616 Y30.582 E7.39236
G1 X113.069 Y30.175 E7.40475
G1 X113.468 Y29.872 E7.41495
G1 X114.034 Y29.515 E7.42857
G1 X114.517 Y29.268 E7.43962
G1 X115.134 Y29.019 E7.45316
G1 X115.665 Y28.857 E7.46446
G1 X116.282 Y28.727 E7.47729
G1 X116.858 Y28.657 E7.4891
G1 X117.294 Y28.637 E7.49799
G1 X126.647 Y28.637 E7.68837
G1 X127.156 Y28.764 E7.69905
G1 X127.655 Y29.032 E7.71058
G1 X127.962 Y29.374 E7.71993
G1 X142.262 Y54.165 E8.30249
G1 X142.425 Y54.767 E8.31519
G1 X142.424 Y59.648 E8.41454
G1 X142.394 Y60.219 E8.42618
G1 X142.332 Y60.686 E8.43577
G1 X142.164 Y61.426 E8.45122
G1 X141.983 Y61.97 E8.46289
G1 X141.748 Y62.519 E8.47504
G1 X141.487 Y63.006 E8.48629
G1 X141.143 Y63.534 E8.49912
G1 X140.779 Y63.997 E8.5111
G1 X140.384 Y64.418 E8.52285
G1 X139.931 Y64.825 E8.53525
G1 X139.532 Y65.128 E8.54545
G1 X138.966 Y65.485 E8.55907
G1 X138.483 Y65.732 E8.57011
G1 X137.824 Y65.992 E8.58453
G1 X138.492 Y66.272 E8.59928
G1 X139.103 Y66.594 E8.61333
G1 X139.594 Y66.916 E8.62529
G1 X139.994 Y67.227 E8.6356
G1 X140.494 Y67.692 E8.6495
G1 X140.865 Y68.107 E8.66083
G1 X141.242 Y68.607 E8.67358
G1 X141.547 Y69.097 E8.68532
G1 X141.825 Y69.646 E8.69785
G1 X142.041 Y70.19 E8.70976
G1 X142.21 Y70.745 E8.72157
G1 X142.335 Y71.341 E8.73397
G1 X142.406 Y71.925 E8.74594
G1 X142.425 Y72.36 E8.75481
G1 X142.425 Y88.419 E9.08169
G1 X142.207 Y89.107 E9.09638
G1 X141.9 Y89.501 E9.10655
G1 X127.607 Y102.991 E9.50661
G1 X127.022 Y103.291 E9.51999
G1 X126.5 Y103.362 E9.53071
G1 X117.273 Y103.36 E9.71853
G1 X116.722 Y103.331 E9.72976
G1 X116.255 Y103.27 E9.73935
G1 X115.534 Y103.107 E9.75439
G1 X115.006 Y102.937 E9.76568
G1 X114.508 Y102.728 E9.77668
G1 X113.897 Y102.406 E9.79074
G1 X113.406 Y102.084 E9.80269
G1 X112.98 Y101.751 E9.81369
G1 X112.531 Y101.333 E9.82618
G1 X112.112 Y100.868 E9.83892
G1 X111.767 Y100.407 E9.85064
G1 X111.464 Y99.921 E9.8623
G1 X111.19 Y99.388 E9.8745
G1 X110.959 Y98.81 E9.88717
G1 X110.79 Y98.255 E9.89898
G1 X110.665 Y97.659 E9.91137
G1 X110.594 Y97.075 E9.92335
G1 X110.575 Y96.639 E9.93223
G1 X110.575 Y91.7 E10.03277
G1 X98.607 Y102.991 E10.36768
G1 X98.022 Y103.291 E10.38106
G1 X97.5 Y103.362 E10.39179
G1 X88.273 Y103.36 E10.57961
G1 X87.722 Y103.331 E10.59084
G1 X87.255 Y103.27 E10.60042
G1 X86.534 Y103.107 E10.61547
G1 X86.006 Y102.937 E10.62676
G1 X85.508 Y102.728 E10.63775
G1 X84.897 Y102.406 E10.65181
G1 X84.406 Y102.084 E10.66376
G1 X83.98 Y101.751 E10.67477
G1 X83.531 Y101.333 E10.68726
G1 X83.112 Y100.868 E10.7
G1 X82.767 Y100.407 E10.71172
G1 X82.464 Y99.921 E10.72338
G1 X82.19 Y99.388 E10.73558
G1 X81.959 Y98.81 E10.74825
G1 X81.79 Y98.255 E10.76005
G1 X81.665 Y97.659 E10.77245
G1 X81.594 Y97.075 E10.78443
G1 X81.575 Y96.639 E10.79331
G1 X81.575 Y91.767 E10.89248
G1 X81.738 Y91.165 E10.90517
G1 X96.019 Y66.405 E11.48699
G1 X96.408 Y66.005 E11.49835
G1 X82.006 Y52.42 E11.90135
G1 X81.656 Y51.798 E11.91588
G1 X81.575 Y51.238 E11.92739
G1 X81.576 Y35.351 E12.25078
G1 X81.606 Y34.781 E12.26239
G1 X81.668 Y34.314 E12.27198
G1 X81.835 Y33.576 E12.28739
G1 X82.003 Y33.065 E12.29833
G1 F3000 E6.29833
G0 F6000 X85.543 Y30.531
G0 X86.438 Y30.114
G0 X87.393 Y29.858
G0 X88.361 Y29.773
G0 X97.881 Y29.778
G0 X113.825 Y55.628
G1 F3000 E12.29833
G1 F420 X113.823 Y59.669 E12.38059
G1 X113.791 Y60.272 E12.39288
G1 X113.729 Y60.739 E12.40247
G1 X113.544 Y61.552 E12.41944
G1 X113.351 Y62.127 E12.43179
G1 X113.101 Y62.708 E12.44466
G1 X112.84 Y63.195 E12.45591
G1 X112.457 Y63.781 E12.47016
G1 X112.071 Y64.271 E12.48286
G1 X111.651 Y64.716 E12.49531
G1 X111.173 Y65.144 E12.50837
G1 X110.774 Y65.447 E12.51857
G1 X110.148 Y65.841 E12.53363
G1 X109.835 Y66.001 E12.54078
G1 X110.289 Y66.24 E12.55123
G1 X110.84 Y66.6 E12.56462
G1 X111.24 Y66.911 E12.57494
G1 X111.792 Y67.425 E12.59029
G1 X112.184 Y67.866 E12.6023
G1 X112.582 Y68.396 E12.61579
G1 X112.904 Y68.916 E12.62824
G1 X113.197 Y69.498 E12.6415
G1 X113.424 Y70.073 E12.65409
G1 X113.593 Y70.628 E12.6659
G1 X113.732 Y71.293 E12.67973
G1 X113.806 Y71.908 E12.69233
G1 X113.823 Y72.352 E12.70138
G1 X113.825 Y85.013 E12.9591
G1 X124.673 Y66.205 E13.40105
G1 X124.838 Y66.017 E13.40614
G1 X113.825 Y55.628 E13.71432
G0 F6000 X113.425 Y54.701
G1 F420 X113.424 Y59.648 E13.81502
G1 X113.394 Y60.219 E13.82666
G1 X113.332 Y60.686 E13.83625
G1 X113.164 Y61.426 E13.85169
G1 X112.983 Y61.97 E13.86336
G1 X112.748 Y62.519 E13.87552
G1 X112.487 Y63.006 E13.88676
G1 X112.143 Y63.534 E13.89959
G1 X111.779 Y63.997 E13.91158
G1 X111.384 Y64.418 E13.92333
G1 X110.931 Y64.825 E13.93573
G1 X110.532 Y65.128 E13.94593
G1 X109.966 Y65.485 E13.95955
G1 X109.483 Y65.732 E13.97059
G1 X108.824 Y65.992 E13.98501
G1 X109.492 Y66.272 E13.99975
G1 X110.103 Y66.594 E14.01381
G1 X110.594 Y66.916 E14.02576
G1 X110.994 Y67.227 E14.03608
G1 X111.494 Y67.692 E14.04998
G1 X111.865 Y68.107 E14.06131
G1 X112.242 Y68.607 E14.07405
G1 X112.547 Y69.097 E14.0858
G1 X112.825 Y69.646 E14.09833
G1 X113.041 Y70.19 E14.11024
G1 X113.21 Y70.745 E14.12205
G1 X113.335 Y71.341 E14.13445
G1 X113.406 Y71.925 E14.14642
G1 X113.425 Y72.36 E14.15528
G1 X113.425 Y86.506 E14.44323
G1 X125.019 Y66.405 E14.91557
G1 X125.408 Y66.005 E14.92693
G1 X113.425 Y54.701 E15.26225
G0 F6000 X113.025 Y54.82
G1 F420 X113.025 Y59.627 E15.3601
G1 X112.997 Y60.166 E15.37108
G1 X112.935 Y60.633 E15.38067
G1 X112.784 Y61.301 E15.39461
G1 X112.615 Y61.813 E15.40559
G1 X112.395 Y62.33 E15.41702
G1 X112.134 Y62.817 E15.42827
G1 X111.828 Y63.287 E15.43969
G1 X111.486 Y63.724 E15.45098
G1 X111.116 Y64.121 E15.46203
G1 X110.689 Y64.506 E15.47373
G1 X110.29 Y64.809 E15.48393
G1 X109.783 Y65.129 E15.49613
G1 X109.333 Y65.361 E15.50644
G1 X108.749 Y65.598 E15.51927
G1 X108.218 Y65.76 E15.53057
G1 X107.669 Y65.876 E15.54199
G1 X107.121 Y65.943 E15.55323
G1 X106.685 Y65.962 E15.56211
G1 X97.437 Y65.957 E15.75036
G1 X97.097 Y65.903 E15.75736
G1 X96.625 Y65.66 E15.76817
G1 X82.324 Y52.17 E16.16834
G1 X82.041 Y51.668 E16.18007
G1 X81.975 Y51.238 E16.18893
G1 X81.975 Y35.372 E16.51188
G1 X82.003 Y34.834 E16.52285
G1 X82.065 Y34.367 E16.53244
G1 X82.215 Y33.7 E16.54636
G1 X82.372 Y33.22 E16.55664
G1 X82.588 Y32.705 E16.568
G1 X82.868 Y32.178 E16.58015
G1 X83.172 Y31.713 E16.59146
G1 X83.514 Y31.276 E16.60275
G1 X83.884 Y30.879 E16.6138
G1 X84.311 Y30.494 E16.6255
G1 X84.71 Y30.191 E16.6357
G1 X85.217 Y29.871 E16.64791
G1 X85.667 Y29.639 E16.65821
G1 X86.251 Y29.402 E16.67104
G1 X86.782 Y29.24 E16.68234
G1 X87.331 Y29.124 E16.69376
G1 X87.876 Y29.057 E16.70494
G1 X88.312 Y29.037 E16.71382
G1 X97.598 Y29.037 E16.90284
G1 X98.012 Y29.14 E16.91153
G1 X98.403 Y29.35 E16.92056
G1 X98.638 Y29.612 E16.92772
G1 X110.975 Y51 E17.43032
G1 X110.975 Y35.372 E17.74843
G1 X111.003 Y34.834 E17.75939
G1 X111.065 Y34.367 E17.76898
G1 X111.215 Y33.7 E17.7829
G1 X111.372 Y33.22 E17.79318
G1 X111.588 Y32.705 E17.80455
G1 X111.868 Y32.178 E17.81669
G1 X112.172 Y31.713 E17.828
G1 X112.514 Y31.276 E17.8393
G1 X112.884 Y30.879 E17.85034
G1 X113.311 Y30.494 E17.86205
G1 X113.71 Y30.191 E17.87224
G1 X114.217 Y29.871 E17.88445
G1 X114.667 Y29.639 E17.89475
G1 X115.251 Y29.402 E17.90758
G1 X115.782 Y29.24 E17.91888
G1 X116.331 Y29.124 E17.9303
G1 X116.876 Y29.057 E17.94148
G1 X117.312 Y29.037 E17.95037
G1 X126.598 Y29.037 E18.13938
G1 X127.012 Y29.14 E18.14807
G1 X127.403 Y29.35 E18.1571
G1 X127.638 Y29.612 E18.16427
G1 X141.889 Y54.318 E18.74483
G1 X142.025 Y54.82 E18.75541
G1 X142.025 Y59.627 E18.85326
G1 X141.997 Y60.166 E18.86425
G1 X141.935 Y60.633 E18.87384
G1 X141.784 Y61.301 E18.88778
G1 X141.615 Y61.813 E18.89875
G1 X141.395 Y62.33 E18.91019
G1 X141.134 Y62.817 E18.92144
G1 X140.828 Y63.287 E18.93285
G1 X140.486 Y63.724 E18.94415
G1 X140.116 Y64.121 E18.95519
G1 X139.689 Y64.506 E18.9669
G1 X139.29 Y64.809 E18.9771
G1 X138.783 Y65.129 E18.9893
G1 X138.333 Y65.361 E18.99961
G1 X137.749 Y65.598 E19.01243
G1 X137.218 Y65.76 E19.02373
G1 X136.669 Y65.876 E19.03516
G1 X136.121 Y65.943 E19.04639
G1 X135.685 Y65.962 E19.05528
G1 X126.437 Y65.957 E19.24352
G1 X126.097 Y65.903 E19.25053
G1 X125.625 Y65.66 E19.26134
G1 X112.039 Y52.844 E19.64151
G1 X112.889 Y54.318 E19.67614
G1 X113.025 Y54.82 E19.68673
G1 F3000 E13.68673
G0 F6000 X112.093 Y61.044
G0 X111.76 Y61.957
G0 X111.62 Y62.199
G0 X108.871 Y66.444
G1 F3000 E19.68673
G1 F420 X109.306 Y66.626 E19.69633
G1 X109.884 Y66.929 E19.70961
G1 X110.348 Y67.232 E19.72089
G1 X110.748 Y67.543 E19.73121
G1 X111.197 Y67.96 E19.74368
G1 X111.546 Y68.348 E19.7543
G1 X111.903 Y68.82 E19.76635
G1 X112.191 Y69.279 E19.77738
G1 X112.454 Y69.795 E19.78917
G1 X112.659 Y70.307 E19.80039
G1 X112.819 Y70.828 E19.81149
G1 X112.938 Y71.39 E19.82318
G1 X113.006 Y71.942 E19.8345
G1 X113.025 Y72.377 E19.84337
G1 X113.025 Y87.999 E20.16135
G1 X125.339 Y66.65 E20.66302
G1 X125.633 Y66.347 E20.67162
G1 X126.008 Y66.112 E20.68063
G1 X126.357 Y66.037 E20.68789
G1 X135.689 Y66.038 E20.87785
G1 X136.226 Y66.066 E20.88879
G1 X136.693 Y66.127 E20.89838
G1 X137.343 Y66.274 E20.91194
G1 X137.871 Y66.444 E20.92323
G1 X138.306 Y66.626 E20.93283
G1 X138.884 Y66.929 E20.94612
G1 X139.348 Y67.232 E20.9574
G1 X139.748 Y67.543 E20.96771
G1 X140.197 Y67.96 E20.98018
G1 X140.546 Y68.348 E20.99081
G1 X140.903 Y68.82 E21.00285
G1 X141.191 Y69.279 E21.01388
G1 X141.454 Y69.795 E21.02567
G1 X141.659 Y70.307 E21.0369
G1 X141.819 Y70.828 E21.04799
G1 X141.938 Y71.39 E21.05969
G1 X142.006 Y71.942 E21.07101
G1 X142.025 Y72.377 E21.07987
G1 X142.025 Y88.358 E21.40517
G1 X141.848 Y88.916 E21.41708
G1 X141.584 Y89.255 E21.42583
G1 X127.375 Y102.66 E21.82345
G1 X126.9 Y102.904 E21.83432
G1 X126.5 Y102.962 E21.84255
G1 X117.294 Y102.961 E22.02994
G1 X116.774 Y102.934 E22.04054
G1 X116.307 Y102.873 E22.05013
G1 X115.657 Y102.726 E22.06369
G1 X115.129 Y102.556 E22.07498
G1 X114.694 Y102.374 E22.08458
G1 X114.116 Y102.071 E22.09786
G1 X113.652 Y101.768 E22.10914
G1 X113.252 Y101.457 E22.11946
G1 X112.828 Y101.065 E22.13121
G1 X112.432 Y100.627 E22.14323
G1 X112.106 Y100.194 E22.15426
G1 X111.82 Y99.738 E22.16522
G1 X111.546 Y99.205 E22.17742
G1 X111.341 Y98.693 E22.18864
G1 X111.181 Y98.172 E22.19974
G1 X111.062 Y97.61 E22.21143
G1 X110.994 Y97.058 E22.22275
G1 X110.975 Y96.622 E22.23164
G1 X110.975 Y91.82 E22.32938
G1 X111.111 Y91.318 E22.33997
G1 X111.963 Y89.841 E22.37468
G1 X98.375 Y102.66 E22.75492
G1 X97.9 Y102.904 E22.76579
G1 X97.5 Y102.962 E22.77402
G1 X88.294 Y102.961 E22.96141
G1 X87.774 Y102.934 E22.97201
G1 X87.307 Y102.873 E22.98159
G1 X86.657 Y102.726 E22.99516
G1 X86.129 Y102.556 E23.00645
G1 X85.694 Y102.374 E23.01605
G1 X85.116 Y102.071 E23.02933
