;FLAVOR:Marlin
;TIME:2545
;Filament used: 1.24443m
;Layer height: 0.16
;MINX:0
;MINY:0
;MINZ:0.2
;MAXX:148.7
;MAXY:131.2
;MAXZ:5.84
;TARGET_MACHINE.NAME:Creality Ender-3
;Generated with Cura_SteamEngine 5.11.0
M140 S80
M105
M190 S80
M104 S245
M105
M109 S245
; Ender 3 Custom Start G-code
G92 E0 ; Reset Extruder
G28 ; Home all axes
G1 Z2.0 F3000 ; Move Z Axis up little to prevent scratching of Heat Bed
G1 X0.1 Y20 Z0.3 F5000.0 ; Move to start position
G1 X0.1 Y200.0 Z0.3 F1500.0 E15 ; Draw the first line
G1 X0.4 Y200.0 Z0.3 F5000.0 ; Move to side a little
G1 X0.4 Y20 Z0.3 F1500.0 E30 ; Draw the second line
G92 E0 ; Reset Extruder
G1 Z2.0 F3000 ; Move Z Axis up little to prevent scratching of Heat Bed
G1 X5 Y20 Z0.3 F5000.0 ; Move over to prevent blob squish
M82 ;absolute extrusion mode
G92 E0
G92 E0
G1 F3000 E-6
;LAYER_COUNT:34
;LAYER:0
M107
G1 F300 Z1.2
G0 F6000 X0.00 Y0.00 Z1.2
G0 X87.156 Y104.274
;TYPE:SKIRT
G1 F300 Z0.2
G1 F3000 E0
G1 F420 X87.751 Y103.919 E0.02351
G1 X88.434 Y103.805 E0.047
G1 X145.5 Y103.8 E1.98298
G1 X146.169 Y103.892 E2.00589
G1 X146.892 Y104.28 E2.03373
G1 X148.22 Y105.608 E2.09744
G1 X148.608 Y106.331 E2.12528
G1 X148.7 Y107 E2.14819
G1 X148.696 Y128.058 E2.86259
G1 X148.607 Y128.671 E2.8836
G1 X148.22 Y129.392 E2.91136
G1 X146.892 Y130.72 E2.97508
G1 X146.169 Y131.108 E3.00291
G1 X145.5 Y131.2 E3.02582
G1 X88.302 Y131.2 E4.96628
G1 X87.742 Y131.063 E4.98584
G1 X87.162 Y130.763 E5.008
G1 X86.774 Y130.344 E5.02737
G1 X86.419 Y129.749 E5.05088
G1 X86.305 Y129.066 E5.07437
G1 X86.3 Y105.802 E5.86361
G1 X86.437 Y105.242 E5.88316
G1 X86.737 Y104.662 E5.90532
G1 X87.156 Y104.274 E5.92469
G0 F6000 X87.398 Y104.595
G1 F420 X87.889 Y104.302 E5.94409
G1 X88.5 Y104.2 E5.9651
G1 X145.5 Y104.2 E7.89885
G1 X146.043 Y104.279 E7.91746
G1 X146.651 Y104.605 E7.94087
G1 X147.895 Y105.849 E8.00055
G1 X148.221 Y106.457 E8.02396
G1 X148.3 Y107 E8.04257
G1 X148.3 Y128 E8.755
G1 X148.221 Y128.543 E8.77362
G1 X147.895 Y129.151 E8.79702
G1 X146.651 Y130.395 E8.85671
G1 X146.043 Y130.721 E8.88011
G1 X145.5 Y130.8 E8.89873
G1 X88.352 Y130.8 E10.83749
G1 X87.881 Y130.685 E10.85394
G1 X87.408 Y130.44 E10.87201
G1 X87.095 Y130.102 E10.88764
G1 X86.802 Y129.611 E10.90704
G1 X86.7 Y129 E10.92805
G1 X86.7 Y105.852 E11.71336
G1 X86.815 Y105.381 E11.72981
G1 X87.06 Y104.908 E11.74788
G1 X87.398 Y104.595 E11.76351
G0 F6000 X87.64 Y104.916
G1 F420 X88.027 Y104.685 E11.7788
G1 X88.5 Y104.6 E11.7951
G1 X145.5 Y104.6 E13.72884
G1 X145.914 Y104.664 E13.74306
G1 X146.41 Y104.93 E13.76215
G1 X147.57 Y106.09 E13.8178
G1 X147.836 Y106.586 E13.8369
G1 X147.9 Y107 E13.85111
G1 X147.9 Y128 E14.56354
G1 X147.836 Y128.414 E14.57775
G1 X147.57 Y128.91 E14.59685
G1 X146.41 Y130.07 E14.6525
G1 X145.914 Y130.336 E14.6716
G1 X145.5 Y130.4 E14.68581
G1 X88.402 Y130.4 E16.62288
G1 X88.02 Y130.307 E16.63622
G1 X87.654 Y130.117 E16.65021
G1 X87.416 Y129.86 E16.66209
G1 X87.185 Y129.473 E16.67738
G1 X87.1 Y129 E16.69368
G1 X87.1 Y105.902 E17.47729
G1 X87.193 Y105.52 E17.49063
G1 X87.383 Y105.154 E17.50462
G1 X87.64 Y104.916 E17.5165
G0 F6000 X87.845 Y105.26
G1 F420 X87.707 Y105.399 E17.52315
G1 X87.57 Y105.662 E17.53321
G1 X87.5 Y105.951 E17.54329
G1 X87.5 Y129 E18.32524
G1 X87.565 Y129.328 E18.33658
G1 X87.76 Y129.655 E18.3495
G1 X87.899 Y129.793 E18.35614
G1 X88.162 Y129.93 E18.3662
G1 X88.451 Y130 E18.37629
G1 X145.5 Y130 E20.3117
G1 X145.785 Y129.952 E20.3215
G1 X146.167 Y129.747 E20.33621
G1 X147.247 Y128.667 E20.38803
G1 X147.452 Y128.285 E20.40274
G1 X147.5 Y128 E20.41254
G1 X147.5 Y107 E21.12497
G1 X147.452 Y106.715 E21.13478
G1 X147.247 Y106.333 E21.14949
G1 X146.167 Y105.253 E21.2013
G1 X145.785 Y105.048 E21.21601
G1 X145.5 Y105 E21.22581
G1 X88.5 Y105 E23.15956
G1 X88.172 Y105.065 E23.1709
G1 X87.845 Y105.26 E23.18382
G0 F6000 X88.339 Y105.881
G1 F420 X88.5 Y105.8 E23.18993
G1 X145.5 Y105.8 E25.12368
G1 X145.641 Y105.859 E25.12886
G1 X146.641 Y106.859 E25.17684
G1 X146.7 Y107 E25.18202
G1 X146.7 Y128 E25.89446
G1 X146.641 Y128.141 E25.89964
G1 X145.641 Y129.141 E25.94762
G1 X145.5 Y129.2 E25.95281
G1 X88.5 Y129.2 E27.88655
G1 X88.381 Y129.161 E27.8908
G1 X88.3 Y129 E27.89691
G1 X88.3 Y106 E28.6772
G1 X88.339 Y105.881 E28.68144
G0 F6000 X87.959 Y105.756
G1 F420 X88.05 Y105.604 E28.68745
G1 X88.32 Y105.443 E28.69812
G1 X88.5 Y105.4 E28.7044
G1 X145.5 Y105.4 E30.63814
G1 X145.654 Y105.431 E30.64347
G1 X145.924 Y105.576 E30.65387
G1 X146.924 Y106.576 E30.70185
G1 X147.069 Y106.846 E30.71224
G1 X147.1 Y107 E30.71757
G1 X147.1 Y128 E31.43
G1 X147.069 Y128.154 E31.43533
G1 X146.924 Y128.424 E31.44573
G1 X145.924 Y129.424 E31.49371
G1 X145.654 Y129.569 E31.50411
G1 X145.5 Y129.6 E31.50943
G1 X88.5 Y129.6 E33.44318
G1 X88.256 Y129.541 E33.45169
G1 X88.104 Y129.45 E33.45771
G1 X87.943 Y129.18 E33.46837
G1 X87.9 Y129 E33.47465
G1 X87.9 Y106 E34.25493
G1 X87.959 Y105.756 E34.26345
G1 F3000 E28.26345
;MESH:Ultrasonic-Sensor-Bracket-Vertical.stl
G0 F6000 X88.924 Y106.424
G0 X88.7 Y128.8
;TYPE:WALL-OUTER
G1 F3000 E34.26345
G1 F420 X145.413 Y128.8 E36.18745
G1 X146.3 Y127.913 E36.23001
G1 X146.3 Y107.084 E36.93664
G1 X145.413 Y106.2 E36.97913
G1 X88.701 Y106.201 E38.9031
G1 X88.7 Y128.8 E39.66978
G1 F3000 E33.66978
G0 F6000 X88.98 Y128.52
G0 X111.296 Y126.328
G0 X111.125 Y125.639
G1 F3000 E39.66978
G1 F420 X110.31 Y125.756 E39.69771
G1 X109.49 Y125.796 E39.72556
G1 X108.686 Y125.756 E39.75287
G1 X107.875 Y125.639 E39.78067
G1 X107.103 Y125.447 E39.80766
G1 X106.324 Y125.169 E39.83572
G1 X105.58 Y124.816 E39.86366
G1 X104.873 Y124.39 E39.89166
G1 X104.241 Y123.926 E39.91826
G1 X103.623 Y123.363 E39.94662
G1 X103.087 Y122.771 E39.97371
G1 X102.596 Y122.108 E40.0017
G1 X102.18 Y121.416 E40.02909
G1 X101.827 Y120.671 E40.05706
G1 X101.554 Y119.898 E40.08487
G1 X101.354 Y119.105 E40.11262
G1 X101.24 Y118.31 E40.13987
G1 X101.2 Y117.49 E40.16772
G1 X101.24 Y116.686 E40.19503
G1 X101.358 Y115.874 E40.22286
G1 X101.559 Y115.085 E40.25049
G1 X101.827 Y114.325 E40.27782
G1 X102.18 Y113.58 E40.30579
G1 X102.596 Y112.888 E40.33318
G1 X103.075 Y112.24 E40.36052
G1 X103.637 Y111.624 E40.38881
G1 X104.24 Y111.075 E40.41648
G1 X104.888 Y110.596 E40.44381
G1 X105.581 Y110.18 E40.47124
G1 X106.325 Y109.827 E40.49917
G1 X107.102 Y109.554 E40.52711
G1 X107.895 Y109.354 E40.55486
G1 X108.686 Y109.24 E40.58197
G1 X109.51 Y109.2 E40.60996
G1 X110.31 Y109.24 E40.63713
G1 X111.126 Y109.358 E40.6651
G1 X111.915 Y109.559 E40.69272
G1 X112.671 Y109.827 E40.71994
G1 X113.415 Y110.18 E40.74787
G1 X114.108 Y110.596 E40.77529
G1 X114.771 Y111.087 E40.80328
G1 X115.363 Y111.623 E40.83038
G1 X115.926 Y112.241 E40.85874
G1 X116.4 Y112.888 E40.88595
G1 X116.816 Y113.58 E40.91334
G1 X117.169 Y114.324 E40.94128
G1 X117.444 Y115.093 E40.96898
G1 X117.641 Y115.885 E40.99667
G1 X117.756 Y116.676 E41.02379
G1 X117.796 Y117.5 E41.05177
G1 X117.756 Y118.32 E41.07963
G1 X117.639 Y119.125 E41.10722
G1 X117.441 Y119.916 E41.13489
G1 X117.161 Y120.69 E41.16281
G1 X116.816 Y121.416 E41.19008
G1 X116.39 Y122.123 E41.21808
G1 X115.913 Y122.771 E41.24538
G1 X115.363 Y123.377 E41.27314
G1 X114.771 Y123.913 E41.30024
G1 X114.108 Y124.4 E41.32814
G1 X113.416 Y124.816 E41.35554
G1 X112.672 Y125.169 E41.38347
G1 X111.897 Y125.447 E41.41141
G1 X111.125 Y125.639 E41.43839
G1 F3000 E35.43839
G0 F6000 X111.296 Y126.328
G0 X135.5 Y126.451
G0 X137.296 Y126.328
G0 X137.125 Y125.639
G1 F3000 E41.43839
G1 F420 X136.31 Y125.756 E41.46633
G1 X135.49 Y125.796 E41.49418
G1 X134.686 Y125.756 E41.52149
G1 X133.875 Y125.639 E41.54929
G1 X133.103 Y125.447 E41.57627
G1 X132.324 Y125.169 E41.60433
G1 X131.58 Y124.816 E41.63227
G1 X130.873 Y124.39 E41.66028
G1 X130.241 Y123.926 E41.68687
G1 X129.623 Y123.363 E41.71524
G1 X129.087 Y122.771 E41.74233
G1 X128.596 Y122.108 E41.77032
G1 X128.18 Y121.416 E41.79771
G1 X127.827 Y120.671 E41.82568
G1 X127.556 Y119.907 E41.85318
G1 X127.355 Y119.115 E41.8809
G1 X127.24 Y118.318 E41.90822
G1 X127.2 Y117.49 E41.93634
G1 X127.24 Y116.676 E41.96399
G1 X127.358 Y115.874 E41.99149
G1 X127.559 Y115.085 E42.01911
G1 X127.835 Y114.306 E42.04715
G1 X128.18 Y113.58 E42.07442
G1 X128.596 Y112.888 E42.10181
G1 X129.075 Y112.24 E42.12915
G1 X129.637 Y111.624 E42.15744
G1 X130.24 Y111.075 E42.1851
G1 X130.888 Y110.596 E42.21244
G1 X131.581 Y110.18 E42.23986
G1 X132.325 Y109.827 E42.2678
G1 X133.102 Y109.554 E42.29574
G1 X133.874 Y109.358 E42.32276
G1 X134.686 Y109.24 E42.3506
G1 X135.51 Y109.2 E42.37858
G1 X136.31 Y109.24 E42.40576
G1 X137.126 Y109.358 E42.43373
G1 X137.915 Y109.559 E42.46135
G1 X138.671 Y109.827 E42.48856
G1 X139.415 Y110.18 E42.5165
G1 X140.108 Y110.596 E42.54392
G1 X140.771 Y111.087 E42.57191
G1 X141.363 Y111.623 E42.599
G1 X141.926 Y112.241 E42.62736
G1 X142.4 Y112.888 E42.65457
G1 X142.816 Y113.58 E42.68197
G1 X143.169 Y114.324 E42.7099
G1 X143.447 Y115.103 E42.73796
G1 X143.639 Y115.875 E42.76495
G1 X143.756 Y116.686 E42.79275
G1 X143.796 Y117.511 E42.82077
G1 X143.756 Y118.311 E42.84794
G1 X143.639 Y119.125 E42.87584
G1 X143.447 Y119.897 E42.90283
G1 X143.169 Y120.672 E42.93076
G1 X142.816 Y121.416 E42.9587
G1 X142.39 Y122.123 E42.9867
G1 X141.913 Y122.771 E43.014
G1 X141.363 Y123.377 E43.04177
G1 X140.771 Y123.913 E43.06886
G1 X140.108 Y124.4 E43.09677
G1 X139.416 Y124.816 E43.12416
G1 X138.672 Y125.169 E43.1521
G1 X137.897 Y125.447 E43.18003
G1 X137.125 Y125.639 E43.20702
G0 F6000 X137.221 Y126.027
;TYPE:WALL-INNER
G1 F420 X136.33 Y126.156 E43.23786
G1 X135.47 Y126.196 E43.26736
G1 X134.609 Y126.15 E43.29691
G1 X133.778 Y126.027 E43.32569
G1 X133.007 Y125.835 E43.35292
G1 X132.134 Y125.523 E43.38468
G1 X131.374 Y125.159 E43.41356
G1 X130.636 Y124.712 E43.44312
G1 X129.955 Y124.208 E43.47215
G1 X129.367 Y123.672 E43.49941
G1 X128.753 Y122.994 E43.53075
G1 X128.253 Y122.314 E43.55968
G1 X127.809 Y121.57 E43.58936
G1 X127.465 Y120.843 E43.61692
G1 X127.173 Y120.023 E43.64675
G1 X126.969 Y119.221 E43.6751
G1 X126.842 Y118.353 E43.70516
G1 X126.8 Y117.47 E43.73545
G1 X126.842 Y116.637 E43.76403
G1 X126.963 Y115.808 E43.79273
G1 X127.173 Y114.977 E43.8221
G1 X127.457 Y114.171 E43.85138
G1 X127.837 Y113.374 E43.88164
G1 X128.285 Y112.634 E43.91128
G1 X128.753 Y112.002 E43.93823
G1 X129.367 Y111.328 E43.96947
G1 X130.002 Y110.753 E43.99882
G1 X130.682 Y110.253 E44.02774
G1 X131.426 Y109.809 E44.05743
G1 X132.192 Y109.45 E44.08641
G1 X133.004 Y109.166 E44.11589
G1 X133.82 Y108.961 E44.14472
G1 X134.666 Y108.84 E44.174
G1 X135.53 Y108.8 E44.20364
G1 X136.33 Y108.84 E44.23108
G1 X137.224 Y108.97 E44.26204
G1 X138.049 Y109.182 E44.29122
G1 X138.805 Y109.45 E44.31871
G1 X139.57 Y109.809 E44.34766
G1 X140.362 Y110.285 E44.37932
G1 X140.994 Y110.753 E44.40627
G1 X141.672 Y111.367 E44.43761
G1 X142.248 Y112.004 E44.46704
G1 X142.743 Y112.682 E44.4958
G1 X143.159 Y113.374 E44.52347
G1 X143.523 Y114.134 E44.55234
G1 X143.835 Y115.007 E44.58411
G1 X144.027 Y115.779 E44.61137
G1 X144.156 Y116.666 E44.64208
G1 X144.196 Y117.531 E44.67175
G1 X144.156 Y118.331 E44.6992
G1 X144.036 Y119.18 E44.72858
G1 X143.835 Y119.993 E44.75727
G1 X143.523 Y120.862 E44.78891
G1 X143.159 Y121.622 E44.81778
G1 X142.712 Y122.36 E44.84735
G1 X142.248 Y122.992 E44.87421
G1 X141.631 Y123.673 E44.9057
G1 X140.992 Y124.248 E44.93515
G1 X140.314 Y124.743 E44.96392
G1 X139.57 Y125.187 E44.9936
G1 X138.862 Y125.523 E45.02046
G1 X137.993 Y125.835 E45.05209
G1 X137.221 Y126.027 E45.07935
G0 F6000 X137.219 Y126.434
G1 F420 X136.35 Y126.555 E45.10941
G1 X135.5 Y126.596 E45.13857
G1 X134.552 Y126.546 E45.1711
G1 X133.682 Y126.415 E45.20125
G1 X132.815 Y126.194 E45.2319
G1 X131.963 Y125.884 E45.26297
G1 X131.255 Y125.548 E45.28982
G1 X130.476 Y125.086 E45.32086
G1 X129.768 Y124.571 E45.35085
G1 X129.03 Y123.9 E45.38503
G1 X128.432 Y123.232 E45.41575
G1 X127.91 Y122.52 E45.446
G1 X127.448 Y121.741 E45.47704
G1 X127.086 Y120.973 E45.50613
G1 X126.778 Y120.095 E45.53801
G1 X126.57 Y119.269 E45.5672
G1 X126.443 Y118.388 E45.59769
G1 X126.4 Y117.5 E45.62816
G1 X126.444 Y116.598 E45.6591
G1 X126.57 Y115.73 E45.68915
G1 X126.804 Y114.819 E45.72138
G1 X127.085 Y114.024 E45.75027
G1 X127.494 Y113.168 E45.78278
G1 X127.964 Y112.396 E45.81375
G1 X128.432 Y111.764 E45.8407
G1 X129.032 Y111.098 E45.87141
G1 X129.764 Y110.432 E45.90532
G1 X130.476 Y109.91 E45.93557
G1 X131.255 Y109.448 E45.9666
G1 X131.963 Y109.112 E45.99346
G1 X132.906 Y108.778 E46.02774
G1 X133.78 Y108.562 E46.05858
G1 X134.646 Y108.441 E46.08855
G1 X135.5 Y108.4 E46.11784
G1 X136.35 Y108.441 E46.147
G1 X137.323 Y108.583 E46.18069
G1 X138.183 Y108.805 E46.21113
G1 X139.033 Y109.112 E46.24209
G1 X139.827 Y109.494 E46.27228
G1 X140.52 Y109.91 E46.29998
G1 X141.308 Y110.494 E46.33359
G1 X141.899 Y111.03 E46.36092
G1 X142.571 Y111.768 E46.39512
G1 X143.086 Y112.476 E46.42512
G1 X143.502 Y113.168 E46.45279
G1 X143.922 Y114.054 E46.48638
G1 X144.223 Y114.91 E46.51748
G1 X144.434 Y115.78 E46.54815
G1 X144.555 Y116.646 E46.57811
G1 X144.596 Y117.5 E46.60741
G1 X144.555 Y118.351 E46.6366
G1 X144.43 Y119.249 E46.66767
G1 X144.194 Y120.187 E46.70081
G1 X143.884 Y121.033 E46.73168
G1 X143.502 Y121.828 E46.7619
G1 X143.086 Y122.52 E46.78957
G1 X142.571 Y123.228 E46.81957
G1 X141.97 Y123.9 E46.85046
G1 X141.308 Y124.506 E46.88121
G1 X140.52 Y125.086 E46.91474
G1 X139.741 Y125.548 E46.94577
G1 X138.943 Y125.922 E46.97597
G1 X138.09 Y126.223 E47.00696
G1 X137.219 Y126.434 E47.03767
G0 F6000 X145.126 Y128.098
G0 X145.247 Y128.4
G1 F420 X145.9 Y127.747 E47.06931
G1 X145.9 Y107.25 E47.77163
G1 X145.248 Y106.6 E47.80318
G1 X89.101 Y106.601 E49.72703
G1 X89.1 Y128.4 E50.47397
G1 X145.247 Y128.4 E52.39782
G0 F6000 X145.081 Y128
G1 F420 X145.5 Y127.581 E52.41812
G1 X145.5 Y107.416 E53.10907
G1 X145.082 Y107 E53.12928
G1 X89.501 Y107.001 E55.03374
G1 X89.5 Y128 E55.75326
G1 X145.081 Y128 E57.65772
G0 F6000 X144.916 Y127.6
G1 F420 X145.1 Y127.416 E57.66663
G1 X145.1 Y120.246 E57.91231
G1 F333.6 X144.999 Y119.45 E57.94675
G1 F259.3 X144.961 Y119.342 E57.95302
G1 X144.901 Y119.438 E57.95923
G1 F333.6 X144.612 Y120.187 E57.99368
G1 F420 X144.57 Y120.323 E57.99856
G1 X144.246 Y121.205 E58.03076
G1 X143.845 Y122.034 E58.06231
G1 X143.429 Y122.726 E58.08998
G1 X142.893 Y123.465 E58.12126
G1 X142.266 Y124.168 E58.15353
G1 X141.525 Y124.849 E58.18802
G1 X140.833 Y125.357 E58.21743
G1 X140.034 Y125.844 E58.24949
G1 X139.205 Y126.245 E58.28105
G1 X138.323 Y126.57 E58.31326
G1 X137.415 Y126.803 E58.34538
G1 F338.5 X137.29 Y126.922 E58.35268
G1 F300.4 X136.373 Y127.016 E58.3965
G1 F326.3 X135.5 Y127.047 E58.43482
G1 F323.7 X134.485 Y127.006 E58.47972
G1 F297.6 X133.709 Y126.923 E58.51716
G1 F338.5 X133.585 Y126.803 E58.52446
G1 F420 X132.68 Y126.571 E58.55647
G1 X131.919 Y126.299 E58.58416
G1 X131.022 Y125.88 E58.61808
G1 X130.163 Y125.357 E58.65254
G1 X129.471 Y124.849 E58.68196
G1 X128.734 Y124.168 E58.71634
G1 X128.11 Y123.47 E58.74842
G1 X127.642 Y122.838 E58.77537
G1 X127.152 Y122.034 E58.80763
G1 X126.73 Y121.16 E58.84088
G1 X126.408 Y120.256 E58.87377
G1 X126.176 Y119.346 E58.90594
G1 X126.041 Y118.37 E58.93971
G1 X126.001 Y117.43 E58.97194
G1 X126.046 Y116.56 E59.00179
G1 X126.178 Y115.653 E59.0332
G1 X126.39 Y114.807 E59.06308
G1 X126.713 Y113.877 E59.09682
G1 X127.117 Y113.02 E59.12928
G1 X127.642 Y112.158 E59.16386
G1 X128.153 Y111.468 E59.19328
G1 X128.828 Y110.737 E59.22738
G1 X129.526 Y110.11 E59.25952
G1 X130.158 Y109.642 E59.28647
G1 X130.963 Y109.152 E59.31876
G1 X131.858 Y108.719 E59.35283
G1 X132.807 Y108.39 E59.38725
G1 X133.579 Y108.195 E59.41453
G1 F339.9 X133.71 Y108.075 E59.42202
G1 F301.5 X134.623 Y107.981 E59.46549
G1 F327.6 X135.5 Y107.95 E59.50383
G1 F325 X136.51 Y107.991 E59.54834
G1 F299.2 X137.29 Y108.075 E59.58577
G1 F339.9 X137.421 Y108.195 E59.59326
G1 F420 X138.193 Y108.39 E59.62054
G1 X139.141 Y108.72 E59.65493
G1 X140.033 Y109.152 E59.68889
G1 X140.838 Y109.642 E59.72119
G1 X141.47 Y110.11 E59.74813
G1 X142.168 Y110.734 E59.78021
G1 X142.848 Y111.469 E59.81452
G1 X143.429 Y112.27 E59.84843
G1 X143.845 Y112.962 E59.87609
G1 X144.274 Y113.849 E59.90985
G1 X144.612 Y114.813 E59.94486
G1 F345.6 X144.884 Y115.566 E59.97805
G1 F268 X144.964 Y115.703 E59.98648
