;FLAVOR:Marlin
;TIME:6148
;Filament used: 3.22542m
;Layer height: 0.16
;MINX:0
;MINY:0
;MINZ:0.2
;MAXX:168.696
;MAXY:149.7
;MAXZ:7.92
;TARGET_MACHINE.NAME:Creality Ender-3
;Generated with Cura_SteamEngine 5.11.0
M140 S80
M105
M190 S80
M104 S245
M105
M109 S245
; Ender 3 Custom Start G-code
G92 E0 ; Reset Extruder
G28 ; Home all axes
G1 Z2.0 F3000 ; Move Z Axis up little to prevent scratching of Heat Bed
G1 X0.1 Y20 Z0.3 F5000.0 ; Move to start position
G1 X0.1 Y200.0 Z0.3 F1500.0 E15 ; Draw the first line
G1 X0.4 Y200.0 Z0.3 F5000.0 ; Move to side a little
G1 X0.4 Y20 Z0.3 F1500.0 E30 ; Draw the second line
G92 E0 ; Reset Extruder
G1 Z2.0 F3000 ; Move Z Axis up little to prevent scratching of Heat Bed
G1 X5 Y20 Z0.3 F5000.0 ; Move over to prevent blob squish
M82 ;absolute extrusion mode
G92 E0
G92 E0
G1 F3000 E-6
;LAYER_COUNT:44
;LAYER:0
M107
G1 F300 Z1.2
G0 F6000 X0.00 Y0.00 Z1.2
G0 X91.78 Y88.108
;TYPE:SKIRT
G1 F300 Z0.2
G1 F3000 E0
G1 F420 X93.108 Y86.78 E0.06371
G1 X93.831 Y86.392 E0.09155
G1 X94.5 Y86.3 E0.11446
G1 X140.5 Y86.3 E1.67503
G1 X141.169 Y86.392 E1.69794
G1 X141.892 Y86.78 E1.72577
G1 X143.22 Y88.108 E1.78949
G1 X143.608 Y88.831 E1.81732
G1 X143.7 Y89.5 E1.84023
G1 X143.7 Y116.698 E2.76294
G1 X143.553 Y117.3 E2.78396
G1 X166.698 Y117.3 E3.56916
G1 X167.258 Y117.437 E3.58872
G1 X167.838 Y117.737 E3.61087
G1 X168.226 Y118.156 E3.63024
G1 X168.581 Y118.751 E3.65375
G1 X168.695 Y119.434 E3.67724
G1 X168.696 Y146.558 E4.59743
G1 X168.607 Y147.171 E4.61845
G1 X168.22 Y147.892 E4.64621
G1 X166.892 Y149.22 E4.70992
G1 X166.169 Y149.608 E4.73776
G1 X165.5 Y149.7 E4.76067
G1 X119.439 Y149.695 E6.3233
G1 X118.826 Y149.605 E6.34432
G1 X118.108 Y149.22 E6.37196
G1 X117.5 Y148.612 E6.40113
G1 X116.892 Y149.22 E6.4303
G1 X116.169 Y149.608 E6.45814
G1 X115.5 Y149.7 E6.48105
G1 X69.442 Y149.696 E8.04358
G1 X68.829 Y149.607 E8.0646
G1 X68.108 Y149.22 E8.09236
G1 X66.78 Y147.892 E8.15607
G1 X66.392 Y147.169 E8.18391
G1 X66.3 Y146.5 E8.20682
G1 X66.3 Y119.302 E9.12952
G1 X66.437 Y118.742 E9.14908
G1 X66.737 Y118.162 E9.17123
G1 X67.156 Y117.774 E9.1906
G1 X67.751 Y117.419 E9.21411
G1 X68.434 Y117.305 E9.2376
G1 X91.428 Y117.3 E10.01768
G1 X91.305 Y116.566 E10.04293
G1 X91.304 Y89.442 E10.96312
G1 X91.393 Y88.829 E10.98413
G1 X91.78 Y88.108 E11.0119
G0 F6000 X92.105 Y88.349
G1 F420 X93.349 Y87.105 E11.07158
G1 X93.957 Y86.779 E11.09498
G1 X94.5 Y86.7 E11.1136
G1 X140.5 Y86.7 E12.67417
G1 X141.043 Y86.779 E12.69278
G1 X141.651 Y87.105 E12.71619
G1 X142.895 Y88.349 E12.77587
G1 X143.221 Y88.957 E12.79927
G1 X143.3 Y89.5 E12.81789
G1 X143.3 Y116.648 E13.73889
G1 X143.185 Y117.119 E13.75534
G1 X142.972 Y117.53 E13.77105
G1 X142.823 Y117.7 E13.77872
G1 X166.648 Y117.7 E14.58699
G1 X167.119 Y117.815 E14.60344
G1 X167.592 Y118.06 E14.62151
G1 X167.905 Y118.398 E14.63714
G1 X168.198 Y118.889 E14.65653
G1 X168.3 Y119.5 E14.67755
G1 X168.3 Y146.5 E15.59353
G1 X168.221 Y147.043 E15.61215
G1 X167.895 Y147.651 E15.63555
G1 X166.651 Y148.895 E15.69524
G1 X166.043 Y149.221 E15.71864
G1 X165.5 Y149.3 E15.73726
G1 X119.439 Y149.295 E17.29989
G1 X118.955 Y149.22 E17.31651
G1 X118.349 Y148.895 E17.33984
G1 X117.5 Y148.046 E17.38057
G1 X116.651 Y148.895 E17.4213
G1 X116.043 Y149.221 E17.44471
G1 X115.5 Y149.3 E17.46332
G1 X69.5 Y149.3 E19.02389
G1 X68.957 Y149.221 E19.0425
G1 X68.349 Y148.895 E19.06591
G1 X67.105 Y147.651 E19.12559
G1 X66.779 Y147.043 E19.149
G1 X66.7 Y146.5 E19.16761
G1 X66.7 Y119.352 E20.08862
G1 X66.815 Y118.881 E20.10507
G1 X67.06 Y118.408 E20.12314
G1 X67.398 Y118.095 E20.13876
G1 X67.889 Y117.802 E20.15816
G1 X68.5 Y117.7 E20.17918
G1 X92.154 Y117.7 E20.98165
G1 X91.802 Y117.111 E21.00493
G1 X91.7 Y116.5 E21.02594
G1 X91.7 Y89.5 E21.94193
G1 X91.779 Y88.957 E21.96054
G1 X92.105 Y88.349 E21.98395
G0 F6000 X92.43 Y88.59
G1 F420 X93.59 Y87.43 E22.0396
G1 X94.086 Y87.164 E22.05869
G1 X94.5 Y87.1 E22.07291
G1 X140.5 Y87.1 E23.63347
G1 X140.914 Y87.164 E23.64768
G1 X141.41 Y87.43 E23.66678
G1 X142.57 Y88.59 E23.72243
G1 X142.836 Y89.086 E23.74153
G1 X142.9 Y89.5 E23.75574
G1 X142.9 Y116.598 E24.67505
G1 X142.807 Y116.98 E24.68838
G1 X142.617 Y117.346 E24.70237
G1 X142.36 Y117.584 E24.71426
G1 X141.973 Y117.815 E24.72955
G1 X141.5 Y117.9 E24.74585
G1 X93.402 Y117.9 E26.37759
G1 X93.02 Y117.807 E26.39093
G1 X92.654 Y117.617 E26.40492
G1 X92.416 Y117.36 E26.4168
G1 X92.185 Y116.973 E26.43209
G1 X92.1 Y116.5 E26.4484
G1 X92.1 Y89.5 E27.36438
G1 X92.164 Y89.086 E27.37859
G1 X92.43 Y88.59 E27.39769
G0 F6000 X92.753 Y88.833
G1 F420 X92.548 Y89.215 E27.4124
G1 X92.5 Y89.5 E27.4222
G1 X92.5 Y116.5 E28.33818
G1 X92.565 Y116.828 E28.34953
G1 X92.76 Y117.155 E28.36244
G1 X92.899 Y117.293 E28.36909
G1 X93.162 Y117.43 E28.37915
G1 X93.451 Y117.5 E28.38924
G1 X141.5 Y117.5 E30.01932
G1 X141.828 Y117.435 E30.03066
G1 X142.155 Y117.24 E30.04358
G1 X142.293 Y117.101 E30.05022
G1 X142.43 Y116.838 E30.06028
G1 X142.5 Y116.549 E30.07037
G1 X142.5 Y89.5 E30.98802
G1 X142.452 Y89.215 E30.99782
G1 X142.247 Y88.833 E31.01253
G1 X141.167 Y87.753 E31.06434
G1 X140.785 Y87.548 E31.07905
G1 X140.5 Y87.5 E31.08886
G1 X94.5 Y87.5 E32.64942
G1 X94.215 Y87.548 E32.65923
G1 X93.833 Y87.753 E32.67394
G1 X92.753 Y88.833 E32.72575
G0 F6000 X93.359 Y89.359
G1 F420 X94.359 Y88.359 E32.77373
G1 X94.5 Y88.3 E32.77891
G1 X140.5 Y88.3 E34.33948
G1 X140.641 Y88.359 E34.34466
G1 X141.641 Y89.359 E34.39264
G1 X141.7 Y89.5 E34.39783
G1 X141.7 Y116.5 E35.31381
G1 X141.661 Y116.619 E35.31806
G1 X141.5 Y116.7 E35.32417
G1 X93.5 Y116.7 E36.95259
G1 X93.381 Y116.661 E36.95684
G1 X93.3 Y116.5 E36.96295
G1 X93.3 Y89.5 E37.87894
G1 X93.359 Y89.359 E37.88412
G0 F6000 X93.076 Y89.076
G1 F420 X94.076 Y88.076 E37.9321
G1 X94.346 Y87.931 E37.9425
G1 X94.5 Y87.9 E37.94783
G1 X140.5 Y87.9 E39.50839
G1 X140.654 Y87.931 E39.51372
G1 X140.924 Y88.076 E39.52412
G1 X141.924 Y89.076 E39.5721
G1 X142.069 Y89.346 E39.58249
G1 X142.1 Y89.5 E39.58782
G1 X142.1 Y116.5 E40.50381
G1 X142.041 Y116.744 E40.51232
G1 X141.95 Y116.896 E40.51833
G1 X141.68 Y117.057 E40.529
G1 X141.5 Y117.1 E40.53528
G1 X93.5 Y117.1 E42.16369
G1 X93.256 Y117.041 E42.17221
G1 X93.104 Y116.95 E42.17822
G1 X92.943 Y116.68 E42.18888
G1 X92.9 Y116.5 E42.19516
G1 X92.9 Y89.5 E43.11115
G1 X92.931 Y89.346 E43.11648
G1 X93.076 Y89.076 E43.12687
G1 F3000 E37.12687
G0 F6000 X92.839 Y89.226
G0 X68.5 Y118.1
G1 F3000 E43.12687
G1 F420 X116.598 Y118.1 E44.75861
G1 X116.98 Y118.193 E44.77195
G1 X117.286 Y118.352 E44.78365
G1 X117.5 Y118.539 E44.79329
G1 X117.64 Y118.416 E44.79961
G1 X118.027 Y118.185 E44.8149
G1 X118.5 Y118.1 E44.83121
G1 X166.598 Y118.1 E46.46295
G1 X166.98 Y118.193 E46.47629
G1 X167.346 Y118.383 E46.49028
G1 X167.584 Y118.64 E46.50216
G1 X167.815 Y119.027 E46.51745
G1 X167.9 Y119.5 E46.53375
G1 X167.9 Y146.5 E47.44974
G1 X167.836 Y146.914 E47.46395
G1 X167.57 Y147.41 E47.48304
G1 X166.41 Y148.57 E47.5387
G1 X165.914 Y148.836 E47.55779
G1 X165.5 Y148.9 E47.572
G1 X119.5 Y148.9 E49.13257
G1 X119.086 Y148.836 E49.14678
G1 X118.59 Y148.57 E49.16588
G1 X117.5 Y147.48 E49.21817
G1 X116.41 Y148.57 E49.27047
G1 X115.914 Y148.836 E49.28956
G1 X115.5 Y148.9 E49.30377
G1 X69.5 Y148.9 E50.86434
G1 X69.086 Y148.836 E50.87855
G1 X68.59 Y148.57 E50.89765
G1 X67.43 Y147.41 E50.9533
G1 X67.164 Y146.914 E50.97239
G1 X67.1 Y146.5 E50.98661
G1 X67.1 Y119.402 E51.90591
G1 X67.193 Y119.02 E51.91925
G1 X67.383 Y118.654 E51.93324
G1 X67.64 Y118.416 E51.94513
G1 X68.027 Y118.185 E51.96042
G1 X68.5 Y118.1 E51.97672
G0 F6000 X68.5 Y118.5
G1 F420 X116.549 Y118.5 E53.6068
G1 X116.838 Y118.57 E53.61689
G1 X117.101 Y118.707 E53.62695
G1 X117.24 Y118.845 E53.63359
G1 X117.435 Y119.172 E53.64651
G1 X117.495 Y119.473 E53.65692
G1 X117.57 Y119.162 E53.66777
G1 X117.707 Y118.899 E53.67783
G1 X117.845 Y118.76 E53.68448
G1 X118.172 Y118.565 E53.69739
G1 X118.5 Y118.5 E53.70874
G1 X166.549 Y118.5 E55.33882
G1 X166.838 Y118.57 E55.3489
G1 X167.101 Y118.707 E55.35897
G1 X167.24 Y118.845 E55.36561
G1 X167.435 Y119.172 E55.37853
G1 X167.5 Y119.5 E55.38987
G1 X167.5 Y146.5 E56.30585
G1 X167.452 Y146.785 E56.31566
G1 X167.247 Y147.167 E56.33037
G1 X166.167 Y148.247 E56.38218
G1 X165.785 Y148.452 E56.39689
G1 X165.5 Y148.5 E56.4067
G1 X119.5 Y148.5 E57.96726
G1 X119.215 Y148.452 E57.97707
G1 X118.833 Y148.247 E57.99177
G1 X117.753 Y147.167 E58.04359
G1 X117.548 Y146.785 E58.0583
G1 X117.5 Y146.5 E58.0681
G1 X117.452 Y146.785 E58.07791
G1 X117.247 Y147.167 E58.09261
G1 X116.167 Y148.247 E58.14443
G1 X115.785 Y148.452 E58.15914
G1 X115.5 Y148.5 E58.16894
G1 X69.5 Y148.5 E59.72951
G1 X69.215 Y148.452 E59.73931
G1 X68.833 Y148.247 E59.75402
G1 X67.753 Y147.167 E59.80584
G1 X67.548 Y146.785 E59.82054
G1 X67.5 Y146.5 E59.83035
G1 X67.5 Y119.451 E60.748
G1 X67.57 Y119.162 E60.75808
G1 X67.707 Y118.899 E60.76814
G1 X67.845 Y118.76 E60.77479
G1 X68.172 Y118.565 E60.78771
G1 X68.5 Y118.5 E60.79905
G0 F6000 X68.5 Y119.3
G1 F420 X116.5 Y119.3 E62.42747
G1 X116.619 Y119.339 E62.43171
G1 X116.7 Y119.5 E62.43783
G1 X116.7 Y146.5 E63.35381
G1 X116.641 Y146.641 E63.359
G1 X115.641 Y147.641 E63.40698
G1 X115.5 Y147.7 E63.41216
G1 X69.5 Y147.7 E64.97273
G1 X69.359 Y147.641 E64.97791
G1 X68.359 Y146.641 E65.02589
G1 X68.3 Y146.5 E65.03108
G1 X68.3 Y119.5 E65.94706
G1 X68.339 Y119.381 E65.95131
G1 X68.5 Y119.3 E65.95742
G1 F3000 E59.95742
G0 F6000 X68.5 Y118.835
G0 X117.153 Y118.847
G0 X117.835 Y119.5
G0 X118.3 Y119.5
G1 F3000 E65.95742
G1 F420 X118.3 Y146.5 E66.87341
G1 X118.359 Y146.641 E66.87859
G1 X119.359 Y147.641 E66.92657
G1 X119.5 Y147.7 E66.93175
G1 X165.5 Y147.7 E68.49232
G1 X165.641 Y147.641 E68.49751
G1 X166.641 Y146.641 E68.54548
G1 X166.7 Y146.5 E68.55067
G1 X166.7 Y119.5 E69.46665
G1 X166.619 Y119.339 E69.47277
G1 X166.5 Y119.3 E69.47702
G1 X118.5 Y119.3 E71.10543
G1 X118.339 Y119.381 E71.11155
G1 X118.3 Y119.5 E71.11579
G0 F6000 X117.9 Y119.5
G1 F420 X117.959 Y119.256 E71.12431
G1 X118.05 Y119.104 E71.13032
G1 X118.32 Y118.943 E71.14099
G1 X118.5 Y118.9 E71.14726
G1 X166.5 Y118.9 E72.77568
G1 X166.744 Y118.959 E72.7842
G1 X166.896 Y119.05 E72.79021
G1 X167.057 Y119.32 E72.80087
G1 X167.1 Y119.5 E72.80715
G1 X167.1 Y146.5 E73.72313
G1 X167.069 Y146.654 E73.72846
G1 X166.924 Y146.924 E73.73886
G1 X165.924 Y147.924 E73.78684
G1 X165.654 Y148.069 E73.79723
G1 X165.5 Y148.1 E73.80256
G1 X119.5 Y148.1 E75.36313
G1 X119.346 Y148.069 E75.36846
G1 X119.076 Y147.924 E75.37886
G1 X118.076 Y146.924 E75.42683
G1 X117.931 Y146.654 E75.43723
G1 X117.9 Y146.5 E75.44256
G1 X117.9 Y119.5 E76.35854
G0 F6000 X117.1 Y119.5
G1 F420 X117.1 Y146.5 E77.27453
G1 X117.069 Y146.654 E77.27986
G1 X116.924 Y146.924 E77.29025
G1 X115.924 Y147.924 E77.33823
G1 X115.654 Y148.069 E77.34863
G1 X115.5 Y148.1 E77.35396
G1 X69.5 Y148.1 E78.91452
G1 X69.346 Y148.069 E78.91985
G1 X69.076 Y147.924 E78.93025
G1 X68.076 Y146.924 E78.97823
G1 X67.931 Y146.654 E78.98863
G1 X67.9 Y146.5 E78.99396
G1 X67.9 Y119.5 E79.90994
G1 X67.959 Y119.256 E79.91846
G1 X68.05 Y119.104 E79.92447
G1 X68.32 Y118.943 E79.93513
G1 X68.5 Y118.9 E79.94141
G1 X116.5 Y118.9 E81.56983
G1 X116.744 Y118.959 E81.57834
G1 X116.896 Y119.05 E81.58435
G1 X117.057 Y119.32 E81.59502
G1 X117.1 Y119.5 E81.60129
G1 F3000 E75.60129
;MESH:Ultrasonic-Sensor-Bracket-Horizontal.stl(2)
G0 F6000 X117.165 Y119.5
G0 X117.1 Y117.165
G0 X105.607 Y108.248
;TYPE:WALL-OUTER
G1 F3000 E81.60129
G1 F420 X104.879 Y108.316 E81.6261
G1 X104.121 Y108.316 E81.65182
G1 X103.389 Y108.248 E81.67676
G1 X102.634 Y108.113 E81.70278
G1 X101.918 Y107.912 E81.728
G1 X101.23 Y107.656 E81.75291
G1 X100.545 Y107.324 E81.77873
G1 X99.925 Y106.957 E81.80318
G1 X99.304 Y106.503 E81.82927
G1 X98.744 Y106.015 E81.85447
G1 X98.227 Y105.473 E81.87988
G1 X97.757 Y104.883 E81.90547
G1 X97.347 Y104.267 E81.93058
G1 X96.999 Y103.615 E81.95565
G1 X96.701 Y102.918 E81.98137
G1 X96.472 Y102.209 E82.00664
G1 X96.308 Y101.489 E82.0317
G1 X96.209 Y100.759 E82.05669
G1 X96.176 Y99.991 E82.08277
G1 X96.209 Y99.237 E82.10837
G1 X96.308 Y98.507 E82.13336
G1 X96.472 Y97.787 E82.15842
G1 X96.701 Y97.078 E82.18369
G1 X96.999 Y96.381 E82.20941
G1 X97.347 Y95.733 E82.23436
G1 X97.767 Y95.103 E82.26005
G1 X98.239 Y94.509 E82.28579
G1 X98.744 Y93.981 E82.31057
G1 X99.318 Y93.481 E82.3364
G1 X99.91 Y93.053 E82.36118
G1 X100.56 Y92.664 E82.38688
G1 X101.23 Y92.34 E82.41213
G1 X101.918 Y92.084 E82.43703
G1 X102.651 Y91.883 E82.46282
G1 X103.389 Y91.748 E82.48827
G1 X104.121 Y91.68 E82.51321
G1 X104.879 Y91.68 E82.53893
G1 X105.607 Y91.748 E82.56373
G1 X106.366 Y91.887 E82.58991
G1 X107.078 Y92.084 E82.61497
G1 X107.766 Y92.34 E82.63988
G1 X108.451 Y92.672 E82.6657
G1 X109.09 Y93.053 E82.69094
G1 X109.682 Y93.481 E82.71572
G1 X110.265 Y93.993 E82.74205
G1 X110.769 Y94.523 E82.76686
G1 X111.243 Y95.117 E82.79264
G1 X111.649 Y95.733 E82.81767
G1 X111.997 Y96.381 E82.84262
G1 X112.295 Y97.078 E82.86834
G1 X112.523 Y97.786 E82.89357
G1 X112.692 Y98.507 E82.91869
G1 X112.788 Y99.254 E82.94425
G1 X112.824 Y100.01 E82.96992
G1 X112.787 Y100.758 E82.99533
G1 X112.691 Y101.49 E83.02037
G1 X112.519 Y102.226 E83.04602
G1 X112.292 Y102.927 E83.07101
G1 X111.997 Y103.615 E83.09641
G1 X111.639 Y104.283 E83.12212
G1 X111.232 Y104.898 E83.14714
G1 X110.757 Y105.487 E83.17281
G1 X110.265 Y106.003 E83.197
G1 X109.682 Y106.514 E83.2233
G1 X109.074 Y106.957 E83.24882
G1 X108.45 Y107.325 E83.2734
G1 X107.766 Y107.656 E83.29918
G1 X107.063 Y107.917 E83.32462
G1 X106.367 Y108.113 E83.34915
G1 X105.607 Y108.248 E83.37533
G1 F3000 E77.37533
G0 F6000 X105.671 Y108.957
G0 X131.671 Y108.957
G0 X131.607 Y108.248
G1 F3000 E83.37533
G1 F420 X130.879 Y108.316 E83.40014
G1 X130.121 Y108.316 E83.42585
G1 X129.389 Y108.248 E83.45079
G1 X128.634 Y108.113 E83.47681
G1 X127.918 Y107.912 E83.50204
G1 X127.23 Y107.656 E83.52695
G1 X126.545 Y107.324 E83.55277
G1 X125.925 Y106.957 E83.57721
G1 X125.304 Y106.503 E83.60331
G1 X124.731 Y106.003 E83.62911
G1 X124.227 Y105.473 E83.65392
G1 X123.757 Y104.883 E83.67951
G1 X123.347 Y104.267 E83.70462
G1 X122.995 Y103.607 E83.72999
G1 X122.701 Y102.918 E83.75541
G1 X122.473 Y102.209 E83.78067
G1 X122.308 Y101.489 E83.80573
G1 X122.208 Y100.75 E83.83103
G1 X122.176 Y99.991 E83.8568
G1 X122.209 Y99.237 E83.88241
G1 X122.308 Y98.507 E83.9074
G1 X122.477 Y97.77 E83.93305
G1 X122.704 Y97.069 E83.95805
G1 X122.999 Y96.381 E83.98345
G1 X123.347 Y95.733 E84.0084
G1 X123.767 Y95.103 E84.03409
G1 X124.227 Y94.523 E84.0592
G1 X124.731 Y93.993 E84.08401
G1 X125.318 Y93.481 E84.11044
G1 X125.91 Y93.053 E84.13522
G1 X126.56 Y92.664 E84.16092
G1 X127.23 Y92.34 E84.18617
G1 X127.918 Y92.084 E84.21107
G1 X128.651 Y91.883 E84.23686
G1 X129.389 Y91.748 E84.26231
G1 X130.121 Y91.68 E84.28725
G1 X130.879 Y91.68 E84.31297
G1 X131.607 Y91.748 E84.33777
G1 X132.366 Y91.887 E84.36395
G1 X133.078 Y92.084 E84.38901
G1 X133.766 Y92.34 E84.41391
G1 X134.451 Y92.672 E84.43974
G1 X135.09 Y93.053 E84.46498
G1 X135.682 Y93.481 E84.48976
G1 X136.254 Y93.982 E84.51556
G1 X136.769 Y94.523 E84.5409
G1 X137.243 Y95.117 E84.56668
G1 X137.649 Y95.733 E84.59171
G1 X137.997 Y96.381 E84.61666
G1 X138.295 Y97.078 E84.64238
G1 X138.519 Y97.77 E84.66705
G1 X138.695 Y98.526 E84.69339
G1 X138.787 Y99.238 E84.71774
G1 X138.824 Y100.01 E84.74396
G1 X138.787 Y100.758 E84.76937
G1 X138.694 Y101.479 E84.79403
G1 X138.519 Y102.226 E84.82006
G1 X138.295 Y102.918 E84.84474
G1 X137.997 Y103.615 E84.87045
G1 X137.649 Y104.267 E84.89553
G1 X137.232 Y104.898 E84.92118
G1 X136.757 Y105.487 E84.94685
G1 X136.265 Y106.003 E84.97104
G1 X135.682 Y106.514 E84.99734
G1 X135.074 Y106.957 E85.02286
G1 X134.436 Y107.332 E85.04797
G1 X133.766 Y107.656 E85.07322
G1 X133.063 Y107.917 E85.09866
G1 X132.367 Y108.113 E85.12319
G1 X131.607 Y108.248 E85.14938
G1 F3000 E79.14938
G0 F6000 X131.671 Y108.957
G0 X141.02 Y116.02
G0 X141.3 Y116.3
G1 F3000 E85.14938
G1 F420 X141.3 Y89.584 E86.05573
G1 X140.413 Y88.7 E86.09821
G1 X94.583 Y88.7 E87.65301
G1 X93.7 Y89.583 E87.69537
G1 X93.701 Y116.299 E88.60172
G1 X141.3 Y116.3 E90.21653
G0 F6000 X140.9 Y115.9
;TYPE:WALL-INNER
G1 F420 X140.9 Y89.75 E91.11255
G1 X140.248 Y89.1 E91.1441
G1 X94.749 Y89.1 E92.7031
